(1001)
(T1  D=3.175 CR=0. - ZMIN=-32.24 - FLAT END MILL)
G0 G90 G94 G17
G21
G53 G0 Z0.

(ADAPTIVE2)
M5
M9
T1
S16500 M3
G4 P4.
G55
G0 X-44.649 Y51.39
Z15.
Z5.
Z-9.365
G1 Z-9.682 F1016.
X-44.645 Y51.383 Z-9.753
X-44.633 Y51.363 Z-9.82
X-44.612 Y51.331 Z-9.88
X-44.586 Y51.289 Z-9.931
X-44.554 Y51.238 Z-9.969
X-44.518 Y51.181 Z-9.992
X-44.481 Y51.121 Z-10.
G3 X-43.399 Y49.75 I6.867 J4.307
G1 X-43.332 Y49.687
X-43.187 Y49.6
X-42.978 Y49.496
X-42.85 Y49.446
X-42.651 Y49.397
X-42.446 Y49.404
X-42.251 Y49.468
X-42.115 Y49.534
X-41.947 Y49.598
X-41.885 Y49.621
X-41.78 Y49.649
X-41.612 Y49.682
X-41.445 Y49.701
X-41.277 Y49.712
X41.277
X41.445 Y49.701
X41.612 Y49.682
X41.78 Y49.649
X41.885 Y49.621
X41.947 Y49.598
X42.115 Y49.534
X42.282 Y49.453
X42.45 Y49.347
X42.534 Y49.286
X42.617 Y49.217
X42.733 Y49.118
X42.784 Y49.064
X42.952 Y48.867
X43.007 Y48.783
X43.11 Y48.615
X43.192 Y48.448
X43.257 Y48.28
X43.287 Y48.18
X43.336 Y47.945
X43.353 Y47.777
X43.362 Y47.609
X43.363 Y46.436
X43.362 Y-47.274
Y-47.609
X43.353 Y-47.777
X43.336 Y-47.945
X43.287 Y-48.18
X43.257 Y-48.28
X43.192 Y-48.448
X43.11 Y-48.615
X43.007 Y-48.783
X42.952 Y-48.867
X42.784 Y-49.064
X42.733 Y-49.118
X42.617 Y-49.217
X42.534 Y-49.286
X42.45 Y-49.347
X42.28 Y-49.453
X42.115 Y-49.534
X41.947 Y-49.598
X41.885 Y-49.621
X41.78 Y-49.649
X41.612 Y-49.682
X41.445 Y-49.701
X41.277 Y-49.712
X-41.277
X-41.445 Y-49.701
X-41.612 Y-49.682
X-41.78 Y-49.649
X-41.885 Y-49.621
X-41.947 Y-49.598
X-42.115 Y-49.534
X-42.282 Y-49.453
X-42.45 Y-49.347
X-42.534 Y-49.286
X-42.617 Y-49.217
X-42.733 Y-49.118
X-42.784 Y-49.064
X-42.952 Y-48.867
X-43.007 Y-48.783
X-43.11 Y-48.615
X-43.192 Y-48.448
X-43.257 Y-48.28
X-43.287 Y-48.18
X-43.336 Y-47.945
X-43.353 Y-47.777
X-43.362 Y-47.609
Y-46.436
Y47.274
Y47.609
X-43.353 Y47.777
X-43.336 Y47.945
X-43.287 Y48.18
X-43.257 Y48.28
X-43.192 Y48.448
X-43.11 Y48.615
X-43.007 Y48.783
X-42.952 Y48.867
X-42.828 Y49.013
G3 X-42.857 Y49.439 I-0.249 J0.197
G1 X-42.904 Y49.466 Z-9.995
X-42.95 Y49.492 Z-9.981
X-42.993 Y49.516 Z-9.958
X-43.037 Y49.522 Z-9.926
X-43.076 Y49.527 Z-9.888
X-43.077 Z-9.887
X-43.108 Y49.524 Z-9.841
X-43.132 Y49.521 Z-9.791
X-43.146 Y49.519 Z-9.738
X-43.151 Z-9.683
G0 Z5.
X-5.475 Y-10.413
Z2.5
G3 X-5.955 Y-13.391 Z2.335 I-0.24 J-1.489 F1016.
X-5.475 Y-10.413 Z2.169 I0.24 J1.489
X-5.955 Y-13.391 Z2.004 I-0.24 J-1.489
X-5.475 Y-10.413 Z1.838 I0.24 J1.489
X-5.955 Y-13.391 Z1.673 I-0.24 J-1.489
X-5.475 Y-10.413 Z1.507 I0.24 J1.489
X-5.955 Y-13.391 Z1.342 I-0.24 J-1.489
X-5.475 Y-10.413 Z1.176 I0.24 J1.489
X-5.955 Y-13.391 Z1.011 I-0.24 J-1.489
X-5.475 Y-10.413 Z0.845 I0.24 J1.489
X-5.955 Y-13.391 Z0.68 I-0.24 J-1.489
X-5.475 Y-10.413 Z0.515 I0.24 J1.489
X-5.955 Y-13.391 Z0.349 I-0.24 J-1.489
X-5.475 Y-10.413 Z0.184 I0.24 J1.489
X-5.955 Y-13.391 Z0.018 I-0.24 J-1.489
X-5.475 Y-10.413 Z-0.147 I0.24 J1.489
X-5.955 Y-13.391 Z-0.313 I-0.24 J-1.489
X-5.475 Y-10.413 Z-0.478 I0.24 J1.489
X-5.955 Y-13.391 Z-0.644 I-0.24 J-1.489
X-5.475 Y-10.413 Z-0.809 I0.24 J1.489
X-5.955 Y-13.391 Z-0.974 I-0.24 J-1.489
X-5.475 Y-10.413 Z-1.14 I0.24 J1.489
X-5.955 Y-13.391 Z-1.305 I-0.24 J-1.489
X-5.475 Y-10.413 Z-1.471 I0.24 J1.489
X-5.955 Y-13.391 Z-1.636 I-0.24 J-1.489
X-5.475 Y-10.413 Z-1.802 I0.24 J1.489
X-5.955 Y-13.391 Z-1.967 I-0.24 J-1.489
X-5.475 Y-10.413 Z-2.133 I0.24 J1.489
X-5.955 Y-13.391 Z-2.298 I-0.24 J-1.489
X-5.475 Y-10.413 Z-2.464 I0.24 J1.489
X-5.955 Y-13.391 Z-2.629 I-0.24 J-1.489
X-5.475 Y-10.413 Z-2.794 I0.24 J1.489
X-5.955 Y-13.391 Z-2.96 I-0.24 J-1.489
X-5.475 Y-10.413 Z-3.125 I0.24 J1.489
X-5.955 Y-13.391 Z-3.291 I-0.24 J-1.489
X-5.475 Y-10.413 Z-3.456 I0.24 J1.489
X-5.955 Y-13.391 Z-3.622 I-0.24 J-1.489
X-5.475 Y-10.413 Z-3.787 I0.24 J1.489
X-5.955 Y-13.391 Z-3.953 I-0.24 J-1.489
X-5.475 Y-10.413 Z-4.118 I0.24 J1.489
X-5.955 Y-13.391 Z-4.284 I-0.24 J-1.489
X-5.475 Y-10.413 Z-4.449 I0.24 J1.489
X-5.955 Y-13.391 Z-4.614 I-0.24 J-1.489
X-5.475 Y-10.413 Z-4.78 I0.24 J1.489
X-5.955 Y-13.391 Z-4.945 I-0.24 J-1.489
X-5.475 Y-10.413 Z-5.111 I0.24 J1.489
X-5.955 Y-13.391 Z-5.276 I-0.24 J-1.489
X-5.475 Y-10.413 Z-5.442 I0.24 J1.489
X-5.955 Y-13.391 Z-5.607 I-0.24 J-1.489
X-5.475 Y-10.413 Z-5.773 I0.24 J1.489
X-5.955 Y-13.391 Z-5.938 I-0.24 J-1.489
X-5.475 Y-10.413 Z-6.103 I0.24 J1.489
X-5.955 Y-13.391 Z-6.269 I-0.24 J-1.489
X-5.475 Y-10.413 Z-6.434 I0.24 J1.489
X-5.955 Y-13.391 Z-6.6 I-0.24 J-1.489
X-5.475 Y-10.413 Z-6.765 I0.24 J1.489
X-5.955 Y-13.391 Z-6.931 I-0.24 J-1.489
X-5.475 Y-10.413 Z-7.096 I0.24 J1.489
X-5.955 Y-13.391 Z-7.262 I-0.24 J-1.489
X-5.475 Y-10.413 Z-7.427 I0.24 J1.489
X-5.955 Y-13.391 Z-7.593 I-0.24 J-1.489
X-5.475 Y-10.413 Z-7.758 I0.24 J1.489
X-5.955 Y-13.391 Z-7.923 I-0.24 J-1.489
X-5.475 Y-10.413 Z-8.089 I0.24 J1.489
X-5.955 Y-13.391 Z-8.254 I-0.24 J-1.489
X-5.475 Y-10.413 Z-8.42 I0.24 J1.489
X-5.955 Y-13.391 Z-8.585 I-0.24 J-1.489
X-5.475 Y-10.413 Z-8.751 I0.24 J1.489
X-5.955 Y-13.391 Z-8.916 I-0.24 J-1.489
X-5.475 Y-10.413 Z-9.082 I0.24 J1.489
X-5.955 Y-13.391 Z-9.247 I-0.24 J-1.489
X-5.475 Y-10.413 Z-9.413 I0.24 J1.489
X-5.955 Y-13.391 Z-9.578 I-0.24 J-1.489
X-5.475 Y-10.413 Z-9.743 I0.24 J1.489
X-5.955 Y-13.391 Z-9.909 I-0.24 J-1.489
X-4.207 Y-11.902 Z-10. I0.24 J1.489
X-7.223 I-1.508 J0.
X-4.207 I1.508 J0.
G1 X-4.188 Y-11.165
X-4.166 Y-11.075
X-4.15 Y-10.926
X-4.163 Y-10.777
X-4.198 Y-10.631
X-4.253 Y-10.491
X-4.325 Y-10.359
X-4.411 Y-10.236
X-4.509 Y-10.123
X-4.617 Y-10.019
X-4.735 Y-9.927
X-4.861 Y-9.845
X-4.993 Y-9.774
X-5.131 Y-9.713
X-5.278 Y-9.663
X-5.432 Y-9.623
X-5.592 Y-9.596
X-5.757 Y-9.581
X-5.926 Y-9.58
X-6.097 Y-9.592
X-6.269 Y-9.618
X-6.44 Y-9.658
X-6.61 Y-9.713
X-6.776 Y-9.782
X-6.938 Y-9.864
X-7.093 Y-9.961
X-7.242 Y-10.07
X-7.382 Y-10.191
X-7.513 Y-10.324
X-7.633 Y-10.468
X-7.742 Y-10.622
X-7.838 Y-10.784
X-7.922 Y-10.954
X-7.991 Y-11.131
X-8.047 Y-11.314
X-8.087 Y-11.5
X-8.113 Y-11.69
X-8.123 Y-11.881
X-8.118 Y-12.073
X-8.097 Y-12.264
X-8.062 Y-12.454
X-8.011 Y-12.639
X-7.945 Y-12.821
X-7.865 Y-12.996
X-7.771 Y-13.165
X-7.663 Y-13.325
X-7.543 Y-13.477
X-7.412 Y-13.619
X-7.269 Y-13.749
X-7.116 Y-13.868
X-6.954 Y-13.974
X-6.784 Y-14.067
X-6.607 Y-14.146
X-6.424 Y-14.21
X-6.237 Y-14.26
X-6.046 Y-14.294
X-5.854 Y-14.313
X-5.66 Y-14.316
X-5.466 Y-14.304
X-5.274 Y-14.276
X-5.085 Y-14.234
X-4.9 Y-14.176
X-4.721 Y-14.103
X-4.547 Y-14.016
X-4.381 Y-13.916
X-4.224 Y-13.802
X-4.076 Y-13.676
X-3.939 Y-13.539
X-3.814 Y-13.391
X-3.7 Y-13.234
X-3.596 Y-13.061
X-3.485 Y-12.839
X-3.338 Y-12.474
X-3.231 Y-12.131
X-3.167 Y-11.849
X-3.13 Y-11.593
X-3.115 Y-11.356
X-3.119 Y-11.133
X-3.141 Y-10.92
X-3.178 Y-10.713
X-3.232 Y-10.51
X-3.301 Y-10.313
X-3.387 Y-10.123
X-3.487 Y-9.94
X-3.601 Y-9.765
X-3.731 Y-9.599
X-3.875 Y-9.441
X-4.033 Y-9.294
X-4.205 Y-9.159
X-4.389 Y-9.036
X-4.586 Y-8.926
X-4.794 Y-8.832
X-5.011 Y-8.753
X-5.238 Y-8.691
X-5.472 Y-8.647
X-5.712 Y-8.621
X-5.956 Y-8.615
X-6.202 Y-8.628
X-6.449 Y-8.662
X-6.695 Y-8.715
X-6.938 Y-8.789
X-7.175 Y-8.883
X-7.406 Y-8.997
X-7.629 Y-9.129
X-7.842 Y-9.28
X-8.043 Y-9.448
X-8.231 Y-9.633
X-8.404 Y-9.833
X-8.561 Y-10.048
X-8.701 Y-10.275
X-8.823 Y-10.514
X-8.925 Y-10.762
X-9.008 Y-11.019
X-9.07 Y-11.282
X-9.11 Y-11.55
X-9.129 Y-11.821
X-9.127 Y-12.092
X-9.102 Y-12.363
X-9.056 Y-12.632
X-8.988 Y-12.897
X-8.899 Y-13.155
X-8.789 Y-13.406
X-8.66 Y-13.647
X-8.511 Y-13.877
X-8.345 Y-14.095
X-8.161 Y-14.298
X-7.962 Y-14.487
X-7.748 Y-14.659
X-7.521 Y-14.813
X-7.282 Y-14.949
X-7.033 Y-15.065
X-6.775 Y-15.16
X-6.51 Y-15.235
X-6.241 Y-15.288
X-5.968 Y-15.32
X-5.693 Y-15.329
X-5.418 Y-15.316
X-5.145 Y-15.281
X-4.876 Y-15.225
X-4.612 Y-15.147
X-4.355 Y-15.048
X-4.107 Y-14.929
X-3.869 Y-14.79
X-3.644 Y-14.633
X-3.43 Y-14.457
X-3.224 Y-14.257
X-3.01 Y-14.013
X-2.808 Y-13.743
X-2.621 Y-13.446
X-2.457 Y-13.129
X-2.319 Y-12.804
X-2.211 Y-12.478
X-2.132 Y-12.154
X-2.081 Y-11.834
X-2.056 Y-11.518
X-2.057 Y-11.205
X-2.082 Y-10.898
X-2.132 Y-10.596
X-2.205 Y-10.302
X-2.3 Y-10.017
X-2.418 Y-9.741
X-2.558 Y-9.475
X-2.719 Y-9.221
X-2.9 Y-8.981
X-3.1 Y-8.754
X-3.32 Y-8.544
X-3.557 Y-8.35
X-3.811 Y-8.174
X-4.081 Y-8.018
X-4.364 Y-7.883
X-4.66 Y-7.771
X-4.967 Y-7.681
X-5.283 Y-7.616
X-5.606 Y-7.576
X-5.933 Y-7.563
X-6.263 Y-7.575
X-6.592 Y-7.614
X-6.92 Y-7.68
X-7.244 Y-7.773
X-7.561 Y-7.892
X-7.869 Y-8.037
X-8.167 Y-8.208
X-8.451 Y-8.402
X-8.72 Y-8.62
X-8.972 Y-8.86
X-9.204 Y-9.12
X-9.416 Y-9.4
X-9.606 Y-9.696
X-9.771 Y-10.008
X-9.911 Y-10.332
X-10.026 Y-10.668
X-10.113 Y-11.013
X-10.172 Y-11.365
X-10.203 Y-11.72
X-10.205 Y-12.078
X-10.178 Y-12.435
X-10.123 Y-12.789
X-10.04 Y-13.139
X-9.928 Y-13.48
X-9.79 Y-13.812
X-9.625 Y-14.132
X-9.435 Y-14.438
X-9.22 Y-14.728
X-8.983 Y-15.
X-8.725 Y-15.252
X-8.448 Y-15.483
X-8.152 Y-15.691
X-7.841 Y-15.874
X-7.516 Y-16.032
X-7.179 Y-16.163
X-6.833 Y-16.267
X-6.479 Y-16.343
X-6.121 Y-16.39
X-5.76 Y-16.408
X-5.398 Y-16.398
X-5.039 Y-16.358
X-4.683 Y-16.289
X-4.335 Y-16.192
X-3.995 Y-16.068
X-3.666 Y-15.916
X-3.348 Y-15.738
X-3.035 Y-15.528
X-2.732 Y-15.286
X-2.44 Y-15.012
X-2.163 Y-14.708
X-1.908 Y-14.376
X-1.678 Y-14.023
X-1.476 Y-13.651
X-1.307 Y-13.267
X-1.169 Y-12.874
X-1.065 Y-12.474
X-0.994 Y-12.071
X-0.955 Y-11.667
X-0.949 Y-11.265
X-0.976 Y-10.867
X-1.033 Y-10.474
X-1.122 Y-10.09
X-1.241 Y-9.715
X-1.389 Y-9.352
X-1.566 Y-9.002
X-1.77 Y-8.668
X-2. Y-8.35
X-2.257 Y-8.051
X-2.537 Y-7.773
X-2.84 Y-7.517
X-3.164 Y-7.285
X-3.508 Y-7.079
X-3.869 Y-6.899
X-4.246 Y-6.749
X-4.636 Y-6.628
X-5.037 Y-6.539
X-5.447 Y-6.481
X-5.862 Y-6.457
X-6.28 Y-6.466
X-6.698 Y-6.509
X-7.114 Y-6.586
X-7.524 Y-6.696
X-7.927 Y-6.84
X-8.318 Y-7.016
X-8.696 Y-7.224
X-9.057 Y-7.463
X-9.399 Y-7.731
X-9.72 Y-8.027
X-10.017 Y-8.348
X-10.289 Y-8.694
X-10.532 Y-9.061
X-10.746 Y-9.448
X-10.928 Y-9.852
X-11.078 Y-10.27
X-11.194 Y-10.7
X-11.275 Y-11.138
X-11.321 Y-11.582
X-11.331 Y-12.029
X-11.305 Y-12.476
X-11.244 Y-12.92
X-11.146 Y-13.359
X-11.014 Y-13.788
X-10.848 Y-14.206
X-10.648 Y-14.609
X-10.417 Y-14.996
X-10.155 Y-15.363
X-9.864 Y-15.707
X-9.547 Y-16.028
X-9.204 Y-16.322
X-8.839 Y-16.588
X-8.454 Y-16.823
X-8.051 Y-17.027
X-7.633 Y-17.198
X-7.202 Y-17.335
X-6.762 Y-17.437
X-6.315 Y-17.504
X-5.864 Y-17.534
X-5.411 Y-17.528
X-4.961 Y-17.486
X-4.516 Y-17.407
X-4.077 Y-17.293
X-3.647 Y-17.144
X-3.227 Y-16.958
X-2.817 Y-16.737
X-2.422 Y-16.48
X-2.041 Y-16.187
X-1.677 Y-15.858
X-1.337 Y-15.495
X-1.023 Y-15.102
X-0.741 Y-14.683
X-0.492 Y-14.242
X-0.28 Y-13.782
X-0.106 Y-13.309
X0.029 Y-12.825
X0.124 Y-12.334
X0.179 Y-11.84
X0.195 Y-11.346
X0.17 Y-10.855
X0.107 Y-10.37
X0.005 Y-9.893
X-0.134 Y-9.427
X-0.31 Y-8.974
X-0.521 Y-8.538
X-0.767 Y-8.12
X-1.046 Y-7.722
X-1.356 Y-7.348
X-1.697 Y-6.999
X-2.065 Y-6.677
X-2.46 Y-6.385
X-2.878 Y-6.124
X-3.318 Y-5.897
X-3.777 Y-5.705
X-4.252 Y-5.549
X-4.74 Y-5.432
X-5.239 Y-5.354
X-5.745 Y-5.315
X-6.254 Y-5.318
X-6.765 Y-5.362
X-7.272 Y-5.447
X-7.773 Y-5.573
X-8.264 Y-5.739
X-8.742 Y-5.945
X-9.204 Y-6.19
X-9.647 Y-6.472
X-10.066 Y-6.79
X-10.461 Y-7.141
X-10.826 Y-7.524
X-11.161 Y-7.937
X-11.462 Y-8.376
X-11.728 Y-8.839
X-11.957 Y-9.323
X-12.146 Y-9.824
X-12.294 Y-10.34
X-12.401 Y-10.868
X-12.465 Y-11.402
X-12.486 Y-11.942
X-12.464 Y-12.481
X-12.398 Y-13.018
X-12.29 Y-13.548
X-12.139 Y-14.069
X-11.947 Y-14.576
X-11.714 Y-15.066
X-11.443 Y-15.536
X-11.134 Y-15.984
X-10.791 Y-16.405
X-10.415 Y-16.797
X-10.008 Y-17.159
X-9.573 Y-17.486
X-9.114 Y-17.778
X-8.632 Y-18.032
X-8.131 Y-18.246
X-7.615 Y-18.42
X-7.086 Y-18.551
X-6.549 Y-18.64
X-6.006 Y-18.686
X-5.461 Y-18.687
X-4.917 Y-18.645
X-4.378 Y-18.559
X-3.845 Y-18.43
X-3.321 Y-18.258
X-2.809 Y-18.042
X-2.311 Y-17.783
X-1.829 Y-17.482
X-1.368 Y-17.138
X-0.93 Y-16.755
X-0.521 Y-16.333
X-0.145 Y-15.877
X0.196 Y-15.39
X0.496 Y-14.876
X0.755 Y-14.339
X0.969 Y-13.784
X1.138 Y-13.215
X1.261 Y-12.635
X1.336 Y-12.05
X1.364 Y-11.463
X1.344 Y-10.877
X1.278 Y-10.297
X1.166 Y-9.725
X1.009 Y-9.166
X0.807 Y-8.621
X0.563 Y-8.095
X0.277 Y-7.59
X-0.048 Y-7.11
X-0.412 Y-6.656
X-0.811 Y-6.233
X-1.244 Y-5.842
X-1.709 Y-5.485
X-2.202 Y-5.167
X-2.721 Y-4.888
X-3.263 Y-4.65
X-3.824 Y-4.456
X-4.401 Y-4.308
X-4.991 Y-4.205
X-5.589 Y-4.15
X-6.192 Y-4.143
X-6.796 Y-4.185
X-7.397 Y-4.276
X-7.992 Y-4.415
X-8.575 Y-4.601
X-9.143 Y-4.835
X-9.692 Y-5.115
X-10.219 Y-5.439
X-10.72 Y-5.805
X-11.191 Y-6.211
X-11.629 Y-6.655
X-12.031 Y-7.134
X-12.394 Y-7.645
X-12.715 Y-8.184
X-12.993 Y-8.748
X-13.225 Y-9.334
X-13.409 Y-9.938
X-13.545 Y-10.556
X-13.631 Y-11.183
X-13.666 Y-11.816
X-13.65 Y-12.45
X-13.584 Y-13.082
X-13.466 Y-13.707
X-13.299 Y-14.321
X-13.083 Y-14.92
X-12.82 Y-15.5
X-12.51 Y-16.058
X-12.157 Y-16.589
X-11.761 Y-17.09
X-11.327 Y-17.558
X-10.857 Y-17.99
X-10.353 Y-18.383
X-9.819 Y-18.735
X-9.258 Y-19.042
X-8.675 Y-19.304
X-8.072 Y-19.517
X-7.454 Y-19.682
X-6.824 Y-19.797
X-6.187 Y-19.861
X-5.547 Y-19.873
X-4.907 Y-19.834
X-4.271 Y-19.744
X-3.641 Y-19.602
X-3.022 Y-19.409
X-2.415 Y-19.165
X-1.826 Y-18.871
X-1.257 Y-18.528
X-0.713 Y-18.137
X-0.199 Y-17.701
X0.282 Y-17.221
X0.726 Y-16.701
X1.128 Y-16.145
X1.485 Y-15.557
X1.795 Y-14.941
X2.054 Y-14.302
X2.26 Y-13.646
X2.413 Y-12.976
X2.512 Y-12.297
X2.555 Y-11.615
X2.544 Y-10.933
X2.478 Y-10.256
X2.359 Y-9.588
X2.186 Y-8.932
X1.961 Y-8.293
X1.686 Y-7.675
X1.363 Y-7.08
X0.992 Y-6.514
X0.577 Y-5.978
X0.12 Y-5.477
X-0.377 Y-5.013
X-0.911 Y-4.589
X-1.479 Y-4.209
X-2.077 Y-3.875
X-2.701 Y-3.589
X-3.349 Y-3.353
X-4.016 Y-3.169
X-4.698 Y-3.039
X-5.39 Y-2.964
X-6.088 Y-2.945
X-6.788 Y-2.982
X-7.485 Y-3.075
X-8.174 Y-3.224
X-8.852 Y-3.429
X-9.513 Y-3.689
X-10.153 Y-4.001
X-10.767 Y-4.365
X-11.352 Y-4.778
X-11.903 Y-5.238
X-12.416 Y-5.742
X-12.889 Y-6.286
X-13.317 Y-6.868
X-13.698 Y-7.483
X-14.029 Y-8.129
X-14.307 Y-8.799
X-14.531 Y-9.491
X-14.699 Y-10.2
X-14.81 Y-10.921
X-14.862 Y-11.649
X-14.856 Y-12.38
X-14.791 Y-13.108
X-14.668 Y-13.83
X-14.488 Y-14.54
X-14.25 Y-15.233
X-13.958 Y-15.906
X-13.612 Y-16.554
X-13.215 Y-17.172
X-12.77 Y-17.756
X-12.279 Y-18.303
X-11.746 Y-18.809
X-11.174 Y-19.27
X-10.566 Y-19.685
X-9.927 Y-20.049
X-9.26 Y-20.361
X-8.571 Y-20.618
X-7.863 Y-20.82
X-7.141 Y-20.963
X-6.409 Y-21.049
X-5.673 Y-21.075
X-4.936 Y-21.043
X-4.203 Y-20.951
X-3.481 Y-20.801
X-2.773 Y-20.594
X-2.083 Y-20.331
X-1.417 Y-20.015
X-0.777 Y-19.647
X-0.168 Y-19.231
X0.407 Y-18.769
X0.945 Y-18.264
X1.444 Y-17.72
X1.899 Y-17.139
X2.309 Y-16.526
X2.672 Y-15.884
X2.986 Y-15.216
X3.249 Y-14.526
X3.459 Y-13.819
X3.615 Y-13.098
X3.716 Y-12.367
X3.761 Y-11.631
X3.75 Y-10.893
X3.682 Y-10.158
X3.557 Y-9.431
X3.378 Y-8.715
X3.144 Y-8.016
X2.857 Y-7.336
X2.519 Y-6.68
X2.133 Y-6.052
X1.699 Y-5.455
X1.221 Y-4.893
X0.701 Y-4.369
X0.144 Y-3.886
X-0.449 Y-3.446
X-1.073 Y-3.053
X-1.726 Y-2.708
X-2.402 Y-2.414
X-3.099 Y-2.17
X-3.811 Y-1.98
X-4.536 Y-1.844
X-5.27 Y-1.763
X-6.007 Y-1.738
X-6.744 Y-1.769
X-7.477 Y-1.854
X-8.202 Y-1.993
X-8.914 Y-2.185
X-9.611 Y-2.428
X-10.288 Y-2.721
X-10.942 Y-3.063
X-11.569 Y-3.451
X-12.167 Y-3.884
X-12.732 Y-4.359
X-13.259 Y-4.875
X-13.747 Y-5.428
X-14.193 Y-6.016
X-14.596 Y-6.634
X-14.954 Y-7.279
X-15.265 Y-7.948
X-15.527 Y-8.638
X-15.74 Y-9.344
X-15.902 Y-10.064
X-16.012 Y-10.794
X-16.067 Y-11.529
X-16.068 Y-12.267
X-16.017 Y-13.003
X-15.914 Y-13.734
X-15.759 Y-14.455
X-15.554 Y-15.164
X-15.299 Y-15.857
X-14.997 Y-16.53
X-14.647 Y-17.179
X-14.249 Y-17.801
X-13.808 Y-18.392
X-13.326 Y-18.95
X-12.806 Y-19.474
X-12.25 Y-19.959
X-11.661 Y-20.404
X-11.043 Y-20.806
X-10.398 Y-21.165
X-9.729 Y-21.475
X-9.039 Y-21.736
X-8.331 Y-21.946
X-7.611 Y-22.105
X-6.881 Y-22.214
X-6.146 Y-22.271
X-5.408 Y-22.276
X-4.671 Y-22.23
X-3.94 Y-22.132
X-3.218 Y-21.981
X-2.508 Y-21.778
X-1.815 Y-21.526
X-1.141 Y-21.226
X-0.489 Y-20.88
X0.137 Y-20.491
X0.736 Y-20.06
X1.305 Y-19.59
X1.84 Y-19.082
X2.338 Y-18.538
X2.798 Y-17.96
X3.217 Y-17.353
X3.595 Y-16.72
X3.93 Y-16.063
X4.221 Y-15.385
X4.467 Y-14.689
X4.666 Y-13.978
X4.818 Y-13.256
X4.918 Y-12.525
X4.968 Y-11.789
X4.967 Y-11.051
X4.916 Y-10.315
X4.815 Y-9.584
X4.666 Y-8.862
X4.469 Y-8.151
X4.224 Y-7.455
X3.933 Y-6.777
X3.595 Y-6.121
X3.212 Y-5.49
X2.787 Y-4.887
X2.323 Y-4.314
X1.821 Y-3.773
X1.284 Y-3.267
X0.714 Y-2.798
X0.115 Y-2.368
X-0.512 Y-1.978
X-1.164 Y-1.634
X-1.839 Y-1.334
X-2.532 Y-1.081
X-3.24 Y-0.875
X-3.96 Y-0.716
X-4.69 Y-0.605
X-5.425 Y-0.543
X-6.163 Y-0.53
X-6.9 Y-0.565
X-7.633 Y-0.651
X-8.358 Y-0.785
X-9.073 Y-0.968
X-9.774 Y-1.197
X-10.46 Y-1.47
X-11.126 Y-1.787
X-11.771 Y-2.146
X-12.391 Y-2.545
X-12.985 Y-2.983
X-13.547 Y-3.46
X-14.076 Y-3.975
X-14.57 Y-4.523
X-15.027 Y-5.102
X-15.446 Y-5.71
X-15.826 Y-6.342
X-16.165 Y-6.998
X-16.462 Y-7.673
X-16.716 Y-8.366
X-16.925 Y-9.073
X-17.087 Y-9.793
X-17.201 Y-10.522
X-17.266 Y-11.257
X-17.285 Y-11.994
X-17.256 Y-12.732
X-17.181 Y-13.466
X-17.06 Y-14.194
X-16.893 Y-14.912
X-16.683 Y-15.619
X-16.427 Y-16.312
X-16.126 Y-16.985
X-15.782 Y-17.638
X-15.396 Y-18.267
X-14.97 Y-18.869
X-14.508 Y-19.444
X-14.01 Y-19.989
X-13.479 Y-20.501
X-12.917 Y-20.98
X-12.327 Y-21.422
X-11.709 Y-21.825
X-11.066 Y-22.186
X-10.4 Y-22.505
X-9.716 Y-22.781
X-9.015 Y-23.012
X-8.302 Y-23.199
X-7.577 Y-23.341
X-6.846 Y-23.437
X-6.11 Y-23.488
X-5.372 Y-23.492
X-4.636 Y-23.447
X-3.904 Y-23.355
X-3.179 Y-23.217
X-2.465 Y-23.032
X-1.763 Y-22.803
X-1.077 Y-22.531
X-0.41 Y-22.217
X0.238 Y-21.863
X0.862 Y-21.47
X1.461 Y-21.039
X2.031 Y-20.571
X2.572 Y-20.068
X3.08 Y-19.533
X3.554 Y-18.968
X3.993 Y-18.375
X4.396 Y-17.757
X4.762 Y-17.117
X5.089 Y-16.455
X5.376 Y-15.776
X5.622 Y-15.08
X5.824 Y-14.37
X5.981 Y-13.649
X6.095 Y-12.92
X6.163 Y-12.186
X6.186 Y-11.448
X6.165 Y-10.711
X6.099 Y-9.976
X5.99 Y-9.246
X5.837 Y-8.524
X5.639 Y-7.814
X5.398 Y-7.116
X5.113 Y-6.436
X4.787 Y-5.774
X4.421 Y-5.133
X4.017 Y-4.516
X3.576 Y-3.924
X3.101 Y-3.36
X2.592 Y-2.825
X2.053 Y-2.322
X1.484 Y-1.853
X0.886 Y-1.419
X0.263 Y-1.024
X-0.382 Y-0.667
X-1.049 Y-0.351
X-1.733 Y-0.075
X-2.432 Y0.16
X-3.145 Y0.353
X-3.867 Y0.503
X-4.597 Y0.61
X-5.332 Y0.672
X-6.07 Y0.689
X-6.807 Y0.661
X-7.541 Y0.589
X-8.27 Y0.472
X-8.99 Y0.313
X-9.7 Y0.111
X-10.397 Y-0.131
X-11.079 Y-0.413
X-11.743 Y-0.734
X-12.388 Y-1.093
X-13.009 Y-1.49
X-13.606 Y-1.924
X-14.176 Y-2.393
X-14.717 Y-2.895
X-15.227 Y-3.428
X-15.705 Y-3.99
X-16.149 Y-4.579
X-16.56 Y-5.192
X-16.935 Y-5.828
X-17.272 Y-6.484
X-17.57 Y-7.159
X-17.829 Y-7.85
X-18.046 Y-8.555
X-18.222 Y-9.271
X-18.355 Y-9.997
X-18.445 Y-10.729
X-18.493 Y-11.466
X-18.499 Y-12.203
X-18.462 Y-12.94
X-18.384 Y-13.674
X-18.263 Y-14.402
X-18.1 Y-15.121
X-17.896 Y-15.83
X-17.651 Y-16.526
X-17.365 Y-17.207
X-17.041 Y-17.869
X-16.678 Y-18.512
X-16.279 Y-19.133
X-15.846 Y-19.73
X-15.379 Y-20.301
X-14.881 Y-20.845
X-14.351 Y-21.359
X-13.793 Y-21.841
X-13.207 Y-22.29
X-12.597 Y-22.705
X-11.963 Y-23.083
X-11.309 Y-23.424
X-10.636 Y-23.727
X-9.947 Y-23.991
X-9.244 Y-24.215
X-8.53 Y-24.399
X-7.806 Y-24.541
X-7.075 Y-24.64
X-6.339 Y-24.698
X-5.602 Y-24.713
X-4.864 Y-24.685
X-4.13 Y-24.615
X-3.401 Y-24.503
X-2.679 Y-24.349
X-1.967 Y-24.155
X-1.268 Y-23.921
X-0.582 Y-23.647
X0.086 Y-23.335
X0.736 Y-22.985
X1.365 Y-22.599
X1.971 Y-22.179
X2.553 Y-21.725
X3.108 Y-21.239
X3.636 Y-20.724
X4.134 Y-20.179
X4.602 Y-19.609
X5.038 Y-19.013
X5.44 Y-18.395
X5.807 Y-17.755
X6.139 Y-17.096
X6.434 Y-16.42
X6.691 Y-15.728
X6.91 Y-15.024
X7.09 Y-14.308
X7.23 Y-13.584
X7.329 Y-12.853
X7.389 Y-12.117
X7.408 Y-11.38
X7.386 Y-10.642
X7.322 Y-9.907
X7.218 Y-9.177
X7.073 Y-8.453
X6.889 Y-7.739
X6.665 Y-7.036
X6.402 Y-6.346
X6.101 Y-5.673
X5.763 Y-5.017
X5.39 Y-4.38
X4.983 Y-3.765
X4.542 Y-3.174
X4.068 Y-2.608
X3.564 Y-2.069
X3.031 Y-1.559
X2.47 Y-1.079
X1.884 Y-0.631
X1.274 Y-0.216
X0.642 Y0.164
X-0.01 Y0.51
X-0.68 Y0.82
X-1.365 Y1.092
X-2.065 Y1.327
X-2.776 Y1.522
X-3.497 Y1.678
X-4.226 Y1.794
X-4.96 Y1.87
X-5.697 Y1.905
X-6.435 Y1.9
X-7.171 Y1.855
X-7.904 Y1.77
X-8.631 Y1.646
X-9.351 Y1.483
X-10.061 Y1.281
X-10.758 Y1.041
X-11.442 Y0.764
X-12.11 Y0.451
X-12.761 Y0.102
X-13.391 Y-0.28
X-14. Y-0.697
X-14.586 Y-1.145
X-15.147 Y-1.624
X-15.682 Y-2.133
X-16.188 Y-2.669
X-16.666 Y-3.232
X-17.112 Y-3.82
X-17.526 Y-4.43
X-17.907 Y-5.062
X-18.255 Y-5.713
X-18.567 Y-6.381
X-18.844 Y-7.065
X-19.084 Y-7.763
X-19.287 Y-8.472
X-19.452 Y-9.191
X-19.579 Y-9.918
X-19.667 Y-10.651
X-19.715 Y-11.387
X-19.724 Y-12.125
X-19.694 Y-12.862
X-19.626 Y-13.597
X-19.519 Y-14.327
X-19.374 Y-15.05
X-19.19 Y-15.765
X-18.97 Y-16.469
X-18.713 Y-17.16
X-18.42 Y-17.837
X-18.092 Y-18.498
X-17.729 Y-19.141
X-17.332 Y-19.763
X-16.902 Y-20.363
X-16.442 Y-20.939
X-15.952 Y-21.491
X-15.434 Y-22.016
X-14.889 Y-22.514
X-14.319 Y-22.982
X-13.725 Y-23.42
X-13.109 Y-23.826
X-12.473 Y-24.199
X-11.817 Y-24.538
X-11.145 Y-24.842
X-10.457 Y-25.109
X-9.756 Y-25.339
X-9.044 Y-25.533
X-8.323 Y-25.689
X-7.595 Y-25.807
X-6.861 Y-25.887
X-6.125 Y-25.928
X-5.387 Y-25.931
X-4.65 Y-25.896
X-3.916 Y-25.822
X-3.187 Y-25.709
X-2.465 Y-25.557
X-1.752 Y-25.368
X-1.049 Y-25.142
X-0.36 Y-24.879
X0.315 Y-24.582
X0.974 Y-24.25
X1.615 Y-23.885
X2.237 Y-23.487
X2.838 Y-23.059
X3.415 Y-22.6
X3.969 Y-22.112
X4.497 Y-21.597
X4.997 Y-21.055
X5.47 Y-20.488
X5.913 Y-19.898
X6.325 Y-19.286
X6.707 Y-18.655
X7.056 Y-18.005
X7.373 Y-17.338
X7.655 Y-16.657
X7.904 Y-15.962
X8.117 Y-15.256
X8.294 Y-14.539
X8.434 Y-13.815
X8.537 Y-13.084
X8.602 Y-12.349
X8.63 Y-11.612
X8.621 Y-10.874
X8.574 Y-10.138
X8.491 Y-9.405
X8.37 Y-8.677
X8.212 Y-7.956
X8.019 Y-7.244
X7.789 Y-6.543
X7.525 Y-5.854
X7.225 Y-5.18
X6.89 Y-4.523
X6.523 Y-3.883
X6.123 Y-3.263
X5.693 Y-2.663
X5.233 Y-2.087
X4.744 Y-1.534
X4.228 Y-1.006
X3.687 Y-0.505
X3.121 Y-0.032
X2.531 Y0.412
X1.921 Y0.826
X1.289 Y1.208
X0.639 Y1.556
X-0.028 Y1.872
X-0.71 Y2.154
X-1.405 Y2.401
X-2.112 Y2.613
X-2.828 Y2.789
X-3.552 Y2.93
X-4.283 Y3.034
X-5.018 Y3.101
X-5.755 Y3.132
X-6.493 Y3.126
X-7.229 Y3.081
X-7.962 Y3.
X-8.691 Y2.883
X-9.412 Y2.729
X-10.126 Y2.54
X-10.829 Y2.316
X-11.52 Y2.058
X-12.198 Y1.767
X-12.86 Y1.442
X-13.507 Y1.086
X-14.134 Y0.699
X-14.743 Y0.281
X-15.329 Y-0.167
X-15.892 Y-0.644
X-16.43 Y-1.148
X-16.944 Y-1.678
X-17.43 Y-2.233
X-17.889 Y-2.811
X-18.319 Y-3.41
X-18.72 Y-4.03
X-19.09 Y-4.668
X-19.429 Y-5.323
X-19.736 Y-5.994
X-20.01 Y-6.679
X-20.25 Y-7.377
X-20.455 Y-8.086
X-20.625 Y-8.804
X-20.759 Y-9.529
X-20.858 Y-10.26
X-20.921 Y-10.995
X-20.949 Y-11.733
X-20.941 Y-12.471
X-20.897 Y-13.207
X-20.817 Y-13.941
X-20.703 Y-14.669
X-20.554 Y-15.392
X-20.37 Y-16.107
X-20.151 Y-16.811
X-19.897 Y-17.504
X-19.611 Y-18.184
X-19.291 Y-18.849
X-18.939 Y-19.497
X-18.557 Y-20.128
X-18.144 Y-20.74
X-17.702 Y-21.331
X-17.233 Y-21.9
X-16.736 Y-22.446
X-16.215 Y-22.967
X-15.668 Y-23.463
X-15.098 Y-23.932
X-14.506 Y-24.372
X-13.893 Y-24.782
X-13.261 Y-25.163
X-12.611 Y-25.512
X-11.945 Y-25.829
X-11.264 Y-26.114
X-10.571 Y-26.365
X-9.866 Y-26.583
X-9.151 Y-26.767
X-8.429 Y-26.917
X-7.7 Y-27.032
X-6.966 Y-27.111
X-6.23 Y-27.154
X-5.492 Y-27.161
X-4.755 Y-27.132
X-4.02 Y-27.068
X-3.288 Y-26.969
X-2.563 Y-26.834
X-1.845 Y-26.665
X-1.136 Y-26.461
X-0.437 Y-26.224
X0.25 Y-25.954
X0.923 Y-25.652
X1.581 Y-25.319
X2.222 Y-24.954
X2.845 Y-24.559
X3.449 Y-24.135
X4.032 Y-23.682
X4.593 Y-23.203
X5.131 Y-22.698
X5.644 Y-22.168
X6.132 Y-21.615
X6.594 Y-21.039
X7.029 Y-20.443
X7.436 Y-19.828
X7.814 Y-19.194
X8.162 Y-18.544
X8.479 Y-17.878
X8.765 Y-17.197
X9.018 Y-16.504
X9.239 Y-15.8
X9.427 Y-15.087
X9.582 Y-14.366
X9.702 Y-13.638
X9.788 Y-12.905
X9.841 Y-12.169
X9.859 Y-11.431
X9.842 Y-10.694
X9.792 Y-9.958
X9.707 Y-9.225
X9.587 Y-8.497
X9.433 Y-7.775
X9.245 Y-7.062
X9.024 Y-6.358
X8.771 Y-5.665
X8.485 Y-4.985
X8.167 Y-4.319
X7.818 Y-3.668
X7.44 Y-3.035
X7.033 Y-2.42
X6.597 Y-1.824
X6.134 Y-1.25
X5.645 Y-0.697
X5.131 Y-0.168
X4.592 Y0.335
X4.03 Y0.813
X3.446 Y1.265
X2.842 Y1.689
X2.219 Y2.084
X1.578 Y2.449
X0.921 Y2.785
X0.249 Y3.089
X-0.436 Y3.363
X-1.134 Y3.604
X-1.841 Y3.813
X-2.558 Y3.99
X-3.282 Y4.131
X-4.011 Y4.239
X-4.746 Y4.313
X-5.482 Y4.353
X-6.22 Y4.359
X-6.957 Y4.331
X-7.693 Y4.269
X-8.424 Y4.173
X-9.15 Y4.043
X-9.87 Y3.881
X-10.582 Y3.687
X-11.284 Y3.46
X-11.975 Y3.202
X-12.654 Y2.912
X-13.318 Y2.591
X-13.967 Y2.24
X-14.6 Y1.86
X-15.214 Y1.452
X-15.809 Y1.016
X-16.384 Y0.553
X-16.937 Y0.064
X-17.467 Y-0.449
X-17.973 Y-0.985
X-18.455 Y-1.544
X-18.911 Y-2.124
X-19.341 Y-2.724
X-19.743 Y-3.343
X-20.116 Y-3.979
X-20.459 Y-4.632
X-20.774 Y-5.3
X-21.058 Y-5.98
X-21.311 Y-6.674
X-21.532 Y-7.377
X-21.722 Y-8.09
X-21.879 Y-8.811
X-22.003 Y-9.539
X-22.095 Y-10.271
X-22.154 Y-11.006
X-22.18 Y-11.744
X-22.172 Y-12.481
X-22.131 Y-13.218
X-22.057 Y-13.952
X-21.95 Y-14.682
X-21.81 Y-15.407
X-21.638 Y-16.124
X-21.435 Y-16.833
X-21.199 Y-17.532
X-20.932 Y-18.22
X-20.635 Y-18.896
X-20.308 Y-19.557
X-19.952 Y-20.203
X-19.567 Y-20.833
X-19.154 Y-21.444
X-18.714 Y-22.036
X-18.247 Y-22.608
X-17.756 Y-23.158
X-17.24 Y-23.686
X-16.702 Y-24.19
X-16.141 Y-24.67
X-15.56 Y-25.124
X-14.958 Y-25.552
X-14.339 Y-25.952
X-13.702 Y-26.324
X-13.049 Y-26.668
X-12.381 Y-26.982
X-11.7 Y-27.266
X-11.007 Y-27.518
X-10.303 Y-27.739
X-9.59 Y-27.928
X-8.869 Y-28.085
X-8.142 Y-28.21
X-7.41 Y-28.303
X-6.674 Y-28.362
X-5.937 Y-28.389
X-5.199 Y-28.383
X-4.462 Y-28.344
X-3.728 Y-28.272
X-2.998 Y-28.168
X-2.272 Y-28.031
X-1.554 Y-27.862
X-0.845 Y-27.66
X-0.144 Y-27.427
X0.545 Y-27.164
X1.222 Y-26.87
X1.885 Y-26.548
X2.534 Y-26.196
X3.166 Y-25.816
X3.781 Y-25.408
X4.378 Y-24.974
X4.955 Y-24.515
X5.512 Y-24.031
X6.047 Y-23.523
X6.56 Y-22.993
X7.049 Y-22.44
X7.513 Y-21.866
X7.952 Y-21.273
X8.364 Y-20.661
X8.751 Y-20.033
X9.11 Y-19.388
X9.44 Y-18.729
X9.742 Y-18.055
X10.015 Y-17.37
X10.258 Y-16.673
X10.471 Y-15.967
X10.653 Y-15.252
X10.804 Y-14.53
X10.924 Y-13.802
X11.011 Y-13.069
X11.066 Y-12.333
X11.089 Y-11.596
X11.081 Y-10.858
X11.04 Y-10.121
X10.968 Y-9.387
X10.863 Y-8.657
X10.727 Y-7.931
X10.56 Y-7.213
X10.362 Y-6.502
X10.133 Y-5.801
X9.874 Y-5.11
X9.586 Y-4.431
X9.268 Y-3.765
X8.921 Y-3.114
X8.545 Y-2.479
X8.143 Y-1.861
X7.714 Y-1.26
X7.259 Y-0.679
X6.78 Y-0.118
X6.277 Y0.422
X5.751 Y0.94
X5.204 Y1.434
X4.635 Y1.904
X4.047 Y2.35
X3.44 Y2.769
X2.816 Y3.162
X2.175 Y3.528
X1.518 Y3.865
X0.848 Y4.173
X0.165 Y4.452
X-0.529 Y4.701
X-1.234 Y4.921
X-1.947 Y5.11
X-2.668 Y5.268
X-3.394 Y5.395
X-4.126 Y5.491
X-4.861 Y5.555
X-5.598 Y5.588
X-6.336 Y5.589
X-7.073 Y5.558
X-7.808 Y5.496
X-8.54 Y5.402
X-9.267 Y5.277
X-9.988 Y5.121
X-10.702 Y4.934
X-11.408 Y4.718
X-12.103 Y4.472
X-12.788 Y4.197
X-13.46 Y3.893
X-14.119 Y3.561
X-14.763 Y3.201
X-15.392 Y2.815
X-16.004 Y2.402
X-16.597 Y1.965
X-17.172 Y1.502
X-17.726 Y1.014
X-18.259 Y0.504
X-18.769 Y-0.029
X-19.257 Y-0.582
X-19.721 Y-1.156
X-20.161 Y-1.748
X-20.576 Y-2.359
X-20.964 Y-2.986
X-21.326 Y-3.629
X-21.661 Y-4.286
X-21.968 Y-4.957
X-22.247 Y-5.64
X-22.498 Y-6.334
X-22.718 Y-7.038
X-22.909 Y-7.751
X-23.069 Y-8.471
X-23.198 Y-9.197
X-23.297 Y-9.929
X-23.366 Y-10.663
X-23.404 Y-11.4
X-23.411 Y-12.138
X-23.387 Y-12.875
X-23.332 Y-13.611
X-23.247 Y-14.344
X-23.132 Y-15.073
X-22.986 Y-15.796
X-22.811 Y-16.513
X-22.606 Y-17.221
X-22.371 Y-17.921
X-22.106 Y-18.61
X-21.813 Y-19.287
X-21.492 Y-19.951
X-21.143 Y-20.601
X-20.768 Y-21.236
X-20.367 Y-21.855
X-19.94 Y-22.457
X-19.488 Y-23.041
X-19.012 Y-23.605
X-18.514 Y-24.149
X-17.994 Y-24.672
X-17.452 Y-25.173
X-16.89 Y-25.651
X-16.309 Y-26.105
X-15.708 Y-26.534
X-15.09 Y-26.937
X-14.456 Y-27.314
X-13.807 Y-27.665
X-13.144 Y-27.988
X-12.468 Y-28.284
X-11.78 Y-28.551
X-11.081 Y-28.789
X-10.374 Y-28.997
X-9.658 Y-29.177
X-8.936 Y-29.326
X-8.208 Y-29.446
X-7.475 Y-29.536
X-6.74 Y-29.595
X-6.003 Y-29.622
X-5.265 Y-29.619
X-4.528 Y-29.585
X-3.793 Y-29.52
X-3.061 Y-29.425
X-2.334 Y-29.3
X-1.613 Y-29.144
X-0.898 Y-28.959
X-0.192 Y-28.745
X0.504 Y-28.502
X1.19 Y-28.23
X1.865 Y-27.931
X2.526 Y-27.604
X3.174 Y-27.251
X3.807 Y-26.871
X4.423 Y-26.466
X5.022 Y-26.035
X5.603 Y-25.58
X6.165 Y-25.102
X6.707 Y-24.601
X7.228 Y-24.08
X7.728 Y-23.537
X8.206 Y-22.974
X8.66 Y-22.393
X9.091 Y-21.794
X9.497 Y-21.178
X9.879 Y-20.547
X10.235 Y-19.9
X10.564 Y-19.24
X10.867 Y-18.567
X11.142 Y-17.883
X11.388 Y-17.187
X11.607 Y-16.483
X11.797 Y-15.77
X11.958 Y-15.05
X12.09 Y-14.324
X12.193 Y-13.593
X12.266 Y-12.859
X12.309 Y-12.122
X12.322 Y-11.385
X12.306 Y-10.647
X12.261 Y-9.911
X12.185 Y-9.177
X12.08 Y-8.446
X11.945 Y-7.721
X11.781 Y-7.002
X11.587 Y-6.29
X11.364 Y-5.587
X11.114 Y-4.893
X10.835 Y-4.209
X10.529 Y-3.538
X10.196 Y-2.88
X9.836 Y-2.235
X9.451 Y-1.606
X9.041 Y-0.993
X8.607 Y-0.396
X8.149 Y0.182
X7.668 Y0.742
X7.165 Y1.281
X6.64 Y1.8
X6.094 Y2.296
X5.528 Y2.77
X4.944 Y3.221
X4.343 Y3.648
X3.725 Y4.051
X3.091 Y4.428
X2.442 Y4.78
X1.78 Y5.105
X1.105 Y5.403
X0.418 Y5.674
X-0.278 Y5.917
X-0.984 Y6.133
X-1.697 Y6.32
X-2.418 Y6.478
X-3.145 Y6.606
X-3.876 Y6.705
X-4.61 Y6.775
X-5.347 Y6.815
X-6.085 Y6.825
X-6.822 Y6.807
X-7.559 Y6.758
X-8.292 Y6.68
X-9.022 Y6.573
X-9.748 Y6.438
X-10.467 Y6.273
X-11.179 Y6.081
X-11.883 Y5.861
X-12.578 Y5.613
X-13.263 Y5.338
X-13.936 Y5.035
X-14.596 Y4.706
X-15.243 Y4.351
X-15.875 Y3.97
X-16.492 Y3.566
X-17.092 Y3.137
X-17.675 Y2.684
X-18.24 Y2.209
X-18.785 Y1.712
X-19.31 Y1.194
X-19.814 Y0.655
X-20.297 Y0.098
X-20.758 Y-0.479
X-21.196 Y-1.072
X-21.611 Y-1.683
X-22. Y-2.309
X-22.365 Y-2.951
X-22.704 Y-3.606
X-23.017 Y-4.274
X-23.304 Y-4.954
X-23.564 Y-5.644
X-23.797 Y-6.344
X-24.003 Y-7.053
X-24.18 Y-7.769
X-24.329 Y-8.492
X-24.449 Y-9.22
X-24.541 Y-9.952
X-24.605 Y-10.687
X-24.64 Y-11.424
X-24.647 Y-12.162
X-24.624 Y-12.899
X-24.571 Y-13.635
X-24.49 Y-14.368
X-24.381 Y-15.098
X-24.243 Y-15.823
X-24.078 Y-16.542
X-23.884 Y-17.254
X-23.663 Y-17.958
X-23.414 Y-18.652
X-23.139 Y-19.337
X-22.837 Y-20.01
X-22.509 Y-20.671
X-22.155 Y-21.319
X-21.777 Y-21.952
X-21.375 Y-22.571
X-20.948 Y-23.173
X-20.498 Y-23.757
X-20.025 Y-24.324
X-19.531 Y-24.871
X-19.016 Y-25.4
X-18.481 Y-25.907
X-17.926 Y-26.394
X-17.353 Y-26.859
X-16.762 Y-27.301
X-16.155 Y-27.719
X-15.531 Y-28.114
X-14.893 Y-28.484
X-14.241 Y-28.829
X-13.576 Y-29.149
X-12.899 Y-29.442
X-12.211 Y-29.709
X-11.513 Y-29.949
X-10.806 Y-30.16
X-10.092 Y-30.344
X-9.371 Y-30.5
X-8.644 Y-30.629
X-7.913 Y-30.729
X-7.179 Y-30.801
X-6.442 Y-30.844
X-5.705 Y-30.858
X-4.967 Y-30.843
X-4.231 Y-30.8
X-3.496 Y-30.728
X-2.765 Y-30.629
X-2.038 Y-30.501
X-1.317 Y-30.345
X-0.603 Y-30.161
X0.104 Y-29.949
X0.802 Y-29.709
X1.49 Y-29.443
X2.167 Y-29.151
X2.833 Y-28.834
X3.487 Y-28.491
X4.126 Y-28.123
X4.751 Y-27.731
X5.361 Y-27.315
X5.954 Y-26.876
X6.53 Y-26.415
X7.088 Y-25.933
X7.628 Y-25.43
X8.148 Y-24.907
X8.648 Y-24.364
X9.127 Y-23.802
X9.584 Y-23.223
X10.018 Y-22.627
X10.43 Y-22.014
X10.818 Y-21.387
X11.183 Y-20.746
X11.524 Y-20.091
X11.839 Y-19.424
X12.129 Y-18.746
X12.393 Y-18.057
X12.631 Y-17.359
X12.843 Y-16.652
X13.028 Y-15.938
X13.185 Y-15.217
X13.316 Y-14.491
X13.419 Y-13.76
X13.494 Y-13.026
X13.54 Y-12.29
X13.558 Y-11.552
X13.549 Y-10.814
X13.512 Y-10.077
X13.447 Y-9.342
X13.355 Y-8.61
X13.234 Y-7.883
X13.086 Y-7.16
X12.911 Y-6.443
X12.709 Y-5.734
X12.48 Y-5.032
X12.224 Y-4.34
X11.943 Y-3.658
X11.636 Y-2.987
X11.304 Y-2.328
X10.946 Y-1.683
X10.564 Y-1.052
X10.159 Y-0.435
X9.73 Y0.165
X9.279 Y0.749
X8.807 Y1.316
X8.313 Y1.865
X7.799 Y2.394
X7.266 Y2.903
X6.713 Y3.392
X6.142 Y3.86
X5.555 Y4.306
X4.95 Y4.729
X4.331 Y5.13
X3.697 Y5.507
X3.048 Y5.859
X2.387 Y6.186
X1.714 Y6.488
X1.03 Y6.765
X0.336 Y7.015
X-0.367 Y7.24
X-1.078 Y7.438
X-1.796 Y7.609
X-2.519 Y7.753
X-3.248 Y7.869
X-3.98 Y7.958
X-4.715 Y8.02
X-5.452 Y8.054
X-6.19 Y8.061
X-6.928 Y8.04
X-7.664 Y7.991
X-8.398 Y7.915
X-9.128 Y7.81
X-9.854 Y7.678
X-10.575 Y7.52
X-11.289 Y7.335
X-11.996 Y7.124
X-12.695 Y6.887
X-13.384 Y6.624
X-14.063 Y6.335
X-14.731 Y6.022
X-15.387 Y5.684
X-16.03 Y5.322
X-16.659 Y4.937
X-17.274 Y4.529
X-17.873 Y4.098
X-18.455 Y3.645
X-19.02 Y3.171
X-19.567 Y2.675
X-20.095 Y2.16
X-20.604 Y1.626
X-21.093 Y1.073
X-21.561 Y0.503
X-22.008 Y-0.085
X-22.433 Y-0.688
X-22.835 Y-1.306
X-23.214 Y-1.939
X-23.57 Y-2.585
X-23.902 Y-3.244
X-24.21 Y-3.915
X-24.493 Y-4.596
X-24.751 Y-5.287
X-24.983 Y-5.988
X-25.189 Y-6.696
X-25.368 Y-7.412
X-25.52 Y-8.134
X-25.646 Y-8.861
X-25.746 Y-9.592
X-25.818 Y-10.326
X-25.864 Y-11.063
X-25.883 Y-11.8
X-25.874 Y-12.538
X-25.839 Y-13.275
X-25.776 Y-14.01
X-25.687 Y-14.742
X-25.571 Y-15.471
X-25.429 Y-16.195
X-25.26 Y-16.913
X-25.065 Y-17.625
X-24.845 Y-18.329
X-24.598 Y-19.024
X-24.325 Y-19.71
X-24.027 Y-20.385
X-23.705 Y-21.049
X-23.359 Y-21.701
X-22.99 Y-22.339
X-22.597 Y-22.964
X-22.182 Y-23.574
X-21.745 Y-24.168
X-21.286 Y-24.746
X-20.807 Y-25.307
X-20.307 Y-25.85
X-19.788 Y-26.374
X-19.251 Y-26.88
X-18.695 Y-27.365
X-18.122 Y-27.83
X-17.532 Y-28.273
X-16.926 Y-28.693
X-16.305 Y-29.092
X-15.67 Y-29.467
X-15.021 Y-29.819
X-14.36 Y-30.147
X-13.688 Y-30.451
X-13.005 Y-30.73
X-12.312 Y-30.984
X-11.611 Y-31.212
X-10.901 Y-31.415
X-10.185 Y-31.592
X-9.463 Y-31.742
X-8.735 Y-31.866
X-8.004 Y-31.964
X-7.27 Y-32.036
X-6.533 Y-32.079
X-5.795 Y-32.096
X-5.058 Y-32.085
X-4.321 Y-32.047
X-3.586 Y-31.983
X-2.854 Y-31.892
X-2.125 Y-31.775
X-1.402 Y-31.631
X-0.684 Y-31.461
X0.028 Y-31.265
X0.731 Y-31.043
X1.427 Y-30.796
X2.112 Y-30.524
X2.788 Y-30.228
X3.453 Y-29.907
X4.106 Y-29.564
X4.745 Y-29.196
X5.371 Y-28.805
X5.982 Y-28.392
X6.578 Y-27.957
X7.158 Y-27.501
X7.722 Y-27.025
X8.268 Y-26.529
X8.796 Y-26.014
X9.306 Y-25.48
X9.796 Y-24.928
X10.266 Y-24.36
X10.715 Y-23.775
X11.144 Y-23.174
X11.551 Y-22.559
X11.936 Y-21.929
X12.299 Y-21.287
X12.639 Y-20.632
X12.955 Y-19.965
X13.246 Y-19.288
X13.514 Y-18.6
X13.756 Y-17.903
X13.974 Y-17.198
X14.167 Y-16.486
X14.335 Y-15.767
X14.477 Y-15.043
X14.593 Y-14.315
X14.683 Y-13.583
X14.747 Y-12.847
X14.784 Y-12.111
X14.796 Y-11.373
X14.781 Y-10.635
X14.74 Y-9.899
X14.674 Y-9.164
X14.581 Y-8.432
X14.461 Y-7.704
X14.316 Y-6.98
X14.144 Y-6.263
X13.947 Y-5.552
X13.725 Y-4.848
X13.478 Y-4.153
X13.206 Y-3.467
X12.91 Y-2.791
X12.591 Y-2.126
X12.247 Y-1.473
X11.881 Y-0.833
X11.491 Y-0.206
X11.08 Y0.407
X10.648 Y1.005
X10.195 Y1.587
X9.721 Y2.153
X9.228 Y2.701
X8.715 Y3.231
X8.183 Y3.743
X7.633 Y4.235
X7.066 Y4.707
X6.483 Y5.159
X5.884 Y5.59
X5.271 Y6.
X4.643 Y6.387
X4.002 Y6.752
X3.348 Y7.094
X2.682 Y7.413
X2.006 Y7.707
X1.319 Y7.978
X0.624 Y8.224
X-0.08 Y8.446
X-0.791 Y8.643
X-1.508 Y8.815
X-2.232 Y8.96
X-2.96 Y9.08
X-3.692 Y9.173
X-4.426 Y9.241
X-5.163 Y9.283
X-5.901 Y9.299
X-6.638 Y9.289
X-7.375 Y9.253
X-8.11 Y9.191
X-8.843 Y9.103
X-9.572 Y8.99
X-10.297 Y8.851
X-11.016 Y8.686
X-11.729 Y8.497
X-12.435 Y8.284
X-13.134 Y8.046
X-13.823 Y7.784
X-14.503 Y7.497
X-15.172 Y7.186
X-15.83 Y6.852
X-16.476 Y6.495
X-17.109 Y6.117
X-17.729 Y5.716
X-18.334 Y5.294
X-18.925 Y4.852
X-19.499 Y4.388
X-20.057 Y3.905
X-20.597 Y3.403
X-21.12 Y2.882
X-21.624 Y2.344
X-22.11 Y1.788
X-22.576 Y1.216
X-23.022 Y0.629
X-23.447 Y0.026
X-23.851 Y-0.592
X-24.232 Y-1.223
X-24.592 Y-1.868
X-24.929 Y-2.524
X-25.244 Y-3.191
X-25.535 Y-3.869
X-25.803 Y-4.557
X-26.046 Y-5.253
X-26.266 Y-5.957
X-26.461 Y-6.669
X-26.63 Y-7.387
X-26.775 Y-8.111
X-26.895 Y-8.839
X-26.99 Y-9.57
X-27.059 Y-10.305
X-27.104 Y-11.041
X-27.123 Y-11.779
X-27.115 Y-12.517
X-27.082 Y-13.254
X-27.024 Y-13.989
X-26.94 Y-14.722
X-26.831 Y-15.452
X-26.697 Y-16.178
X-26.539 Y-16.898
X-26.355 Y-17.613
X-26.148 Y-18.321
X-25.915 Y-19.021
X-25.659 Y-19.713
X-25.378 Y-20.395
X-25.075 Y-21.068
X-24.748 Y-21.729
X-24.399 Y-22.38
X-24.028 Y-23.017
X-23.636 Y-23.642
X-23.221 Y-24.252
X-22.786 Y-24.848
X-22.33 Y-25.428
X-21.854 Y-25.992
X-21.36 Y-26.54
X-20.847 Y-27.07
X-20.316 Y-27.582
X-19.768 Y-28.076
X-19.203 Y-28.551
X-18.622 Y-29.006
X-18.025 Y-29.44
X-17.414 Y-29.854
X-16.79 Y-30.246
X-16.152 Y-30.617
X-15.501 Y-30.965
X-14.84 Y-31.292
X-14.167 Y-31.595
X-13.484 Y-31.875
X-12.792 Y-32.13
X-12.092 Y-32.361
X-11.383 Y-32.568
X-10.669 Y-32.751
X-9.948 Y-32.909
X-9.222 Y-33.043
X-8.492 Y-33.151
X-7.759 Y-33.235
X-7.024 Y-33.293
X-6.287 Y-33.326
X-5.549 Y-33.333
X-4.811 Y-33.314
X-4.075 Y-33.271
X-3.34 Y-33.202
X-2.608 Y-33.109
X-1.88 Y-32.991
X-1.156 Y-32.847
X-0.438 Y-32.678
X0.274 Y-32.485
X0.979 Y-32.267
X1.676 Y-32.025
X2.364 Y-31.76
X3.044 Y-31.472
X3.713 Y-31.161
X4.371 Y-30.827
X5.017 Y-30.471
X5.651 Y-30.094
X6.271 Y-29.695
X6.878 Y-29.275
X7.47 Y-28.835
X8.047 Y-28.375
X8.609 Y-27.896
X9.154 Y-27.398
X9.682 Y-26.883
X10.192 Y-26.35
X10.683 Y-25.8
X11.156 Y-25.233
X11.609 Y-24.651
X12.042 Y-24.054
X12.456 Y-23.443
X12.848 Y-22.818
X13.22 Y-22.181
X13.571 Y-21.532
X13.899 Y-20.871
X14.205 Y-20.199
X14.488 Y-19.518
X14.749 Y-18.828
X14.986 Y-18.129
X15.199 Y-17.423
X15.389 Y-16.71
X15.555 Y-15.991
X15.697 Y-15.267
X15.815 Y-14.539
X15.907 Y-13.807
X15.974 Y-13.072
X16.017 Y-12.335
X16.035 Y-11.598
X16.028 Y-10.86
X15.997 Y-10.123
X15.941 Y-9.387
X15.86 Y-8.654
X15.755 Y-7.923
X15.625 Y-7.197
X15.471 Y-6.476
X15.292 Y-5.76
X15.09 Y-5.05
X14.864 Y-4.348
X14.614 Y-3.653
X14.342 Y-2.968
X14.047 Y-2.292
X13.728 Y-1.626
X13.387 Y-0.972
X13.024 Y-0.33
X12.639 Y0.3
X12.234 Y0.917
X11.809 Y1.519
X11.363 Y2.108
X10.899 Y2.681
X10.415 Y3.238
X9.913 Y3.778
X9.392 Y4.301
X8.855 Y4.807
X8.301 Y5.294
X7.73 Y5.762
X7.145 Y6.211
X6.545 Y6.641
X5.931 Y7.05
X5.304 Y7.438
X4.663 Y7.805
X4.011 Y8.149
X3.347 Y8.472
X2.673 Y8.772
X1.99 Y9.049
X1.297 Y9.304
X0.597 Y9.536
X-0.111 Y9.744
X-0.826 Y9.928
X-1.546 Y10.089
X-2.271 Y10.225
X-3. Y10.336
X-3.733 Y10.424
X-4.468 Y10.487
X-5.205 Y10.525
X-5.942 Y10.539
X-6.68 Y10.529
X-7.417 Y10.494
X-8.153 Y10.434
X-8.886 Y10.35
X-9.615 Y10.24
X-10.341 Y10.107
X-11.062 Y9.951
X-11.777 Y9.77
X-12.486 Y9.566
X-13.189 Y9.34
X-13.883 Y9.09
X-14.568 Y8.817
X-15.244 Y8.521
X-15.91 Y8.204
X-16.565 Y7.864
X-17.209 Y7.504
X-17.841 Y7.122
X-18.459 Y6.72
X-19.064 Y6.298
X-19.655 Y5.856
X-20.231 Y5.394
X-20.79 Y4.914
X-21.334 Y4.415
X-21.861 Y3.898
X-22.371 Y3.365
X-22.863 Y2.815
X-23.337 Y2.25
X-23.792 Y1.669
X-24.228 Y1.074
X-24.644 Y0.464
X-25.04 Y-0.158
X-25.415 Y-0.794
X-25.769 Y-1.441
X-26.102 Y-2.099
X-26.413 Y-2.768
X-26.703 Y-3.447
X-26.97 Y-4.134
X-27.215 Y-4.831
X-27.436 Y-5.535
X-27.633 Y-6.245
X-27.807 Y-6.962
X-27.957 Y-7.685
X-28.084 Y-8.412
X-28.188 Y-9.142
X-28.267 Y-9.876
X-28.323 Y-10.611
X-28.354 Y-11.349
X-28.362 Y-12.086
X-28.345 Y-12.824
X-28.304 Y-13.561
X-28.239 Y-14.296
X-28.15 Y-15.028
X-28.038 Y-15.757
X-27.902 Y-16.482
X-27.742 Y-17.203
X-27.56 Y-17.918
X-27.353 Y-18.626
X-27.123 Y-19.327
X-26.87 Y-20.02
X-26.595 Y-20.705
X-26.298 Y-21.38
X-25.978 Y-22.045
X-25.638 Y-22.7
X-25.277 Y-23.343
X-24.895 Y-23.974
X-24.492 Y-24.592
X-24.069 Y-25.197
X-23.627 Y-25.788
X-23.166 Y-26.364
X-22.686 Y-26.924
X-22.188 Y-27.469
X-21.674 Y-27.997
X-21.142 Y-28.509
X-20.594 Y-29.003
X-20.03 Y-29.479
X-19.45 Y-29.935
X-18.856 Y-30.373
X-18.248 Y-30.79
X-17.627 Y-31.188
X-16.993 Y-31.566
X-16.347 Y-31.922
X-15.69 Y-32.258
X-15.022 Y-32.572
X-14.345 Y-32.865
X-13.658 Y-33.134
X-12.963 Y-33.382
X-12.26 Y-33.606
X-11.55 Y-33.808
X-10.834 Y-33.986
X-10.113 Y-34.142
X-9.387 Y-34.274
X-8.657 Y-34.382
X-7.924 Y-34.467
X-7.189 Y-34.527
X-6.452 Y-34.562
X-5.714 Y-34.574
X-4.977 Y-34.562
X-4.24 Y-34.526
X-3.504 Y-34.466
X-2.771 Y-34.383
X-2.041 Y-34.276
X-1.315 Y-34.145
X-0.594 Y-33.991
X0.122 Y-33.813
X0.832 Y-33.612
X1.535 Y-33.389
X2.231 Y-33.143
X2.918 Y-32.874
X3.597 Y-32.584
X4.266 Y-32.273
X4.924 Y-31.94
X5.571 Y-31.585
X6.206 Y-31.21
X6.829 Y-30.814
X7.439 Y-30.399
X8.035 Y-29.964
X8.617 Y-29.511
X9.184 Y-29.039
X9.737 Y-28.55
X10.273 Y-28.043
X10.793 Y-27.519
X11.295 Y-26.979
X11.781 Y-26.424
X12.248 Y-25.853
X12.697 Y-25.267
X13.127 Y-24.668
X13.538 Y-24.055
X13.93 Y-23.43
X14.302 Y-22.793
X14.653 Y-22.144
X14.983 Y-21.484
X15.292 Y-20.814
X15.579 Y-20.134
X15.845 Y-19.446
X16.088 Y-18.749
X16.31 Y-18.046
X16.509 Y-17.335
X16.686 Y-16.619
X16.841 Y-15.897
X16.972 Y-15.171
X17.079 Y-14.441
X17.163 Y-13.708
X17.224 Y-12.973
X17.262 Y-12.236
X17.276 Y-11.499
X17.267 Y-10.761
X17.235 Y-10.024
X17.18 Y-9.288
X17.1 Y-8.554
X16.997 Y-7.824
X16.871 Y-7.097
X16.721 Y-6.375
X16.548 Y-5.657
X16.353 Y-4.946
X16.136 Y-4.241
X15.896 Y-3.543
X15.634 Y-2.853
X15.351 Y-2.172
X15.045 Y-1.5
X14.719 Y-0.839
X14.371 Y-0.188
X14.003 Y0.451
X13.614 Y1.079
X13.207 Y1.694
X12.78 Y2.295
X12.334 Y2.883
X11.87 Y3.457
X11.387 Y4.015
X10.887 Y4.557
X10.369 Y5.083
X9.835 Y5.592
X9.285 Y6.084
X8.72 Y6.559
X8.141 Y7.015
X7.547 Y7.453
X6.94 Y7.872
X6.319 Y8.271
X5.686 Y8.651
X5.042 Y9.01
X4.386 Y9.348
X3.72 Y9.666
X3.044 Y9.962
X2.36 Y10.237
X1.667 Y10.49
X0.966 Y10.722
X0.259 Y10.931
X-0.455 Y11.117
X-1.175 Y11.28
X-1.899 Y11.42
X-2.628 Y11.537
X-3.359 Y11.632
X-4.094 Y11.703
X-4.83 Y11.751
X-5.567 Y11.776
X-6.305 Y11.778
X-7.043 Y11.757
X-7.779 Y11.712
X-8.514 Y11.644
X-9.246 Y11.552
X-9.975 Y11.438
X-10.7 Y11.301
X-11.42 Y11.142
X-12.135 Y10.96
X-12.845 Y10.757
X-13.547 Y10.531
X-14.242 Y10.283
X-14.928 Y10.012
X-15.606 Y9.721
X-16.274 Y9.408
X-16.933 Y9.075
X-17.58 Y8.722
X-18.217 Y8.348
X-18.841 Y7.955
X-19.453 Y7.543
X-20.052 Y7.112
X-20.637 Y6.662
X-21.207 Y6.194
X-21.763 Y5.709
X-22.303 Y5.206
X-22.827 Y4.687
X-23.335 Y4.151
X-23.826 Y3.601
X-24.3 Y3.035
X-24.756 Y2.455
X-25.193 Y1.861
X-25.612 Y1.253
X-26.011 Y0.633
X-26.391 Y0.001
X-26.751 Y-0.643
X-27.091 Y-1.298
X-27.411 Y-1.963
X-27.71 Y-2.638
X-27.988 Y-3.321
X-28.245 Y-4.012
X-28.48 Y-4.712
X-28.693 Y-5.418
X-28.884 Y-6.131
X-29.008 Y-6.656
X-29.019 Y-6.712
X-29.025 Y-6.769
X-29.027 Y-6.826
Y-15.758
X-28.991 Y-16.495
X-28.955 Y-16.862
X-28.855 Y-17.593
X-28.702 Y-18.315
X-28.51 Y-19.027
X-28.288 Y-19.731
X-28.041 Y-20.426
X-27.769 Y-21.112
X-27.476 Y-21.789
X-27.161 Y-22.456
X-26.825 Y-23.113
X-26.47 Y-23.76
X-26.094 Y-24.395
X-25.699 Y-25.018
X-25.285 Y-25.629
X-24.852 Y-26.226
X-24.401 Y-26.81
X-23.933 Y-27.38
X-23.447 Y-27.935
X-22.944 Y-28.475
X-22.425 Y-29.
X-21.89 Y-29.508
X-21.34 Y-30.
X-20.775 Y-30.474
X-20.195 Y-30.93
X-19.601 Y-31.368
X-18.994 Y-31.787
X-18.374 Y-32.187
X-17.742 Y-32.568
X-17.099 Y-32.929
X-16.444 Y-33.27
X-15.78 Y-33.591
X-15.106 Y-33.891
X-14.423 Y-34.17
X-13.732 Y-34.428
X-13.033 Y-34.665
X-12.327 Y-34.88
X-11.615 Y-35.073
X-10.898 Y-35.245
X-10.331 Y-35.362
X-10.281 Y-35.371
X-10.231 Y-35.376
X-10.181 Y-35.377
X-2.428
X-1.691 Y-35.341
X-0.957 Y-35.27
X-0.23 Y-35.145
X0.49 Y-34.982
X1.202 Y-34.789
X1.907 Y-34.571
X2.604 Y-34.328
X3.292 Y-34.063
X3.972 Y-33.777
X4.643 Y-33.47
X5.304 Y-33.142
X5.955 Y-32.794
X6.594 Y-32.426
X7.222 Y-32.039
X7.838 Y-31.632
X8.441 Y-31.208
X9.032 Y-30.765
X9.608 Y-30.305
X10.171 Y-29.827
X10.719 Y-29.333
X11.252 Y-28.823
X11.769 Y-28.296
X12.269 Y-27.755
X12.754 Y-27.198
X13.221 Y-26.627
X13.671 Y-26.042
X14.102 Y-25.444
X14.516 Y-24.833
X14.911 Y-24.21
X15.287 Y-23.575
X15.644 Y-22.929
X15.98 Y-22.272
X16.297 Y-21.606
X16.594 Y-20.93
X16.87 Y-20.246
X17.125 Y-19.554
X17.36 Y-18.855
X17.566 Y-18.175
X17.583 Y-18.104
X17.594 Y-18.033
X17.598 Y-17.96
Y-6.035
X17.568 Y-5.447
X17.488 Y-4.835
X17.333 Y-4.113
X17.13 Y-3.404
X16.892 Y-2.706
X16.625 Y-2.018
X16.334 Y-1.34
X16.021 Y-0.672
X15.687 Y-0.014
X15.333 Y0.633
X14.959 Y1.269
X14.566 Y1.894
X14.155 Y2.507
X13.726 Y3.107
X13.278 Y3.693
X12.813 Y4.266
X12.331 Y4.825
X11.832 Y5.368
X11.316 Y5.895
X10.784 Y6.407
X10.238 Y6.903
X9.676 Y7.381
X9.101 Y7.843
X8.512 Y8.288
X7.91 Y8.715
X7.296 Y9.123
X6.669 Y9.513
X6.031 Y9.883
X5.382 Y10.234
X4.723 Y10.566
X4.055 Y10.878
X3.377 Y11.169
X2.691 Y11.441
X1.997 Y11.692
X1.296 Y11.921
X0.588 Y12.13
X-0.126 Y12.317
X-0.845 Y12.482
X-1.569 Y12.624
X-2.297 Y12.745
X-3.028 Y12.844
X-3.761 Y12.922
X-4.497 Y12.977
X-5.234 Y13.011
X-5.972 Y13.022
X-6.71 Y13.011
X-7.447 Y12.979
X-8.183 Y12.924
X-8.916 Y12.847
X-9.648 Y12.749
X-10.376 Y12.629
X-11.1 Y12.487
X-11.819 Y12.324
X-12.534 Y12.141
X-13.243 Y11.935
X-13.945 Y11.709
X-14.64 Y11.462
X-15.327 Y11.193
X-16.006 Y10.904
X-16.676 Y10.595
X-17.337 Y10.267
X-17.987 Y9.919
X-18.627 Y9.551
X-19.256 Y9.166
X-19.873 Y8.761
X-20.478 Y8.339
X-21.07 Y7.899
X-21.649 Y7.441
X-22.214 Y6.967
X-22.765 Y6.476
X-23.301 Y5.969
X-23.822 Y5.446
X-24.327 Y4.909
X-24.816 Y4.356
X-25.289 Y3.79
X-25.745 Y3.21
X-26.183 Y2.616
X-26.603 Y2.009
X-27.005 Y1.391
X-27.388 Y0.76
X-27.752 Y0.118
X-28.097 Y-0.534
X-28.424 Y-1.195
X-28.73 Y-1.866
X-28.969 Y-2.432
X-29.001 Y-2.525
X-29.021 Y-2.622
X-29.027 Y-2.72
Y-6.826
G3 X-28.454 Y-7.002 I0.317 J0.011
G1 X-28.412 Y-6.945 Z-9.992
X-28.373 Y-6.891 Z-9.969
X-28.337 Y-6.843 Z-9.931
X-28.307 Y-6.802 Z-9.88
X-28.285 Y-6.772 Z-9.82
X-28.271 Y-6.753 Z-9.753
X-28.266 Y-6.746 Z-9.682
G0 Z5.
X-3.455 Y-34.994
Z-9.365
G1 Z-9.682 F1016.
X-3.448 Y-34.998 Z-9.753
X-3.428 Y-35.01 Z-9.82
X-3.395 Y-35.029 Z-9.88
X-3.352 Y-35.055 Z-9.931
X-3.3 Y-35.086 Z-9.969
X-3.242 Y-35.12 Z-9.992
X-3.182 Y-35.156 Z-10.
G3 X-2.428 Y-35.377 I0.809 J1.36
G1 X1.926
X2.476 Y-35.35
X2.91 Y-35.293
X3.461 Y-35.175
X4.168 Y-34.964
X4.856 Y-34.698
X5.53 Y-34.397
X6.19 Y-34.068
X6.838 Y-33.716
X7.475 Y-33.342
X8.099 Y-32.95
X8.712 Y-32.539
X9.313 Y-32.11
X9.901 Y-31.664
X10.475 Y-31.202
X11.037 Y-30.723
X11.584 Y-30.228
X12.117 Y-29.718
X12.635 Y-29.192
X13.137 Y-28.652
X13.623 Y-28.097
X14.094 Y-27.528
X14.547 Y-26.946
X14.984 Y-26.352
X15.403 Y-25.745
X15.805 Y-25.126
X16.189 Y-24.496
X16.555 Y-23.855
X16.902 Y-23.204
X17.231 Y-22.544
X17.529 Y-21.897
X17.567 Y-21.797
X17.59 Y-21.692
X17.598 Y-21.586
Y-17.96
G3 X17.024 Y-17.783 I-0.317 J-0.011
G1 X16.982 Y-17.84 Z-9.992
X16.943 Y-17.894 Z-9.969
X16.907 Y-17.943 Z-9.931
X16.877 Y-17.984 Z-9.88
X16.855 Y-18.014 Z-9.82
X16.841 Y-18.033 Z-9.753
X16.836 Y-18.039 Z-9.682
G0 Z5.
X0.899 Y-34.994
Z-9.365
G1 Z-9.682 F1016.
X0.906 Y-34.998 Z-9.753
X0.926 Y-35.01 Z-9.82
X0.959 Y-35.029 Z-9.88
X1.002 Y-35.055 Z-9.931
X1.054 Y-35.086 Z-9.969
X1.111 Y-35.12 Z-9.992
X1.172 Y-35.156 Z-10.
G3 X1.926 Y-35.377 I0.809 J1.36
G1 X4.94
X5.352 Y-35.357
X5.656 Y-35.317
X6.051 Y-35.233
X6.526 Y-35.09
X7.154 Y-34.846
X7.818 Y-34.524
X8.461 Y-34.161
X9.087 Y-33.771
X9.698 Y-33.357
X10.295 Y-32.924
X10.879 Y-32.474
X11.451 Y-32.007
X12.008 Y-31.524
X12.553 Y-31.026
X13.083 Y-30.513
X13.599 Y-29.985
X14.1 Y-29.443
X14.586 Y-28.888
X15.056 Y-28.32
X15.511 Y-27.739
X15.949 Y-27.145
X16.37 Y-26.539
X16.775 Y-25.923
X17.163 Y-25.295
X17.497 Y-24.719
X17.552 Y-24.602
X17.586 Y-24.476
X17.598 Y-24.347
Y-21.586
G3 X17.024 Y-21.409 I-0.317 J-0.011
G1 X16.982 Y-21.466 Z-9.992
X16.943 Y-21.52 Z-9.969
X16.907 Y-21.569 Z-9.931
X16.877 Y-21.609 Z-9.88
X16.855 Y-21.64 Z-9.82
X16.841 Y-21.659 Z-9.753
X16.836 Y-21.665 Z-9.682
G0 Z5.
X3.913 Y-34.994
Z-9.365
G1 Z-9.682 F1016.
X3.92 Y-34.998 Z-9.753
X3.94 Y-35.01 Z-9.82
X3.973 Y-35.029 Z-9.88
X4.016 Y-35.055 Z-9.931
X4.068 Y-35.086 Z-9.969
X4.126 Y-35.12 Z-9.992
X4.186 Y-35.156 Z-10.
G3 X4.94 Y-35.377 I0.809 J1.36
G1 X7.452
X7.772 Y-35.361
X8.026 Y-35.328
X8.345 Y-35.26
X8.714 Y-35.149
X9.191 Y-34.964
X9.801 Y-34.668
X10.437 Y-34.293
X11.048 Y-33.881
X11.641 Y-33.441
X12.217 Y-32.981
X12.779 Y-32.502
X13.326 Y-32.007
X13.859 Y-31.497
X14.378 Y-30.972
X14.883 Y-30.434
X15.373 Y-29.883
X15.849 Y-29.319
X16.309 Y-28.743
X16.755 Y-28.154
X17.184 Y-27.554
X17.47 Y-27.132
X17.54 Y-27.003
X17.583 Y-26.862
X17.598 Y-26.716
Y-24.347
G3 X17.047 Y-24.143 I-0.317 J-0.011
G1 X17.023 Y-24.169
X6.724 Y-35.337
X6.692 Y-35.361
X6.654 Y-35.374
X6.613 Y-35.372
X6.576 Y-35.357
X6.546 Y-35.33
X6.526 Y-35.294
X6.521 Y-35.254
X6.529 Y-35.214
X6.55 Y-35.18
X6.581 Y-35.154
X6.62 Y-35.141
X6.66 Y-35.142
X6.698 Y-35.156
G3 X7.452 Y-35.377 I0.809 J1.36
G1 X9.796
X9.946 Y-35.37
X10.18 Y-35.338
X10.461 Y-35.275
X10.782 Y-35.176
X11.185 Y-35.016
X11.683 Y-34.77
X12.316 Y-34.391
X12.917 Y-33.962
X13.493 Y-33.501
X14.05 Y-33.018
X14.59 Y-32.515
X15.116 Y-31.997
X15.626 Y-31.464
X16.122 Y-30.918
X16.604 Y-30.359
X17.072 Y-29.789
X17.442 Y-29.312
X17.527 Y-29.174
X17.58 Y-29.02
X17.598 Y-28.858
Y-26.716
G3 X17.044 Y-26.516 I-0.317 J-0.011
G1 X17.023 Y-26.539
X9.615 Y-34.799
X9.571 Y-34.848
G3 X9.796 Y-35.377 I0.236 J-0.212
G1 X11.805
X11.955 Y-35.37
X12.175 Y-35.339
X12.423 Y-35.284
X12.71 Y-35.195
X13.063 Y-35.053
X13.478 Y-34.847
X13.999 Y-34.534
X14.598 Y-34.104
X15.166 Y-33.633
X15.711 Y-33.135
X16.236 Y-32.617
X16.744 Y-32.082
X17.237 Y-31.533
X17.421 Y-31.317
X17.517 Y-31.172
X17.577 Y-31.009
X17.598 Y-30.837
G3 X17.086 Y-30.596 I-0.317 J-0.011
G1 X17.016 Y-30.651
X11.629 Y-34.804
X11.623 Y-34.809
G3 X11.805 Y-35.377 I0.194 J-0.251
G1 X13.647
X13.818 Y-35.369
X14.023 Y-35.342
X14.238 Y-35.296
X14.503 Y-35.217
X14.81 Y-35.097
X15.172 Y-34.922
X15.608 Y-34.665
X16.16 Y-34.277
X16.728 Y-33.806
X17.266 Y-33.3
X17.388 Y-33.175
X17.502 Y-33.023
X17.573 Y-32.847
X17.598 Y-32.658
G3 X17.105 Y-32.404 I-0.317 J-0.011
G1 X17.011 Y-32.466
X13.484 Y-34.795
G3 X13.647 Y-35.377 I0.175 J-0.265
G1 X15.489
X15.639 Y-35.37
X15.824 Y-35.343
X16.048 Y-35.291
X16.306 Y-35.209
X16.59 Y-35.093
X16.942 Y-34.915
X17.263 Y-34.719
X17.292 Y-34.697
X17.456 Y-34.534
X17.561 Y-34.327
X17.598 Y-34.098
G3 X17.131 Y-33.829 I-0.317 J-0.011
G1 X17.005 Y-33.896
X15.351 Y-34.78
G3 X15.489 Y-35.377 I0.15 J-0.28
G1 X16.997
X17.047
X17.083
X17.232 Y-35.37
X17.378 Y-35.311
X17.495 Y-35.207
X17.571 Y-35.07
X17.598 Y-34.916
G3 X17.459 Y-34.572 I-0.543 J-0.019
X16.74 Y-35.217 I-0.36 J-0.322
X17.083 Y-35.377 I0.36 J0.322
G1 X17.244
X17.284
X17.323 Y-35.372
X17.331 Y-35.37
X17.373 Y-35.358
X17.415 Y-35.339
X17.457 Y-35.312
X17.499 Y-35.278
X17.532 Y-35.241
X17.556 Y-35.204
X17.576 Y-35.162
X17.589 Y-35.12
X17.596 Y-35.078
X17.598 Y-35.037
Y-28.858
G3 X17.024 Y-28.681 I-0.317 J-0.011
G1 X16.982 Y-28.738 Z-9.992
X16.943 Y-28.792 Z-9.969
X16.907 Y-28.841 Z-9.931
X16.877 Y-28.881 Z-9.88
X16.855 Y-28.912 Z-9.82
X16.841 Y-28.931 Z-9.753
X16.836 Y-28.937 Z-9.682
G0 Z5.
X-28.644 Y-14.732
Z-9.365
G1 Z-9.682 F1016.
X-28.648 Y-14.738 Z-9.753
X-28.66 Y-14.759 Z-9.82
X-28.679 Y-14.791 Z-9.88
X-28.705 Y-14.834 Z-9.931
X-28.736 Y-14.886 Z-9.969
X-28.77 Y-14.944 Z-9.992
X-28.806 Y-15.004 Z-10.
G3 X-29.027 Y-15.758 I1.36 J-0.809
G1 Y-19.949
X-29.004 Y-20.411
X-28.95 Y-20.827
X-28.841 Y-21.336
X-28.636 Y-22.019
X-28.369 Y-22.706
X-28.062 Y-23.377
X-27.726 Y-24.034
X-27.366 Y-24.678
X-26.984 Y-25.31
X-26.583 Y-25.929
X-26.164 Y-26.536
X-25.726 Y-27.13
X-25.272 Y-27.711
X-24.8 Y-28.279
X-24.312 Y-28.832
X-23.808 Y-29.371
X-23.289 Y-29.896
X-22.755 Y-30.404
X-22.205 Y-30.897
X-21.642 Y-31.373
X-21.064 Y-31.832
X-20.473 Y-32.273
X-19.869 Y-32.697
X-19.253 Y-33.103
X-18.625 Y-33.49
X-17.986 Y-33.859
X-17.336 Y-34.209
X-16.677 Y-34.54
X-16.008 Y-34.852
X-15.331 Y-35.144
X-14.874 Y-35.325
X-14.786 Y-35.354
X-14.694 Y-35.372
X-14.601 Y-35.377
X-10.181
G3 X-10.004 Y-34.804 I-0.011 J0.317
G1 X-10.061 Y-34.762 Z-9.992
X-10.115 Y-34.723 Z-9.969
X-10.163 Y-34.687 Z-9.931
X-10.204 Y-34.657 Z-9.88
X-10.234 Y-34.635 Z-9.82
X-10.253 Y-34.621 Z-9.753
X-10.26 Y-34.616 Z-9.682
G0 Z5.
X-28.644 Y-18.923
Z-9.365
G1 Z-9.682 F1016.
X-28.648 Y-18.929 Z-9.753
X-28.66 Y-18.95 Z-9.82
X-28.679 Y-18.982 Z-9.88
X-28.705 Y-19.025 Z-9.931
X-28.736 Y-19.077 Z-9.969
X-28.77 Y-19.135 Z-9.992
X-28.806 Y-19.195 Z-10.
G3 X-29.027 Y-19.949 I1.36 J-0.809
G1 Y-22.967
X-29.016 Y-23.193
X-28.978 Y-23.487
X-28.897 Y-23.866
X-28.761 Y-24.319
X-28.529 Y-24.915
X-28.207 Y-25.579
X-27.842 Y-26.22
X-27.446 Y-26.843
X-27.027 Y-27.45
X-26.588 Y-28.043
X-26.131 Y-28.622
X-25.658 Y-29.188
X-25.168 Y-29.74
X-24.663 Y-30.278
X-24.144 Y-30.802
X-23.609 Y-31.31
X-23.061 Y-31.804
X-22.498 Y-32.281
X-21.922 Y-32.742
X-21.333 Y-33.186
X-20.732 Y-33.614
X-20.119 Y-34.025
X-19.495 Y-34.418
X-18.86 Y-34.794
X-18.215 Y-35.152
X-17.941 Y-35.294
X-17.832 Y-35.34
X-17.717 Y-35.368
X-17.6 Y-35.377
X-14.601
G3 X-14.424 Y-34.804 I-0.011 J0.317
G1 X-14.481 Y-34.762 Z-9.992
X-14.536 Y-34.723 Z-9.969
X-14.584 Y-34.687 Z-9.931
X-14.625 Y-34.657 Z-9.88
X-14.655 Y-34.635 Z-9.82
X-14.674 Y-34.621 Z-9.753
X-14.68 Y-34.616 Z-9.682
G0 Z5.
X-28.644 Y-21.94
Z-9.365
G1 Z-9.682 F1016.
X-28.648 Y-21.947 Z-9.753
X-28.66 Y-21.967 Z-9.82
X-28.679 Y-22. Z-9.88
X-28.705 Y-22.043 Z-9.931
X-28.736 Y-22.095 Z-9.969
X-28.77 Y-22.152 Z-9.992
X-28.806 Y-22.213 Z-10.
G3 X-29.027 Y-22.967 I1.36 J-0.809
G1 Y-25.313
X-29.014 Y-25.573
X-28.982 Y-25.821
X-28.915 Y-26.133
X-28.809 Y-26.487
X-28.631 Y-26.945
X-28.349 Y-27.526
X-27.974 Y-28.162
X-27.559 Y-28.772
X-27.115 Y-29.361
X-26.649 Y-29.933
X-26.165 Y-30.49
X-25.664 Y-31.032
X-25.148 Y-31.559
X-24.618 Y-32.072
X-24.073 Y-32.57
X-23.516 Y-33.053
X-22.945 Y-33.521
X-22.362 Y-33.973
X-21.766 Y-34.409
X-21.16 Y-34.829
X-20.542 Y-35.232
X-20.485 Y-35.267
X-20.363 Y-35.328
X-20.232 Y-35.365
X-20.096 Y-35.377
X-17.6
G3 X-17.4 Y-34.822 I-0.011 J0.317
G1 X-17.422 Y-34.803
X-28.985 Y-24.588
X-29.01 Y-24.556
X-29.023 Y-24.518
X-29.022 Y-24.477
X-29.008 Y-24.439
X-28.981 Y-24.408
X-28.945 Y-24.389
X-28.905 Y-24.382
X-28.865 Y-24.39
X-28.83 Y-24.411
X-28.805 Y-24.443
X-28.791 Y-24.481
X-28.792 Y-24.522
X-28.806 Y-24.56
G3 X-29.027 Y-25.313 I1.36 J-0.809
G1 Y-27.493
X-29.017 Y-27.703
X-28.987 Y-27.929
X-28.93 Y-28.198
X-28.838 Y-28.504
X-28.689 Y-28.887
X-28.465 Y-29.349
X-28.12 Y-29.934
X-27.696 Y-30.538
X-27.236 Y-31.115
X-26.751 Y-31.671
X-26.246 Y-32.209
X-25.725 Y-32.731
X-25.189 Y-33.238
X-24.639 Y-33.729
X-24.076 Y-34.206
X-23.5 Y-34.668
X-22.913 Y-35.115
X-22.743 Y-35.238
X-22.61 Y-35.314
X-22.463 Y-35.361
X-22.31 Y-35.377
X-20.096
G3 X-19.898 Y-34.822 I-0.011 J0.317
G1 X-19.919 Y-34.803
X-28.449 Y-27.311
X-28.501 Y-27.265
G3 X-29.027 Y-27.493 I-0.21 J-0.239
G1 Y-29.504
X-29.019 Y-29.673
X-28.991 Y-29.89
X-28.941 Y-30.12
X-28.857 Y-30.4
X-28.728 Y-30.732
X-28.535 Y-31.13
X-28.25 Y-31.614
X-27.826 Y-32.217
X-27.357 Y-32.787
X-26.857 Y-33.33
X-26.337 Y-33.852
X-25.799 Y-34.357
X-25.246 Y-34.846
X-24.817 Y-35.205
X-24.673 Y-35.299
X-24.512 Y-35.358
X-24.342 Y-35.377
G3 X-24.103 Y-34.864 I-0.011 J0.317
G1 X-24.156 Y-34.796
X-28.454 Y-29.328
X-28.461 Y-29.319
G3 X-29.027 Y-29.504 I-0.25 J-0.196
G1 Y-31.348
X-29.018 Y-31.539
X-28.993 Y-31.728
X-28.947 Y-31.945
X-28.867 Y-32.212
X-28.754 Y-32.503
X-28.579 Y-32.862
X-28.334 Y-33.278
X-27.963 Y-33.807
X-27.492 Y-34.374
X-26.984 Y-34.91
X-26.712 Y-35.171
X-26.561 Y-35.283
X-26.386 Y-35.354
X-26.199 Y-35.377
G3 X-25.947 Y-34.882 I-0.011 J0.317
G1 X-26.008 Y-34.792
X-28.447 Y-31.182
G3 X-29.027 Y-31.348 I-0.263 J-0.178
G1 Y-33.192
X-29.02 Y-33.342
X-28.991 Y-33.53
X-28.936 Y-33.758
X-28.855 Y-34.008
X-28.736 Y-34.294
X-28.558 Y-34.639
X-28.334 Y-35.001
X-28.278 Y-35.077
X-28.114 Y-35.238
X-27.909 Y-35.342
X-27.682 Y-35.377
G3 X-27.414 Y-34.908 I-0.011 J0.317
G1 X-27.481 Y-34.786
X-28.432 Y-33.051
G3 X-29.027 Y-33.192 I-0.278 J-0.153
G1 Y-34.701
X-29.019 Y-34.873
X-28.955 Y-35.071
X-28.827 Y-35.234
X-28.649 Y-35.34
X-28.444 Y-35.377
G3 X-28.199 Y-34.873 I-0.011 J0.317
G1 X-28.257 Y-34.794
X-28.454 Y-34.525
G3 X-29.027 Y-34.701 I-0.256 J-0.188
G1 Y-35.037
X-29.026 Y-35.078
X-29.019 Y-35.12
X-29.006 Y-35.162
X-28.986 Y-35.204
X-28.969 Y-35.232
X-28.947 Y-35.259
X-28.916 Y-35.289
X-28.886 Y-35.314
X-28.853 Y-35.336
X-28.821 Y-35.352
X-28.788 Y-35.364
X-28.756 Y-35.372
X-28.718 Y-35.377
X-28.383
X-22.31
G3 X-22.133 Y-34.804 I-0.011 J0.317
G1 X-22.19 Y-34.762 Z-9.992
X-22.244 Y-34.723 Z-9.969
X-22.293 Y-34.687 Z-9.931
X-22.333 Y-34.657 Z-9.88
X-22.364 Y-34.635 Z-9.82
X-22.383 Y-34.621 Z-9.753
X-22.389 Y-34.616 Z-9.682
G0 Z5.
X17.214 Y-7.061
Z-9.365
G1 Z-9.682 F1016.
X17.218 Y-7.055 Z-9.753
X17.23 Y-7.034 Z-9.82
X17.249 Y-7.002 Z-9.88
X17.275 Y-6.959 Z-9.931
X17.306 Y-6.907 Z-9.969
X17.34 Y-6.849 Z-9.992
X17.376 Y-6.789 Z-10.
G3 X17.598 Y-6.035 I-1.36 J0.809
G1 Y-2.515
X17.575 Y-2.071
X17.526 Y-1.699
X17.428 Y-1.236
X17.246 Y-0.629
X16.978 Y0.059
X16.665 Y0.727
X16.319 Y1.379
X15.949 Y2.017
X15.558 Y2.643
X15.147 Y3.256
X14.718 Y3.856
X14.272 Y4.443
X13.808 Y5.017
X13.327 Y5.577
X12.83 Y6.122
X12.318 Y6.653
X11.79 Y7.169
X11.248 Y7.669
X10.691 Y8.154
X10.121 Y8.622
X9.538 Y9.074
X8.943 Y9.51
X8.335 Y9.928
X7.715 Y10.329
X7.085 Y10.712
X6.443 Y11.076
X5.792 Y11.422
X5.131 Y11.75
X4.461 Y12.059
X3.782 Y12.348
X3.095 Y12.618
X2.401 Y12.869
X1.701 Y13.1
X0.993 Y13.31
X0.28 Y13.499
X-0.438 Y13.667
X-1.161 Y13.814
X-1.888 Y13.941
X-2.618 Y14.047
X-3.351 Y14.132
X-4.086 Y14.196
X-4.823 Y14.239
X-5.56 Y14.262
X-6.298 Y14.263
X-7.036 Y14.244
X-7.772 Y14.204
X-8.508 Y14.142
X-9.241 Y14.06
X-9.972 Y13.958
X-10.699 Y13.835
X-11.423 Y13.691
X-12.142 Y13.527
X-12.857 Y13.343
X-13.566 Y13.139
X-14.268 Y12.914
X-14.964 Y12.669
X-15.653 Y12.404
X-16.334 Y12.12
X-17.006 Y11.816
X-17.669 Y11.493
X-18.324 Y11.152
X-18.968 Y10.793
X-19.602 Y10.415
X-20.225 Y10.02
X-20.837 Y9.608
X-21.437 Y9.179
X-22.025 Y8.733
X-22.6 Y8.27
X-23.161 Y7.791
X-23.709 Y7.297
X-24.243 Y6.788
X-24.762 Y6.264
X-25.267 Y5.726
X-25.756 Y5.174
X-26.23 Y4.608
X-26.687 Y4.028
X-27.127 Y3.436
X-27.55 Y2.832
X-27.955 Y2.215
X-28.343 Y1.588
X-28.714 Y0.95
X-28.938 Y0.537
X-28.987 Y0.425
X-29.017 Y0.306
X-29.027 Y0.184
Y-2.72
G3 X-28.454 Y-2.897 I0.317 J0.011
G1 X-28.412 Y-2.84 Z-9.992
X-28.373 Y-2.786 Z-9.969
X-28.337 Y-2.737 Z-9.931
X-28.307 Y-2.696 Z-9.88
X-28.285 Y-2.666 Z-9.82
X-28.271 Y-2.647 Z-9.753
X-28.266 Y-2.641 Z-9.682
G0 Z5.
X17.214 Y-3.541
Z-9.365
G1 Z-9.682 F1016.
X17.218 Y-3.534 Z-9.753
X17.23 Y-3.514 Z-9.82
X17.249 Y-3.482 Z-9.88
X17.275 Y-3.438 Z-9.931
X17.306 Y-3.387 Z-9.969
X17.34 Y-3.329 Z-9.992
X17.376 Y-3.268 Z-10.
G3 X17.598 Y-2.515 I-1.36 J0.809
G1 Y0.335
X17.585 Y0.583
X17.549 Y0.862
X17.472 Y1.22
X17.345 Y1.644
X17.129 Y2.199
X16.807 Y2.863
X16.438 Y3.501
X16.036 Y4.12
X15.611 Y4.723
X15.165 Y5.311
X14.701 Y5.885
X14.22 Y6.444
X13.723 Y6.99
X13.211 Y7.521
X12.684 Y8.038
X12.143 Y8.539
X11.589 Y9.026
X11.021 Y9.497
X10.441 Y9.953
X9.849 Y10.393
X9.244 Y10.816
X8.629 Y11.223
X8.003 Y11.613
X7.366 Y11.986
X6.719 Y12.342
X6.063 Y12.679
X5.399 Y12.999
X4.725 Y13.301
X4.044 Y13.585
X3.356 Y13.85
X2.66 Y14.096
X1.958 Y14.323
X1.25 Y14.53
X0.537 Y14.718
X-0.182 Y14.886
X-0.905 Y15.034
X-1.631 Y15.162
X-2.361 Y15.27
X-3.094 Y15.358
X-3.829 Y15.426
X-4.565 Y15.474
X-5.302 Y15.502
X-6.04 Y15.51
X-6.778 Y15.498
X-7.515 Y15.467
X-8.251 Y15.415
X-8.985 Y15.344
X-9.717 Y15.253
X-10.447 Y15.142
X-11.173 Y15.012
X-11.895 Y14.862
X-12.614 Y14.693
X-13.327 Y14.505
X-14.035 Y14.297
X-14.737 Y14.07
X-15.432 Y13.824
X-16.121 Y13.559
X-16.802 Y13.275
X-17.475 Y12.973
X-18.139 Y12.652
X-18.795 Y12.313
X-19.441 Y11.957
X-20.078 Y11.584
X-20.704 Y11.194
X-21.32 Y10.787
X-21.924 Y10.364
X-22.517 Y9.925
X-23.098 Y9.47
X-23.666 Y9.
X-24.222 Y8.514
X-24.764 Y8.014
X-25.293 Y7.5
X-25.808 Y6.972
X-26.309 Y6.43
X-26.795 Y5.875
X-27.266 Y5.307
X-27.721 Y4.726
X-28.16 Y4.133
X-28.583 Y3.528
X-28.905 Y3.04
X-28.972 Y2.913
X-29.014 Y2.775
X-29.027 Y2.632
Y0.184
G3 X-28.454 Y0.007 I0.317 J0.011
G1 X-28.412 Y0.064 Z-9.992
X-28.373 Y0.118 Z-9.969
X-28.337 Y0.166 Z-9.931
X-28.307 Y0.207 Z-9.88
X-28.285 Y0.238 Z-9.82
X-28.271 Y0.256 Z-9.753
X-28.266 Y0.263 Z-9.682
G0 Z5.
X17.214 Y-0.691
Z-9.365
G1 Z-9.682 F1016.
X17.218 Y-0.684 Z-9.753
X17.23 Y-0.664 Z-9.82
X17.249 Y-0.632 Z-9.88
X17.275 Y-0.588 Z-9.931
X17.306 Y-0.537 Z-9.969
X17.34 Y-0.479 Z-9.992
X17.376 Y-0.418 Z-10.
G3 X17.598 Y0.335 I-1.36 J0.809
G1 Y2.682
X17.587 Y2.889
X17.555 Y3.131
X17.491 Y3.433
X17.389 Y3.773
X17.218 Y4.212
X16.952 Y4.76
X16.578 Y5.396
X16.159 Y6.003
X15.71 Y6.589
X15.239 Y7.156
X14.749 Y7.708
X14.242 Y8.245
X13.721 Y8.766
X13.185 Y9.274
X12.636 Y9.767
X12.074 Y10.245
X11.5 Y10.708
X10.914 Y11.156
X10.316 Y11.589
X9.708 Y12.006
X9.088 Y12.407
X8.459 Y12.792
X7.82 Y13.16
X7.171 Y13.512
X6.514 Y13.847
X5.848 Y14.165
X5.174 Y14.466
X4.493 Y14.749
X3.804 Y15.014
X3.109 Y15.261
X2.407 Y15.489
X1.7 Y15.699
X0.987 Y15.89
X0.27 Y16.062
X-0.452 Y16.215
X-1.177 Y16.349
X-1.906 Y16.464
X-2.638 Y16.56
X-3.372 Y16.637
X-4.107 Y16.694
X-4.844 Y16.733
X-5.582 Y16.753
X-6.319 Y16.754
X-7.057 Y16.735
X-7.794 Y16.698
X-8.529 Y16.642
X-9.263 Y16.566
X-9.995 Y16.472
X-10.724 Y16.36
X-11.45 Y16.228
X-12.173 Y16.078
X-12.891 Y15.91
X-13.605 Y15.723
X-14.313 Y15.517
X-15.016 Y15.292
X-15.713 Y15.049
X-16.403 Y14.788
X-17.086 Y14.509
X-17.761 Y14.212
X-18.429 Y13.898
X-19.088 Y13.567
X-19.739 Y13.219
X-20.38 Y12.854
X-21.012 Y12.473
X-21.634 Y12.076
X-22.245 Y11.663
X-22.846 Y11.234
X-23.435 Y10.791
X-24.013 Y10.332
X-24.579 Y9.859
X-25.133 Y9.371
X-25.674 Y8.87
X-26.202 Y8.355
X-26.717 Y7.826
X-27.218 Y7.285
X-27.705 Y6.73
X-28.177 Y6.163
X-28.635 Y5.584
X-28.88 Y5.256
X-28.961 Y5.12
X-29.011 Y4.97
X-29.027 Y4.812
Y2.632
G3 X-28.454 Y2.455 I0.317 J0.011
G1 X-28.412 Y2.512 Z-9.992
X-28.373 Y2.566 Z-9.969
X-28.337 Y2.615 Z-9.931
X-28.307 Y2.655 Z-9.88
X-28.285 Y2.686 Z-9.82
X-28.271 Y2.705 Z-9.753
X-28.266 Y2.711 Z-9.682
G0 Z5.
X17.214 Y1.656
Z-9.365
G1 Z-9.682 F1016.
X17.218 Y1.663 Z-9.753
X17.23 Y1.683 Z-9.82
X17.249 Y1.715 Z-9.88
X17.275 Y1.758 Z-9.931
X17.306 Y1.81 Z-9.969
X17.34 Y1.868 Z-9.992
X17.376 Y1.929 Z-10.
G3 X17.598 Y2.682 I-1.36 J0.809
G1 Y4.786
X17.588 Y4.981
X17.558 Y5.204
X17.503 Y5.464
X17.414 Y5.762
X17.27 Y6.132
X17.055 Y6.573
X16.728 Y7.129
X16.304 Y7.733
X15.842 Y8.308
X15.353 Y8.861
X14.844 Y9.395
X14.318 Y9.913
X13.778 Y10.415
X13.225 Y10.903
X12.659 Y11.376
X12.081 Y11.835
X11.491 Y12.279
X10.891 Y12.708
X10.28 Y13.122
X9.66 Y13.521
X9.029 Y13.904
X8.389 Y14.271
X7.741 Y14.623
X7.083 Y14.958
X6.418 Y15.277
X5.745 Y15.579
X5.064 Y15.864
X4.377 Y16.132
X3.683 Y16.383
X2.983 Y16.616
X2.277 Y16.831
X1.566 Y17.028
X0.85 Y17.207
X0.13 Y17.368
X-0.593 Y17.511
X-1.321 Y17.636
X-2.051 Y17.742
X-2.783 Y17.831
X-3.518 Y17.901
X-4.254 Y17.953
X-4.991 Y17.986
X-5.728 Y18.002
X-6.466 Y17.999
X-7.204 Y17.978
X-7.94 Y17.939
X-8.676 Y17.882
X-9.41 Y17.806
X-10.142 Y17.713
X-10.871 Y17.601
X-11.598 Y17.472
X-12.321 Y17.324
X-13.04 Y17.159
X-13.754 Y16.975
X-14.464 Y16.774
X-15.168 Y16.555
X-15.867 Y16.318
X-16.56 Y16.064
X-17.246 Y15.793
X-17.925 Y15.504
X-18.597 Y15.199
X-19.261 Y14.878
X-19.917 Y14.54
X-20.564 Y14.186
X-21.203 Y13.816
X-21.832 Y13.431
X-22.452 Y13.03
X-23.061 Y12.614
X-23.66 Y12.184
X-24.249 Y11.739
X-24.826 Y11.28
X-25.392 Y10.806
X-25.947 Y10.319
X-26.489 Y9.819
X-27.018 Y9.305
X-27.535 Y8.778
X-28.038 Y8.239
X-28.528 Y7.687
X-28.853 Y7.302
X-28.948 Y7.158
X-29.007 Y6.996
X-29.027 Y6.824
Y4.812
G3 X-28.454 Y4.636 I0.317 J0.011
G1 X-28.412 Y4.693 Z-9.992
X-28.373 Y4.747 Z-9.969
X-28.337 Y4.795 Z-9.931
X-28.307 Y4.836 Z-9.88
X-28.285 Y4.866 Z-9.82
X-28.271 Y4.885 Z-9.753
X-28.266 Y4.892 Z-9.682
G0 Z5.
X17.214 Y3.76
Z-9.365
G1 Z-9.682 F1016.
X17.218 Y3.766 Z-9.753
X17.23 Y3.787 Z-9.82
X17.249 Y3.819 Z-9.88
X17.275 Y3.862 Z-9.931
X17.306 Y3.914 Z-9.969
X17.34 Y3.972 Z-9.992
X17.376 Y4.033 Z-10.
G3 X17.598 Y4.786 I-1.36 J0.809
G1 Y6.706
X17.587 Y6.925
X17.559 Y7.137
X17.511 Y7.361
X17.428 Y7.638
X17.303 Y7.958
X17.115 Y8.345
X16.842 Y8.809
X16.423 Y9.406
X15.952 Y9.974
X15.45 Y10.514
X14.926 Y11.034
X14.384 Y11.535
X13.829 Y12.02
X13.26 Y12.491
X12.68 Y12.946
X12.088 Y13.387
X11.486 Y13.813
X10.874 Y14.225
X10.252 Y14.622
X9.621 Y15.004
X8.981 Y15.371
X8.332 Y15.723
X7.675 Y16.059
X7.011 Y16.379
X6.338 Y16.683
X5.659 Y16.971
X4.973 Y17.242
X4.28 Y17.496
X3.581 Y17.734
X2.877 Y17.954
X2.168 Y18.158
X1.454 Y18.344
X0.736 Y18.513
X0.014 Y18.665
X-0.711 Y18.799
X-1.44 Y18.916
X-2.171 Y19.015
X-2.904 Y19.097
X-3.639 Y19.162
X-4.376 Y19.209
X-5.113 Y19.238
X-5.851 Y19.251
X-6.588 Y19.245
X-7.326 Y19.222
X-8.063 Y19.182
X-8.798 Y19.125
X-9.532 Y19.05
X-10.264 Y18.957
X-10.994 Y18.847
X-11.72 Y18.72
X-12.444 Y18.575
X-13.164 Y18.413
X-13.879 Y18.234
X-14.59 Y18.037
X-15.297 Y17.824
X-15.998 Y17.593
X-16.693 Y17.346
X-17.382 Y17.083
X-18.065 Y16.803
X-18.74 Y16.507
X-19.409 Y16.195
X-20.07 Y15.867
X-20.723 Y15.523
X-21.368 Y15.165
X-22.004 Y14.791
X-22.631 Y14.402
X-23.249 Y13.999
X-23.857 Y13.581
X-24.455 Y13.149
X-25.043 Y12.703
X-25.62 Y12.244
X-26.187 Y11.771
X-26.742 Y11.285
X-27.285 Y10.785
X-27.816 Y10.273
X-28.334 Y9.748
X-28.826 Y9.227
X-28.935 Y9.076
X-29.004 Y8.903
X-29.027 Y8.719
Y6.824
G3 X-28.454 Y6.647 I0.317 J0.011
G1 X-28.412 Y6.704 Z-9.992
X-28.373 Y6.758 Z-9.969
X-28.337 Y6.807 Z-9.931
X-28.307 Y6.848 Z-9.88
X-28.285 Y6.878 Z-9.82
X-28.271 Y6.897 Z-9.753
X-28.266 Y6.903 Z-9.682
G0 Z5.
X17.214 Y5.679
Z-9.365
G1 Z-9.682 F1016.
X17.218 Y5.686 Z-9.753
X17.23 Y5.706 Z-9.82
X17.249 Y5.739 Z-9.88
X17.275 Y5.782 Z-9.931
X17.306 Y5.834 Z-9.969
X17.34 Y5.891 Z-9.992
X17.376 Y5.952 Z-10.
G3 X17.598 Y6.706 I-1.36 J0.809
G1 Y8.55
X17.587 Y8.767
X17.563 Y8.949
X17.517 Y9.164
X17.438 Y9.428
X17.328 Y9.711
X17.157 Y10.063
X16.919 Y10.467
X16.559 Y10.979
X16.088 Y11.546
X15.579 Y12.08
X15.045 Y12.589
X14.492 Y13.078
X13.924 Y13.549
X13.344 Y14.005
X12.752 Y14.446
X12.15 Y14.872
X11.538 Y15.283
X10.916 Y15.681
X10.285 Y16.064
X9.646 Y16.432
X8.998 Y16.785
X8.342 Y17.123
X7.679 Y17.446
X7.008 Y17.753
X6.33 Y18.045
X5.646 Y18.32
X4.955 Y18.58
X4.259 Y18.824
X3.557 Y19.052
X2.85 Y19.263
X2.139 Y19.458
X1.423 Y19.636
X0.703 Y19.798
X-0.021 Y19.943
X-0.747 Y20.071
X-1.477 Y20.183
X-2.208 Y20.277
X-2.942 Y20.356
X-3.677 Y20.417
X-4.414 Y20.461
X-5.151 Y20.489
X-5.889 Y20.5
X-6.627 Y20.495
X-7.364 Y20.472
X-8.101 Y20.433
X-8.836 Y20.377
X-9.571 Y20.303
X-10.303 Y20.213
X-11.033 Y20.106
X-11.76 Y19.983
X-12.485 Y19.842
X-13.206 Y19.686
X-13.923 Y19.512
X-14.636 Y19.322
X-15.344 Y19.116
X-16.048 Y18.893
X-16.746 Y18.655
X-17.438 Y18.4
X-18.125 Y18.13
X-18.805 Y17.844
X-19.478 Y17.542
X-20.145 Y17.225
X-20.804 Y16.894
X-21.455 Y16.547
X-22.098 Y16.186
X-22.733 Y15.81
X-23.359 Y15.42
X-23.977 Y15.016
X-24.585 Y14.598
X-25.183 Y14.166
X-25.772 Y13.721
X-26.35 Y13.263
X-26.917 Y12.791
X-27.474 Y12.307
X-28.019 Y11.81
X-28.553 Y11.3
X-28.81 Y11.043
X-28.928 Y10.89
X-29.002 Y10.711
X-29.027 Y10.519
Y8.719
G3 X-28.454 Y8.542 I0.317 J0.011
G1 X-28.412 Y8.599 Z-9.992
X-28.373 Y8.653 Z-9.969
X-28.337 Y8.702 Z-9.931
X-28.307 Y8.742 Z-9.88
X-28.285 Y8.773 Z-9.82
X-28.271 Y8.792 Z-9.753
X-28.266 Y8.798 Z-9.682
G0 Z5.
X17.214 Y7.523
Z-9.365
G1 Z-9.682 F1016.
X17.218 Y7.53 Z-9.753
X17.23 Y7.55 Z-9.82
X17.249 Y7.583 Z-9.88
X17.275 Y7.626 Z-9.931
X17.306 Y7.678 Z-9.969
X17.34 Y7.735 Z-9.992
X17.376 Y7.796 Z-10.
G3 X17.598 Y8.55 I-1.36 J0.809
G1 Y10.394
X17.59 Y10.543
X17.561 Y10.731
X17.507 Y10.958
X17.429 Y11.201
X17.311 Y11.483
X17.138 Y11.82
X16.896 Y12.213
X16.546 Y12.688
X16.062 Y13.245
X15.539 Y13.766
X14.99 Y14.259
X14.423 Y14.731
X13.841 Y15.185
X13.247 Y15.622
X12.642 Y16.045
X12.028 Y16.453
X11.404 Y16.847
X10.771 Y17.227
X10.13 Y17.592
X9.481 Y17.943
X8.824 Y18.279
X8.16 Y18.6
X7.489 Y18.907
X6.811 Y19.199
X6.127 Y19.475
X5.437 Y19.736
X4.741 Y19.981
X4.04 Y20.211
X3.334 Y20.424
X2.623 Y20.623
X1.908 Y20.805
X1.189 Y20.971
X0.467 Y21.121
X-0.258 Y21.255
X-0.987 Y21.374
X-1.718 Y21.476
X-2.45 Y21.562
X-3.185 Y21.631
X-3.921 Y21.685
X-4.658 Y21.723
X-5.395 Y21.744
X-6.133 Y21.75
X-6.871 Y21.739
X-7.608 Y21.712
X-8.344 Y21.669
X-9.08 Y21.609
X-9.814 Y21.534
X-10.546 Y21.442
X-11.276 Y21.334
X-12.003 Y21.21
X-12.727 Y21.069
X-13.448 Y20.913
X-14.166 Y20.741
X-14.879 Y20.553
X-15.588 Y20.348
X-16.293 Y20.129
X-16.992 Y19.893
X-17.686 Y19.643
X-18.374 Y19.377
X-19.056 Y19.096
X-19.732 Y18.8
X-20.401 Y18.489
X-21.064 Y18.164
X-21.719 Y17.824
X-22.366 Y17.47
X-23.006 Y17.103
X-23.637 Y16.721
X-24.26 Y16.326
X-24.874 Y15.917
X-25.48 Y15.495
X-26.075 Y15.06
X-26.662 Y14.612
X-27.238 Y14.151
X-27.804 Y13.678
X-28.359 Y13.192
X-28.787 Y12.801
X-28.917 Y12.644
X-28.999 Y12.457
X-29.027 Y12.254
Y10.519
G3 X-28.454 Y10.342 I0.317 J0.011
G1 X-28.412 Y10.399 Z-9.992
X-28.373 Y10.453 Z-9.969
X-28.337 Y10.502 Z-9.931
X-28.307 Y10.542 Z-9.88
X-28.285 Y10.573 Z-9.82
X-28.271 Y10.592 Z-9.753
X-28.266 Y10.598 Z-9.682
G0 Z5.
X17.214 Y9.367
Z-9.365
G1 Z-9.682 F1016.
X17.218 Y9.374 Z-9.753
X17.23 Y9.394 Z-9.82
X17.249 Y9.427 Z-9.88
X17.275 Y9.47 Z-9.931
X17.306 Y9.522 Z-9.969
X17.34 Y9.579 Z-9.992
X17.376 Y9.64 Z-10.
G3 X17.598 Y10.394 I-1.36 J0.809
G1 Y12.07
X17.59 Y12.22
X17.564 Y12.394
X17.516 Y12.605
X17.44 Y12.844
X17.336 Y13.1
X17.175 Y13.419
X16.966 Y13.762
X16.654 Y14.193
X16.202 Y14.72
X15.679 Y15.241
X15.125 Y15.729
X14.551 Y16.192
X13.962 Y16.636
X13.36 Y17.063
X12.747 Y17.474
X12.125 Y17.87
X11.494 Y18.252
X10.854 Y18.62
X10.207 Y18.974
X9.552 Y19.313
X8.889 Y19.638
X8.22 Y19.949
X7.545 Y20.246
X6.863 Y20.528
X6.175 Y20.795
X5.482 Y21.047
X4.783 Y21.284
X4.08 Y21.506
X3.371 Y21.713
X2.659 Y21.905
X1.942 Y22.081
X1.222 Y22.242
X0.499 Y22.388
X-0.227 Y22.518
X-0.956 Y22.633
X-1.687 Y22.732
X-2.42 Y22.816
X-3.155 Y22.884
X-3.891 Y22.937
X-4.628 Y22.974
X-5.365 Y22.995
X-6.103 Y23.001
X-6.841 Y22.992
X-7.578 Y22.966
X-8.315 Y22.925
X-9.05 Y22.868
X-9.785 Y22.796
X-10.517 Y22.707
X-11.248 Y22.604
X-11.976 Y22.485
X-12.701 Y22.35
X-13.423 Y22.2
X-14.142 Y22.034
X-14.858 Y21.853
X-15.569 Y21.657
X-16.276 Y21.445
X-16.978 Y21.219
X-17.675 Y20.977
X-18.367 Y20.721
X-19.054 Y20.45
X-19.734 Y20.165
X-20.408 Y19.866
X-21.076 Y19.552
X-21.737 Y19.224
X-22.391 Y18.883
X-23.038 Y18.528
X-23.677 Y18.159
X-24.308 Y17.777
X-24.931 Y17.382
X-25.546 Y16.974
X-26.152 Y16.553
X-26.749 Y16.119
X-27.336 Y15.673
X-27.914 Y15.214
X-28.482 Y14.743
X-28.771 Y14.493
X-28.91 Y14.333
X-28.997 Y14.141
X-29.027 Y13.932
Y12.254
G3 X-28.454 Y12.078 I0.317 J0.011
G1 X-28.412 Y12.135 Z-9.992
X-28.373 Y12.189 Z-9.969
X-28.337 Y12.237 Z-9.931
X-28.307 Y12.278 Z-9.88
X-28.285 Y12.308 Z-9.82
X-28.271 Y12.327 Z-9.753
X-28.266 Y12.334 Z-9.682
G0 Z5.
X17.214 Y11.044
Z-9.365
G1 Z-9.682 F1016.
X17.218 Y11.05 Z-9.753
X17.23 Y11.071 Z-9.82
X17.249 Y11.103 Z-9.88
X17.275 Y11.146 Z-9.931
X17.306 Y11.198 Z-9.969
X17.34 Y11.256 Z-9.992
X17.376 Y11.316 Z-10.
G3 X17.598 Y12.07 I-1.36 J0.809
G1 Y13.671
X17.59 Y13.825
X17.567 Y13.997
X17.523 Y14.202
X17.461 Y14.41
X17.366 Y14.655
X17.223 Y14.948
X17.039 Y15.262
X16.767 Y15.648
X16.382 Y16.112
X15.867 Y16.64
X15.314 Y17.129
X14.737 Y17.588
X14.142 Y18.025
X13.535 Y18.444
X12.916 Y18.846
X12.288 Y19.233
X11.651 Y19.605
X11.006 Y19.963
X10.353 Y20.308
X9.694 Y20.639
X9.027 Y20.955
X8.355 Y21.258
X7.676 Y21.547
X6.991 Y21.822
X6.3 Y22.082
X5.605 Y22.328
X4.904 Y22.559
X4.199 Y22.776
X3.489 Y22.978
X2.776 Y23.166
X2.058 Y23.338
X1.338 Y23.496
X0.614 Y23.639
X-0.113 Y23.768
X-0.842 Y23.881
X-1.573 Y23.979
X-2.306 Y24.063
X-3.041 Y24.131
X-3.777 Y24.184
X-4.513 Y24.223
X-5.251 Y24.246
X-5.989 Y24.254
X-6.726 Y24.246
X-7.464 Y24.224
X-8.201 Y24.186
X-8.937 Y24.134
X-9.671 Y24.066
X-10.404 Y23.983
X-11.136 Y23.885
X-11.865 Y23.772
X-12.592 Y23.644
X-13.315 Y23.501
X-14.036 Y23.344
X-14.754 Y23.171
X-15.467 Y22.984
X-16.177 Y22.782
X-16.882 Y22.565
X-17.583 Y22.334
X-18.279 Y22.089
X-18.969 Y21.83
X-19.655 Y21.556
X-20.334 Y21.269
X-21.008 Y20.968
X-21.675 Y20.653
X-22.336 Y20.324
X-22.99 Y19.983
X-23.637 Y19.628
X-24.276 Y19.26
X-24.908 Y18.879
X-25.532 Y18.485
X-26.148 Y18.079
X-26.755 Y17.66
X-27.354 Y17.228
X-27.943 Y16.785
X-28.524 Y16.33
X-28.759 Y16.135
X-28.904 Y15.975
X-28.996 Y15.779
X-29.027 Y15.564
Y13.932
G3 X-28.454 Y13.756 I0.317 J0.011
G1 X-28.412 Y13.813 Z-9.992
X-28.373 Y13.867 Z-9.969
X-28.337 Y13.915 Z-9.931
X-28.307 Y13.956 Z-9.88
X-28.285 Y13.986 Z-9.82
X-28.271 Y14.005 Z-9.753
X-28.266 Y14.012 Z-9.682
G0 Z5.
X17.214 Y12.644
Z-9.365
G1 Z-9.682 F1016.
X17.218 Y12.651 Z-9.753
X17.23 Y12.671 Z-9.82
X17.249 Y12.704 Z-9.88
X17.275 Y12.747 Z-9.931
X17.306 Y12.799 Z-9.969
X17.34 Y12.857 Z-9.992
X17.376 Y12.917 Z-10.
G3 X17.598 Y13.671 I-1.36 J0.809
G1 Y15.255
X17.589 Y15.425
X17.566 Y15.599
X17.528 Y15.775
X17.465 Y15.986
X17.366 Y16.242
X17.241 Y16.499
X17.056 Y16.814
X16.809 Y17.164
X16.453 Y17.593
X15.948 Y18.111
X15.392 Y18.596
X14.81 Y19.049
X14.209 Y19.477
X13.595 Y19.886
X12.969 Y20.277
X12.334 Y20.653
X11.691 Y21.014
X11.04 Y21.361
X10.382 Y21.695
X9.717 Y22.015
X9.046 Y22.321
X8.369 Y22.614
X7.686 Y22.893
X6.997 Y23.159
X6.303 Y23.41
X5.605 Y23.647
X4.902 Y23.871
X4.194 Y24.08
X3.483 Y24.275
X2.767 Y24.456
X2.049 Y24.623
X1.327 Y24.776
X0.602 Y24.914
X-0.125 Y25.037
X-0.855 Y25.147
X-1.587 Y25.242
X-2.32 Y25.322
X-3.055 Y25.388
X-3.791 Y25.439
X-4.528 Y25.476
X-5.265 Y25.498
X-6.003 Y25.506
X-6.741 Y25.499
X-7.478 Y25.477
X-8.215 Y25.441
X-8.951 Y25.389
X-9.686 Y25.323
X-10.42 Y25.243
X-11.151 Y25.148
X-11.881 Y25.038
X-12.608 Y24.914
X-13.333 Y24.775
X-14.055 Y24.623
X-14.773 Y24.455
X-15.488 Y24.274
X-16.2 Y24.078
X-16.907 Y23.869
X-17.61 Y23.645
X-18.309 Y23.407
X-19.003 Y23.156
X-19.691 Y22.891
X-20.374 Y22.612
X-21.052 Y22.32
X-21.724 Y22.015
X-22.389 Y21.697
X-23.049 Y21.366
X-23.701 Y21.021
X-24.347 Y20.664
X-24.986 Y20.295
X-25.617 Y19.913
X-26.24 Y19.518
X-26.856 Y19.112
X-27.463 Y18.693
X-28.062 Y18.262
X-28.653 Y17.82
X-28.76 Y17.731
X-28.904 Y17.57
X-28.996 Y17.375
X-29.027 Y17.161
Y15.564
G3 X-28.454 Y15.388 I0.317 J0.011
G1 X-28.412 Y15.445 Z-9.992
X-28.373 Y15.499 Z-9.969
X-28.337 Y15.547 Z-9.931
X-28.307 Y15.588 Z-9.88
X-28.285 Y15.618 Z-9.82
X-28.271 Y15.637 Z-9.753
X-28.266 Y15.644 Z-9.682
G0 Z5.
X17.214 Y14.229
Z-9.365
G1 Z-9.682 F1016.
X17.218 Y14.236 Z-9.753
X17.23 Y14.256 Z-9.82
X17.249 Y14.288 Z-9.88
X17.275 Y14.331 Z-9.931
X17.306 Y14.383 Z-9.969
X17.34 Y14.441 Z-9.992
X17.376 Y14.502 Z-10.
G3 X17.598 Y15.255 I-1.36 J0.809
G1 Y16.764
X17.586 Y16.995
X17.565 Y17.155
X17.528 Y17.33
X17.464 Y17.541
X17.37 Y17.782
X17.25 Y18.03
X17.069 Y18.338
X16.84 Y18.664
X16.506 Y19.067
X16.038 Y19.546
X15.482 Y20.031
X14.896 Y20.48
X14.29 Y20.902
X13.67 Y21.301
X13.039 Y21.683
X12.398 Y22.049
X11.75 Y22.401
X11.093 Y22.738
X10.43 Y23.062
X9.761 Y23.372
X9.086 Y23.67
X8.405 Y23.953
X7.718 Y24.224
X7.027 Y24.481
X6.33 Y24.725
X5.629 Y24.955
X4.924 Y25.172
X4.215 Y25.374
X3.502 Y25.564
X2.785 Y25.739
X2.065 Y25.901
X1.342 Y26.049
X0.617 Y26.183
X-0.111 Y26.303
X-0.841 Y26.409
X-1.574 Y26.501
X-2.307 Y26.579
X-3.042 Y26.643
X-3.778 Y26.693
X-4.515 Y26.729
X-5.253 Y26.751
X-5.991 Y26.759
X-6.728 Y26.753
X-7.466 Y26.732
X-8.203 Y26.697
X-8.939 Y26.647
X-9.674 Y26.583
X-10.408 Y26.506
X-11.14 Y26.414
X-11.87 Y26.308
X-12.598 Y26.188
X-13.323 Y26.054
X-14.046 Y25.906
X-14.766 Y25.744
X-15.483 Y25.569
X-16.196 Y25.38
X-16.905 Y25.177
X-17.611 Y24.96
X-18.312 Y24.73
X-19.008 Y24.487
X-19.7 Y24.231
X-20.387 Y23.961
X-21.068 Y23.678
X-21.744 Y23.383
X-22.415 Y23.074
X-23.079 Y22.753
X-23.737 Y22.419
X-24.389 Y22.073
X-25.034 Y21.715
X-25.672 Y21.345
X-26.303 Y20.962
X-26.926 Y20.567
X-27.542 Y20.161
X-28.15 Y19.743
X-28.749 Y19.313
X-28.762 Y19.303
X-28.905 Y19.142
X-28.996 Y18.947
X-29.027 Y18.734
Y17.161
G3 X-28.454 Y16.984 I0.317 J0.011
G1 X-28.412 Y17.041 Z-9.992
X-28.373 Y17.095 Z-9.969
X-28.337 Y17.144 Z-9.931
X-28.307 Y17.184 Z-9.88
X-28.285 Y17.215 Z-9.82
X-28.271 Y17.234 Z-9.753
X-28.266 Y17.24 Z-9.682
G0 Z5.
X17.214 Y15.737
Z-9.365
G1 Z-9.682 F1016.
X17.218 Y15.744 Z-9.753
X17.23 Y15.764 Z-9.82
X17.249 Y15.797 Z-9.88
X17.275 Y15.84 Z-9.931
X17.306 Y15.892 Z-9.969
X17.34 Y15.95 Z-9.992
X17.376 Y16.01 Z-10.
G3 X17.598 Y16.764 I-1.36 J0.809
G1 Y18.365
X17.589 Y18.527
X17.57 Y18.677
X17.532 Y18.852
X17.469 Y19.063
X17.383 Y19.285
X17.262 Y19.533
X17.086 Y19.833
X16.867 Y20.144
X16.551 Y20.525
X16.111 Y20.976
X15.555 Y21.461
X14.966 Y21.905
X14.356 Y22.32
X13.731 Y22.712
X13.095 Y23.085
X12.449 Y23.442
X11.795 Y23.784
X11.134 Y24.112
X10.467 Y24.426
X9.793 Y24.728
X9.114 Y25.016
X8.429 Y25.292
X7.74 Y25.554
X7.045 Y25.803
X6.346 Y26.039
X5.643 Y26.263
X4.936 Y26.473
X4.225 Y26.669
X3.51 Y26.853
X2.792 Y27.023
X2.071 Y27.179
X1.347 Y27.323
X0.621 Y27.453
X-0.107 Y27.569
X-0.838 Y27.672
X-1.57 Y27.762
X-2.304 Y27.838
X-3.039 Y27.9
X-3.776 Y27.949
X-4.513 Y27.984
X-5.25 Y28.005
X-5.988 Y28.013
X-6.726 Y28.007
X-7.463 Y27.987
X-8.2 Y27.953
X-8.937 Y27.905
X-9.672 Y27.843
X-10.406 Y27.767
X-11.138 Y27.678
X-11.869 Y27.576
X-12.597 Y27.459
X-13.324 Y27.329
X-14.047 Y27.186
X-14.768 Y27.029
X-15.486 Y26.859
X-16.201 Y26.676
X-16.912 Y26.479
X-17.619 Y26.269
X-18.323 Y26.047
X-19.022 Y25.811
X-19.717 Y25.562
X-20.406 Y25.301
X-21.091 Y25.026
X-21.771 Y24.74
X-22.446 Y24.44
X-23.114 Y24.129
X-23.777 Y23.805
X-24.434 Y23.469
X-25.085 Y23.121
X-25.729 Y22.761
X-26.366 Y22.39
X-26.997 Y22.006
X-27.62 Y21.611
X-28.236 Y21.205
X-28.754 Y20.849
X-28.901 Y20.687
X-28.995 Y20.49
X-29.027 Y20.274
Y18.734
G3 X-28.454 Y18.557 I0.317 J0.011
G1 X-28.412 Y18.614 Z-9.992
X-28.373 Y18.669 Z-9.969
X-28.337 Y18.717 Z-9.931
X-28.307 Y18.758 Z-9.88
X-28.285 Y18.788 Z-9.82
X-28.271 Y18.807 Z-9.753
X-28.266 Y18.813 Z-9.682
G0 Z5.
X17.214 Y17.338
Z-9.365
G1 Z-9.682 F1016.
X17.218 Y17.345 Z-9.753
X17.23 Y17.365 Z-9.82
X17.249 Y17.398 Z-9.88
X17.275 Y17.441 Z-9.931
X17.306 Y17.493 Z-9.969
X17.34 Y17.551 Z-9.992
X17.376 Y17.611 Z-10.
G3 X17.598 Y18.365 I-1.36 J0.809
G1 Y19.874
X17.589 Y20.035
X17.57 Y20.183
X17.532 Y20.359
X17.469 Y20.567
X17.388 Y20.775
X17.267 Y21.024
X17.098 Y21.311
X16.884 Y21.615
X16.582 Y21.978
X16.165 Y22.405
X15.608 Y22.889
X15.016 Y23.33
X14.402 Y23.738
X13.772 Y24.122
X13.13 Y24.487
X12.48 Y24.835
X11.821 Y25.167
X11.156 Y25.486
X10.484 Y25.792
X9.807 Y26.084
X9.124 Y26.364
X8.436 Y26.631
X7.744 Y26.885
X7.047 Y27.127
X6.345 Y27.356
X5.64 Y27.572
X4.931 Y27.776
X4.218 Y27.966
X3.502 Y28.144
X2.783 Y28.309
X2.061 Y28.46
X1.336 Y28.599
X0.609 Y28.725
X-0.12 Y28.838
X-0.851 Y28.938
X-1.584 Y29.024
X-2.318 Y29.098
X-3.054 Y29.158
X-3.79 Y29.205
X-4.527 Y29.239
X-5.264 Y29.259
X-6.002 Y29.267
X-6.74 Y29.261
X-7.478 Y29.241
X-8.215 Y29.208
X-8.951 Y29.161
X-9.686 Y29.101
X-10.42 Y29.028
X-11.153 Y28.941
X-11.884 Y28.841
X-12.613 Y28.728
X-13.34 Y28.601
X-14.065 Y28.462
X-14.787 Y28.31
X-15.506 Y28.144
X-16.222 Y27.966
X-16.934 Y27.775
X-17.643 Y27.571
X-18.349 Y27.355
X-19.05 Y27.125
X-19.747 Y26.884
X-20.44 Y26.63
X-21.128 Y26.363
X-21.811 Y26.084
X-22.489 Y25.794
X-23.162 Y25.491
X-23.829 Y25.176
X-24.491 Y24.849
X-25.146 Y24.511
X-25.796 Y24.161
X-26.439 Y23.799
X-27.076 Y23.426
X-27.705 Y23.042
X-28.328 Y22.647
X-28.75 Y22.364
X-28.899 Y22.204
X-28.995 Y22.007
X-29.027 Y21.79
Y20.274
G3 X-28.454 Y20.097 I0.317 J0.011
G1 X-28.412 Y20.154 Z-9.992
X-28.373 Y20.208 Z-9.969
X-28.337 Y20.257 Z-9.931
X-28.307 Y20.297 Z-9.88
X-28.285 Y20.328 Z-9.82
X-28.271 Y20.347 Z-9.753
X-28.266 Y20.353 Z-9.682
G0 Z5.
X17.214 Y18.847
Z-9.365
G1 Z-9.682 F1016.
X17.218 Y18.854 Z-9.753
X17.23 Y18.874 Z-9.82
X17.249 Y18.907 Z-9.88
X17.275 Y18.95 Z-9.931
X17.306 Y19.002 Z-9.969
X17.34 Y19.059 Z-9.992
X17.376 Y19.12 Z-10.
G3 X17.598 Y19.874 I-1.36 J0.809
G1 Y21.382
X17.59 Y21.532
X17.569 Y21.681
X17.529 Y21.859
X17.468 Y22.058
X17.384 Y22.267
X17.259 Y22.52
X17.095 Y22.793
X16.878 Y23.097
X16.583 Y23.446
X16.173 Y23.858
X15.613 Y24.338
X15.016 Y24.773
X14.397 Y25.174
X13.762 Y25.549
X13.115 Y25.905
X12.46 Y26.243
X11.796 Y26.566
X11.127 Y26.876
X10.451 Y27.172
X9.77 Y27.455
X9.083 Y27.726
X8.392 Y27.984
X7.697 Y28.23
X6.997 Y28.464
X6.293 Y28.685
X5.585 Y28.894
X4.874 Y29.09
X4.159 Y29.274
X3.442 Y29.445
X2.721 Y29.604
X1.998 Y29.75
X1.272 Y29.884
X0.545 Y30.005
X-0.185 Y30.113
X-0.917 Y30.209
X-1.65 Y30.292
X-2.384 Y30.362
X-3.12 Y30.419
X-3.856 Y30.464
X-4.594 Y30.496
X-5.331 Y30.515
X-6.069 Y30.521
X-6.807 Y30.514
X-7.544 Y30.494
X-8.281 Y30.46
X-9.018 Y30.414
X-9.753 Y30.355
X-10.487 Y30.282
X-11.22 Y30.197
X-11.951 Y30.099
X-12.681 Y29.988
X-13.408 Y29.864
X-14.133 Y29.727
X-14.856 Y29.578
X-15.576 Y29.416
X-16.293 Y29.242
X-17.006 Y29.055
X-17.717 Y28.856
X-18.424 Y28.645
X-19.127 Y28.421
X-19.826 Y28.185
X-20.521 Y27.937
X-21.211 Y27.677
X-21.897 Y27.405
X-22.578 Y27.121
X-23.254 Y26.826
X-23.925 Y26.518
X-24.59 Y26.2
X-25.25 Y25.869
X-25.904 Y25.528
X-26.552 Y25.175
X-27.194 Y24.811
X-27.83 Y24.436
X-28.458 Y24.05
X-28.817 Y23.805
X-28.93 Y23.682
X-29.003 Y23.53
X-29.027 Y23.365
Y21.79
G3 X-28.454 Y21.614 I0.317 J0.011
G1 X-28.412 Y21.67 Z-9.992
X-28.373 Y21.725 Z-9.969
X-28.337 Y21.773 Z-9.931
X-28.307 Y21.814 Z-9.88
X-28.285 Y21.844 Z-9.82
X-28.271 Y21.863 Z-9.753
X-28.266 Y21.869 Z-9.682
G0 Z5.
X17.214 Y20.356
Z-9.365
G1 Z-9.682 F1016.
X17.218 Y20.363 Z-9.753
X17.23 Y20.383 Z-9.82
X17.249 Y20.415 Z-9.88
X17.275 Y20.459 Z-9.931
X17.306 Y20.51 Z-9.969
X17.34 Y20.568 Z-9.992
X17.376 Y20.629 Z-10.
G3 X17.598 Y21.382 I-1.36 J0.809
G1 Y22.799
X17.588 Y22.99
X17.568 Y23.138
X17.531 Y23.311
X17.472 Y23.506
X17.393 Y23.708
X17.274 Y23.951
X17.114 Y24.221
X16.911 Y24.508
X16.629 Y24.846
X16.249 Y25.233
X15.733 Y25.68
X15.138 Y26.118
X14.519 Y26.518
X13.882 Y26.89
X13.233 Y27.241
X12.574 Y27.574
X11.908 Y27.891
X11.236 Y28.195
X10.557 Y28.485
X9.874 Y28.762
X9.185 Y29.027
X8.492 Y29.28
X7.794 Y29.521
X7.093 Y29.749
X6.387 Y29.966
X5.679 Y30.17
X4.966 Y30.362
X4.251 Y30.543
X3.532 Y30.711
X2.811 Y30.867
X2.087 Y31.01
X1.361 Y31.142
X0.633 Y31.261
X-0.097 Y31.368
X-0.828 Y31.462
X-1.562 Y31.544
X-2.296 Y31.614
X-3.032 Y31.671
X-3.768 Y31.716
X-4.505 Y31.749
X-5.243 Y31.769
X-5.981 Y31.776
X-6.718 Y31.77
X-7.456 Y31.752
X-8.193 Y31.721
X-8.93 Y31.678
X-9.665 Y31.622
X-10.4 Y31.553
X-11.133 Y31.471
X-11.865 Y31.377
X-12.595 Y31.271
X-13.323 Y31.152
X-14.049 Y31.021
X-14.773 Y30.877
X-15.494 Y30.722
X-16.213 Y30.554
X-16.928 Y30.374
X-17.641 Y30.181
X-18.35 Y29.977
X-19.055 Y29.761
X-19.757 Y29.533
X-20.455 Y29.294
X-21.148 Y29.042
X-21.838 Y28.779
X-22.522 Y28.504
X-23.202 Y28.218
X-23.878 Y27.921
X-24.548 Y27.612
X-25.213 Y27.292
X-25.872 Y26.961
X-26.526 Y26.619
X-27.174 Y26.266
X-27.815 Y25.902
X-28.451 Y25.527
X-28.809 Y25.293
X-28.927 Y25.169
X-29.002 Y25.015
X-29.027 Y24.847
Y23.365
G3 X-28.454 Y23.188 I0.317 J0.011
G1 X-28.412 Y23.245 Z-9.992
X-28.373 Y23.299 Z-9.969
X-28.337 Y23.348 Z-9.931
X-28.307 Y23.388 Z-9.88
X-28.285 Y23.419 Z-9.82
X-28.271 Y23.437 Z-9.753
X-28.266 Y23.444 Z-9.682
G0 Z5.
X17.214 Y21.772
Z-9.365
G1 Z-9.682 F1016.
X17.218 Y21.779 Z-9.753
X17.23 Y21.799 Z-9.82
X17.249 Y21.832 Z-9.88
X17.275 Y21.875 Z-9.931
X17.306 Y21.927 Z-9.969
X17.34 Y21.985 Z-9.992
X17.376 Y22.045 Z-10.
G3 X17.598 Y22.799 I-1.36 J0.809
G1 Y24.308
X17.59 Y24.457
X17.568 Y24.608
X17.527 Y24.787
X17.469 Y24.969
X17.384 Y25.179
X17.257 Y25.431
X17.107 Y25.678
X16.887 Y25.98
X16.613 Y26.301
X16.226 Y26.685
X15.699 Y27.132
X15.099 Y27.561
X14.474 Y27.954
X13.832 Y28.318
X13.179 Y28.66
X12.516 Y28.983
X11.845 Y29.292
X11.169 Y29.586
X10.486 Y29.867
X9.799 Y30.135
X9.107 Y30.392
X8.411 Y30.636
X7.711 Y30.868
X7.007 Y31.089
X6.299 Y31.298
X5.588 Y31.495
X4.874 Y31.681
X4.157 Y31.854
X3.437 Y32.016
X2.715 Y32.166
X1.99 Y32.304
X1.263 Y32.43
X0.534 Y32.545
X-0.196 Y32.647
X-0.929 Y32.737
X-1.662 Y32.815
X-2.397 Y32.881
X-3.133 Y32.936
X-3.87 Y32.978
X-4.607 Y33.008
X-5.344 Y33.025
X-6.082 Y33.031
X-6.82 Y33.024
X-7.558 Y33.004
X-8.295 Y32.973
X-9.031 Y32.929
X-9.767 Y32.873
X-10.502 Y32.804
X-11.235 Y32.724
X-11.967 Y32.631
X-12.697 Y32.526
X-13.426 Y32.408
X-14.152 Y32.279
X-14.876 Y32.138
X-15.598 Y31.984
X-16.317 Y31.819
X-17.033 Y31.643
X-17.747 Y31.454
X-18.457 Y31.254
X-19.163 Y31.042
X-19.867 Y30.818
X-20.566 Y30.583
X-21.262 Y30.337
X-21.953 Y30.079
X-22.64 Y29.81
X-23.322 Y29.53
X-24. Y29.239
X-24.673 Y28.937
X-25.342 Y28.624
X-26.004 Y28.3
X-26.662 Y27.965
X-27.314 Y27.619
X-27.96 Y27.263
X-28.599 Y26.894
X-28.893 Y26.694
X-28.965 Y26.614
X-29.012 Y26.517
X-29.027 Y26.411
Y24.847
G3 X-28.454 Y24.67 I0.317 J0.011
G1 X-28.412 Y24.727 Z-9.992
X-28.373 Y24.781 Z-9.969
X-28.337 Y24.829 Z-9.931
X-28.307 Y24.87 Z-9.88
X-28.285 Y24.901 Z-9.82
X-28.271 Y24.919 Z-9.753
X-28.266 Y24.926 Z-9.682
G0 Z5.
X17.214 Y23.281
Z-9.365
G1 Z-9.682 F1016.
X17.218 Y23.288 Z-9.753
X17.23 Y23.308 Z-9.82
X17.249 Y23.341 Z-9.88
X17.275 Y23.384 Z-9.931
X17.306 Y23.436 Z-9.969
X17.34 Y23.493 Z-9.992
X17.376 Y23.554 Z-10.
G3 X17.598 Y24.308 I-1.36 J0.809
G1 Y25.741
X17.59 Y25.891
X17.569 Y26.039
X17.529 Y26.214
X17.471 Y26.397
X17.388 Y26.6
X17.265 Y26.846
X17.115 Y27.093
X16.906 Y27.382
X16.633 Y27.701
X16.257 Y28.076
X15.766 Y28.493
X15.166 Y28.923
X14.54 Y29.313
X13.896 Y29.673
X13.239 Y30.01
X12.574 Y30.328
X11.901 Y30.63
X11.221 Y30.918
X10.537 Y31.193
X9.847 Y31.455
X9.153 Y31.706
X8.455 Y31.944
X7.753 Y32.171
X7.047 Y32.387
X6.338 Y32.591
X5.626 Y32.783
X4.911 Y32.964
X4.193 Y33.134
X3.472 Y33.292
X2.749 Y33.438
X2.023 Y33.573
X1.296 Y33.697
X0.567 Y33.808
X-0.164 Y33.908
X-0.897 Y33.997
X-1.631 Y34.073
X-2.366 Y34.139
X-3.102 Y34.192
X-3.838 Y34.233
X-4.575 Y34.263
X-5.313 Y34.281
X-6.051 Y34.287
X-6.789 Y34.28
X-7.526 Y34.262
X-8.263 Y34.232
X-9. Y34.19
X-9.736 Y34.135
X-10.471 Y34.069
X-11.204 Y33.991
X-11.937 Y33.901
X-12.667 Y33.799
X-13.396 Y33.686
X-14.123 Y33.56
X-14.848 Y33.423
X-15.571 Y33.275
X-16.291 Y33.114
X-17.009 Y32.943
X-17.724 Y32.76
X-18.435 Y32.565
X-19.144 Y32.359
X-19.849 Y32.142
X-20.551 Y31.914
X-21.249 Y31.675
X-21.942 Y31.424
X-22.632 Y31.163
X-23.318 Y30.89
X-23.999 Y30.607
X-24.676 Y30.313
X-25.348 Y30.008
X-26.015 Y29.693
X-26.677 Y29.367
X-27.334 Y29.03
X-27.985 Y28.684
X-28.629 Y28.324
X-28.916 Y28.133
X-28.976 Y28.069
X-29.014 Y27.99
X-29.027 Y27.903
Y26.411
G3 X-28.454 Y26.234 I0.317 J0.011
G1 X-28.412 Y26.291 Z-9.992
X-28.373 Y26.345 Z-9.969
X-28.337 Y26.394 Z-9.931
X-28.307 Y26.434 Z-9.88
X-28.285 Y26.465 Z-9.82
X-28.271 Y26.484 Z-9.753
X-28.266 Y26.49 Z-9.682
G0 Z5.
X17.214 Y24.714
Z-9.365
G1 Z-9.682 F1016.
X17.218 Y24.721 Z-9.753
X17.23 Y24.741 Z-9.82
X17.249 Y24.774 Z-9.88
X17.275 Y24.817 Z-9.931
X17.306 Y24.869 Z-9.969
X17.34 Y24.927 Z-9.992
X17.376 Y24.987 Z-10.
G3 X17.598 Y25.741 I-1.36 J0.809
G1 Y27.157
X17.59 Y27.307
X17.569 Y27.456
X17.53 Y27.63
X17.474 Y27.807
X17.393 Y28.01
X17.272 Y28.252
X17.129 Y28.488
X16.921 Y28.776
X16.661 Y29.082
X16.299 Y29.445
X15.831 Y29.843
X15.233 Y30.275
X14.606 Y30.663
X13.96 Y31.02
X13.302 Y31.353
X12.634 Y31.666
X11.958 Y31.963
X11.277 Y32.245
X10.59 Y32.514
X9.898 Y32.771
X9.202 Y33.016
X8.502 Y33.249
X7.798 Y33.471
X7.091 Y33.682
X6.381 Y33.881
X5.667 Y34.069
X4.951 Y34.246
X4.232 Y34.412
X3.511 Y34.566
X2.787 Y34.709
X2.061 Y34.841
X1.333 Y34.962
X0.603 Y35.071
X-0.128 Y35.169
X-0.861 Y35.256
X-1.595 Y35.332
X-2.33 Y35.395
X-3.066 Y35.448
X-3.802 Y35.489
X-4.539 Y35.519
X-5.277 Y35.536
X-6.015 Y35.543
X-6.753 Y35.537
X-7.49 Y35.52
X-8.228 Y35.491
X-8.964 Y35.451
X-9.7 Y35.398
X-10.435 Y35.334
X-11.169 Y35.259
X-11.902 Y35.172
X-12.633 Y35.073
X-13.363 Y34.963
X-14.09 Y34.841
X-14.816 Y34.708
X-15.54 Y34.564
X-16.261 Y34.409
X-16.98 Y34.242
X-17.696 Y34.064
X-18.409 Y33.875
X-19.119 Y33.675
X-19.826 Y33.464
X-20.53 Y33.242
X-21.23 Y33.01
X-21.926 Y32.766
X-22.619 Y32.512
X-23.307 Y32.246
X-23.992 Y31.971
X-24.672 Y31.685
X-25.347 Y31.388
X-26.018 Y31.081
X-26.684 Y30.764
X-27.345 Y30.436
X-28.001 Y30.098
X-28.641 Y29.752
X-28.917 Y29.573
X-28.977 Y29.511
X-29.014 Y29.434
X-29.027 Y29.349
Y27.903
G3 X-28.454 Y27.726 I0.317 J0.011
G1 X-28.412 Y27.783 Z-9.992
X-28.373 Y27.837 Z-9.969
X-28.337 Y27.886 Z-9.931
X-28.307 Y27.926 Z-9.88
X-28.285 Y27.957 Z-9.82
X-28.271 Y27.976 Z-9.753
X-28.266 Y27.982 Z-9.682
G0 Z5.
X17.214 Y26.131
Z-9.365
G1 Z-9.682 F1016.
X17.218 Y26.138 Z-9.753
X17.23 Y26.158 Z-9.82
X17.249 Y26.191 Z-9.88
X17.275 Y26.234 Z-9.931
X17.306 Y26.286 Z-9.969
X17.34 Y26.343 Z-9.992
X17.376 Y26.404 Z-10.
G3 X17.598 Y27.157 I-1.36 J0.809
G1 Y28.591
X17.59 Y28.741
X17.566 Y28.891
X17.525 Y29.065
X17.467 Y29.241
X17.378 Y29.452
X17.259 Y29.682
X17.107 Y29.926
X16.886 Y30.224
X16.629 Y30.518
X16.262 Y30.875
X15.769 Y31.283
X15.165 Y31.707
X14.533 Y32.087
X13.882 Y32.436
X13.219 Y32.76
X12.547 Y33.064
X11.868 Y33.353
X11.183 Y33.627
X10.493 Y33.888
X9.799 Y34.137
X9.1 Y34.374
X8.397 Y34.599
X7.692 Y34.814
X6.982 Y35.017
X6.27 Y35.21
X5.555 Y35.392
X4.837 Y35.562
X4.117 Y35.722
X3.394 Y35.871
X2.669 Y36.008
X1.942 Y36.135
X1.214 Y36.251
X0.483 Y36.356
X-0.248 Y36.449
X-0.982 Y36.532
X-1.716 Y36.604
X-2.238 Y36.646
X-2.278 Y36.647
X-8.456
X-9.193 Y36.611
X-9.931 Y36.596
X-10.667 Y36.551
X-11.402 Y36.485
X-12.135 Y36.402
X-12.867 Y36.305
X-13.597 Y36.196
X-14.324 Y36.075
X-15.05 Y35.942
X-15.774 Y35.799
X-16.495 Y35.644
X-17.214 Y35.478
X-17.931 Y35.301
X-18.644 Y35.114
X-19.355 Y34.915
X-20.062 Y34.706
X-20.767 Y34.486
X-21.467 Y34.256
X-22.165 Y34.015
X-22.858 Y33.763
X-23.548 Y33.501
X-24.234 Y33.229
X-24.915 Y32.946
X-25.593 Y32.654
X-26.265 Y32.351
X-26.934 Y32.038
X-27.597 Y31.715
X-28.255 Y31.381
X-28.643 Y31.168
X-28.802 Y31.051
X-28.924 Y30.896
X-29.001 Y30.714
X-29.027 Y30.518
Y29.349
G3 X-28.454 Y29.172 I0.317 J0.011
G1 X-28.412 Y29.229 Z-9.992
X-28.373 Y29.283 Z-9.969
X-28.337 Y29.332 Z-9.931
X-28.307 Y29.372 Z-9.88
X-28.285 Y29.403 Z-9.82
X-28.271 Y29.422 Z-9.753
X-28.266 Y29.428 Z-9.682
G0 Z5.
X-7.43 Y36.264
Z-9.365
G1 Z-9.682 F1016.
X-7.437 Y36.268 Z-9.753
X-7.457 Y36.28 Z-9.82
X-7.489 Y36.299 Z-9.88
X-7.533 Y36.325 Z-9.931
X-7.584 Y36.356 Z-9.969
X-7.642 Y36.39 Z-9.992
X-7.703 Y36.426 Z-10.
G3 X-8.456 Y36.647 I-0.809 J-1.36
G1 X-16.327
X-17.064 Y36.611
X-17.797 Y36.529
X-18.522 Y36.394
X-19.241 Y36.225
X-19.953 Y36.035
X-20.662 Y35.828
X-21.366 Y35.609
X-22.066 Y35.377
X-22.763 Y35.134
X-23.456 Y34.88
X-24.145 Y34.616
X-24.83 Y34.342
X-25.511 Y34.058
X-26.188 Y33.764
X-26.86 Y33.46
X-27.528 Y33.146
X-28.19 Y32.822
X-28.584 Y32.607
X-28.693 Y32.536
X-28.832 Y32.417
X-28.938 Y32.268
X-29.005 Y32.098
X-29.027 Y31.916
Y30.518
G3 X-28.454 Y30.341 I0.317 J0.011
G1 X-28.412 Y30.398 Z-9.992
X-28.373 Y30.453 Z-9.969
X-28.337 Y30.501 Z-9.931
X-28.307 Y30.542 Z-9.88
X-28.285 Y30.572 Z-9.82
X-28.271 Y30.591 Z-9.753
X-28.266 Y30.597 Z-9.682
G0 Z5.
X-15.3 Y36.264
Z-9.365
G1 Z-9.682 F1016.
X-15.307 Y36.268 Z-9.753
X-15.327 Y36.28 Z-9.82
X-15.36 Y36.299 Z-9.88
X-15.403 Y36.325 Z-9.931
X-15.455 Y36.356 Z-9.969
X-15.512 Y36.39 Z-9.992
X-15.573 Y36.426 Z-10.
G3 X-16.327 Y36.647 I-0.809 J-1.36
G1 X-20.848
X-21.419 Y36.619
X-21.978 Y36.546
X-22.699 Y36.391
X-23.408 Y36.186
X-24.107 Y35.951
X-24.799 Y35.695
X-25.486 Y35.424
X-26.167 Y35.141
X-26.843 Y34.846
X-27.515 Y34.541
X-28.181 Y34.223
X-28.581 Y34.007
X-28.69 Y33.936
X-28.831 Y33.817
X-28.938 Y33.668
X-29.005 Y33.497
X-29.027 Y33.315
G3 X-28.454 Y33.138 I0.317 J0.011
G1 X-28.412 Y33.195 Z-9.992
X-28.373 Y33.249 Z-9.969
X-28.337 Y33.297 Z-9.931
X-28.307 Y33.338 Z-9.88
X-28.285 Y33.368 Z-9.82
X-28.271 Y33.387 Z-9.753
X-28.266 Y33.394 Z-9.682
G0 Z5.
X-19.822 Y36.264
Z-9.365
G1 Z-9.682 F1016.
X-19.828 Y36.268 Z-9.753
X-19.849 Y36.28 Z-9.82
X-19.881 Y36.299 Z-9.88
X-19.924 Y36.325 Z-9.931
X-19.976 Y36.356 Z-9.969
X-20.034 Y36.39 Z-9.992
X-20.094 Y36.426 Z-10.
G3 X-20.848 Y36.647 I-0.809 J-1.36
G1 X-24.365
X-24.886 Y36.621
X-25.319 Y36.565
X-25.906 Y36.439
X-26.612 Y36.227
X-27.304 Y35.97
X-27.984 Y35.683
X-28.453 Y35.455
X-28.663 Y35.331
X-28.814 Y35.213
X-28.93 Y35.061
X-29.003 Y34.883
X-29.027 Y34.693
G3 X-28.599 Y34.407 I0.317 J0.011
G1 X-28.427 Y34.472
X-24.264 Y36.033
G3 X-24.365 Y36.647 I-0.112 J0.297
G1 X-27.546
X-27.804 Y36.635
X-28.045 Y36.603
X-28.274 Y36.554
X-28.472 Y36.495
X-28.556 Y36.462
X-28.747 Y36.352
X-28.898 Y36.19
X-28.994 Y35.991
X-29.027 Y35.772
G3 X-28.574 Y35.496 I0.317 J0.011
G1 X-28.432 Y35.563
X-27.421 Y36.043
G3 X-27.546 Y36.647 I-0.136 J0.287
G1 X-28.551
X-28.718
X-28.76 Y36.641
X-28.802 Y36.629
X-28.844 Y36.611
X-28.886 Y36.584
X-28.933 Y36.545
X-28.969 Y36.503
X-28.994 Y36.461
X-29.011 Y36.42
X-29.022 Y36.378
X-29.027 Y36.336
Y31.916
G3 X-28.454 Y31.739 I0.317 J0.011
G1 X-28.412 Y31.796 Z-9.992
X-28.373 Y31.85 Z-9.969
X-28.337 Y31.899 Z-9.931
X-28.307 Y31.939 Z-9.88
X-28.285 Y31.97 Z-9.82
X-28.271 Y31.989 Z-9.753
X-28.266 Y31.995 Z-9.682
G0 Z5.
X17.214 Y27.564
Z-9.365
G1 Z-9.682 F1016.
X17.218 Y27.571 Z-9.753
X17.23 Y27.591 Z-9.82
X17.249 Y27.624 Z-9.88
X17.275 Y27.667 Z-9.931
X17.306 Y27.719 Z-9.969
X17.34 Y27.777 Z-9.992
X17.376 Y27.837 Z-10.
G3 X17.598 Y28.591 I-1.36 J0.809
G1 Y30.007
X17.59 Y30.157
X17.565 Y30.306
X17.521 Y30.482
X17.461 Y30.658
X17.371 Y30.866
X17.245 Y31.104
X17.092 Y31.344
X16.868 Y31.64
X16.604 Y31.935
X16.23 Y32.292
X15.737 Y32.692
X15.129 Y33.109
X14.493 Y33.483
X13.839 Y33.824
X13.172 Y34.141
X12.497 Y34.439
X11.815 Y34.72
X11.127 Y34.987
X10.435 Y35.241
X9.737 Y35.483
X9.037 Y35.713
X8.332 Y35.933
X7.624 Y36.141
X6.913 Y36.338
X6.2 Y36.525
X5.788 Y36.626
X5.729 Y36.638
X5.67 Y36.645
X5.611 Y36.647
X-2.278
G3 X-2.455 Y36.074 I0.011 J-0.317
G1 X-2.398 Y36.032 Z-9.992
X-2.344 Y35.993 Z-9.969
X-2.295 Y35.957 Z-9.931
X-2.255 Y35.927 Z-9.88
X-2.224 Y35.905 Z-9.82
X-2.205 Y35.891 Z-9.753
X-2.199 Y35.886 Z-9.682
G0 Z5.
X17.214 Y28.981
Z-9.365
G1 Z-9.682 F1016.
X17.218 Y28.988 Z-9.753
X17.23 Y29.008 Z-9.82
X17.249 Y29.04 Z-9.88
X17.275 Y29.084 Z-9.931
X17.306 Y29.135 Z-9.969
X17.34 Y29.193 Z-9.992
X17.376 Y29.254 Z-10.
G3 X17.598 Y30.007 I-1.36 J0.809
G1 Y31.348
X17.59 Y31.498
X17.57 Y31.647
X17.534 Y31.811
X17.479 Y31.989
X17.403 Y32.18
X17.29 Y32.408
X17.15 Y32.642
X16.961 Y32.906
X16.707 Y33.206
X16.387 Y33.529
X15.962 Y33.894
X15.37 Y34.324
X14.741 Y34.709
X14.09 Y35.057
X13.426 Y35.378
X12.752 Y35.677
X12.07 Y35.959
X11.382 Y36.226
X10.689 Y36.479
X10.319 Y36.607
X10.24 Y36.629
X10.159 Y36.643
X10.077 Y36.647
X5.611
G3 X5.497 Y36.038 I0.011 J-0.317
G1 X16.999 Y31.134
X17.156 Y31.067
G3 X17.598 Y31.348 I0.125 J0.292
G1 Y32.69
X17.588 Y32.875
X17.569 Y33.024
X17.535 Y33.181
X17.483 Y33.351
X17.404 Y33.553
X17.303 Y33.76
X17.165 Y33.993
X16.969 Y34.27
X16.744 Y34.54
X16.421 Y34.868
X16.018 Y35.219
X15.461 Y35.628
X14.833 Y36.016
X14.183 Y36.365
X13.749 Y36.574
X13.646 Y36.615
X13.538 Y36.639
X13.428 Y36.647
G3 X13.221 Y36.099 I0.011 J-0.317
G1 X13.25 Y36.072
X17.02 Y32.509
X17.062 Y32.47
G3 X17.598 Y32.69 I0.218 J0.231
G1 Y34.123
X17.59 Y34.273
X17.568 Y34.423
X17.532 Y34.576
X17.476 Y34.753
X17.392 Y34.957
X17.288 Y35.161
X17.137 Y35.408
X16.947 Y35.668
X16.701 Y35.954
X16.378 Y36.273
X16.141 Y36.473
X15.997 Y36.568
X15.835 Y36.627
X15.664 Y36.647
G3 X15.418 Y36.143 I0.011 J-0.317
G1 X15.476 Y36.064
X17.024 Y33.947
G3 X17.598 Y34.123 I0.256 J0.187
G1 Y35.464
X17.59 Y35.614
X17.57 Y35.763
X17.536 Y35.92
X17.485 Y36.086
X17.449 Y36.179
X17.338 Y36.37
X17.176 Y36.519
X16.977 Y36.615
X16.76 Y36.647
G3 X16.498 Y36.168 I0.011 J-0.317
G1 X16.563 Y36.058
X17.007 Y35.313
G3 X17.598 Y35.464 I0.273 J0.163
G1 X17.597 Y36.336
X17.592 Y36.378
X17.581 Y36.42
X17.564 Y36.461
X17.539 Y36.503
X17.499 Y36.549
X17.457 Y36.583
X17.415 Y36.609
X17.373 Y36.628
X17.331 Y36.64
X17.29 Y36.646
X17.248 Y36.647
X10.077
G3 X9.771 Y36.35 I0.011 J-0.317
G1 X9.77 Y36.33 Z-9.999
X9.784 Y36.277 Z-9.991
X9.797 Y36.226 Z-9.973
X9.809 Y36.179 Z-9.946
X9.84 Y36.143 Z-9.906
X9.865 Y36.114 Z-9.858
X9.884 Y36.092 Z-9.803
X9.896 Y36.079 Z-9.744
X9.9 Y36.074 Z-9.683
G0 Z5.
X-44.649 Y51.39
Z-19.365
G1 Z-19.683 F1016.
X-44.645 Y51.383 Z-19.753
X-44.633 Y51.363 Z-19.82
X-44.612 Y51.331 Z-19.88
X-44.586 Y51.289 Z-19.931
X-44.554 Y51.238 Z-19.969
X-44.518 Y51.181 Z-19.992
X-44.481 Y51.121 Z-20.
G3 X-43.399 Y49.75 I6.867 J4.307
G1 X-43.332 Y49.687
X-43.187 Y49.6
X-42.978 Y49.496
X-42.85 Y49.446
X-42.651 Y49.397
X-42.446 Y49.404
X-42.251 Y49.468
X-42.115 Y49.534
X-41.947 Y49.598
X-41.885 Y49.621
X-41.78 Y49.649
X-41.612 Y49.682
X-41.445 Y49.701
X-41.277 Y49.712
X41.277
X41.445 Y49.701
X41.612 Y49.682
X41.78 Y49.649
X41.885 Y49.621
X41.947 Y49.598
X42.115 Y49.534
X42.282 Y49.453
X42.45 Y49.347
X42.534 Y49.286
X42.617 Y49.217
X42.733 Y49.118
X42.784 Y49.064
X42.952 Y48.867
X43.007 Y48.783
X43.11 Y48.615
X43.192 Y48.448
X43.257 Y48.28
X43.287 Y48.18
X43.336 Y47.945
X43.353 Y47.777
X43.362 Y47.609
X43.363 Y46.436
X43.362 Y-47.274
Y-47.609
X43.353 Y-47.777
X43.336 Y-47.945
X43.287 Y-48.18
X43.257 Y-48.28
X43.192 Y-48.448
X43.11 Y-48.615
X43.007 Y-48.783
X42.952 Y-48.867
X42.784 Y-49.064
X42.733 Y-49.118
X42.617 Y-49.217
X42.534 Y-49.286
X42.45 Y-49.347
X42.28 Y-49.453
X42.115 Y-49.534
X41.947 Y-49.598
X41.885 Y-49.621
X41.78 Y-49.649
X41.612 Y-49.682
X41.445 Y-49.701
X41.277 Y-49.712
X-41.277
X-41.445 Y-49.701
X-41.612 Y-49.682
X-41.78 Y-49.649
X-41.885 Y-49.621
X-41.947 Y-49.598
X-42.115 Y-49.534
X-42.282 Y-49.453
X-42.45 Y-49.347
X-42.534 Y-49.286
X-42.617 Y-49.217
X-42.733 Y-49.118
X-42.784 Y-49.064
