;FLAVOR:Marlin
;TIME:13639
;Filament used: 16.7629m
;Layer height: 0.2
;Generated with Cura_SteamEngine 1.2.1
M190 S60
M104 S230
M109 S230
G28
G1 Z50.00 F400
G92 E0
G1 F200 E3
G92 E0
M132 X Y Z A
M907 X100 Y100 Z50 A100
;LAYER_COUNT:107
;LAYER:0
M107
G0 F3000 X51.781 Y-47.615 Z0.3
;TYPE:SKIRT
G1 F1500 X51.781 Y47.616 E4.75109
G1 X51.741 Y48.234 E4.78199
G1 X51.622 Y48.842 E4.8129
G1 X51.425 Y49.429 E4.84379
G1 X51.155 Y49.986 E4.87467
G1 X50.815 Y50.504 E4.90558
G1 X50.411 Y50.974 E4.9365
G1 X49.95 Y51.387 E4.96738
G1 X49.44 Y51.738 E4.99827
G1 X48.889 Y52.021 E5.02918
G1 X48.306 Y52.23 E5.06007
G1 X47.7 Y52.362 E5.09102
G1 X46.981 Y52.416 E5.12699
G1 X-46.981 Y52.416 E9.81477
G1 X-47.599 Y52.376 E9.84567
G1 X-48.207 Y52.257 E9.87658
G1 X-48.794 Y52.06 E9.90747
G1 X-49.351 Y51.79 E9.93835
G1 X-49.869 Y51.45 E9.96926
G1 X-50.339 Y51.046 E10.00018
G1 X-50.752 Y50.585 E10.03106
G1 X-51.103 Y50.075 E10.06195
G1 X-51.386 Y49.524 E10.09285
G1 X-51.595 Y48.941 E10.12375
G1 X-51.727 Y48.335 E10.15469
G1 X-51.781 Y47.616 E10.19067
G1 X-51.781 Y-47.616 E14.94181
G1 X-51.741 Y-48.234 E14.97271
G1 X-51.622 Y-48.842 E15.00361
G1 X-51.425 Y-49.429 E15.03451
G1 X-51.155 Y-49.986 E15.06539
G1 X-50.815 Y-50.504 E15.0963
G1 X-50.411 Y-50.974 E15.12722
G1 X-49.95 Y-51.387 E15.1581
G1 X-49.44 Y-51.738 E15.18899
G1 X-48.889 Y-52.021 E15.21989
G1 X-48.306 Y-52.23 E15.25079
G1 X-47.7 Y-52.362 E15.28173
G1 X-46.981 Y-52.416 E15.3177
G1 X46.981 Y-52.415 E20.00549
G1 X47.599 Y-52.375 E20.03638
G1 X48.207 Y-52.256 E20.06729
G1 X48.794 Y-52.059 E20.09818
G1 X49.351 Y-51.789 E20.12906
G1 X49.869 Y-51.449 E20.15998
G1 X50.339 Y-51.045 E20.1909
G1 X50.752 Y-50.584 E20.22178
G1 X51.103 Y-50.074 E20.25266
G1 X51.386 Y-49.523 E20.28357
G1 X51.595 Y-48.94 E20.31447
G1 X51.727 Y-48.334 E20.34541
G1 X51.781 Y-47.615 E20.38138
G0 F3000 X51.381 Y-47.615
G1 F1500 X51.381 Y47.616 E25.13247
G1 X51.341 Y48.208 E25.16208
G1 X51.222 Y48.788 E25.19162
G1 X51.026 Y49.348 E25.22122
G1 X50.756 Y49.876 E25.2508
G1 X50.418 Y50.363 E25.28038
G1 X50.017 Y50.8 E25.30997
G1 X49.562 Y51.18 E25.33954
G1 X49.059 Y51.494 E25.36913
G1 X48.519 Y51.739 E25.39871
G1 X47.95 Y51.908 E25.42832
G1 X47.365 Y51.999 E25.45786
G1 X46.981 Y52.016 E25.47704
G1 X-46.981 Y52.016 E30.16482
G1 X-47.573 Y51.976 E30.19442
G1 X-48.153 Y51.857 E30.22396
G1 X-48.713 Y51.661 E30.25356
G1 X-49.241 Y51.391 E30.28315
G1 X-49.728 Y51.053 E30.31272
G1 X-50.165 Y50.652 E30.34231
G1 X-50.545 Y50.197 E30.37189
G1 X-50.859 Y49.694 E30.40147
G1 X-51.104 Y49.154 E30.43106
G1 X-51.273 Y48.585 E30.46067
G1 X-51.364 Y48 E30.49021
G1 X-51.381 Y47.616 E30.50938
G1 X-51.381 Y-47.616 E35.26053
G1 X-51.341 Y-48.208 E35.29013
G1 X-51.222 Y-48.788 E35.31967
G1 X-51.026 Y-49.348 E35.34927
G1 X-50.756 Y-49.876 E35.37885
G1 X-50.418 Y-50.363 E35.40843
G1 X-50.017 Y-50.8 E35.43802
G1 X-49.562 Y-51.18 E35.46759
G1 X-49.059 Y-51.494 E35.49718
G1 X-48.519 Y-51.739 E35.52676
G1 X-47.95 Y-51.908 E35.55637
G1 X-47.365 Y-51.999 E35.58591
G1 X-46.981 Y-52.016 E35.60509
G1 X46.981 Y-52.015 E40.29287
G1 X47.573 Y-51.975 E40.32247
G1 X48.154 Y-51.856 E40.35206
G1 X48.713 Y-51.66 E40.38161
G1 X49.241 Y-51.39 E40.4112
G1 X49.728 Y-51.052 E40.44078
G1 X50.165 Y-50.651 E40.47037
G1 X50.545 Y-50.196 E40.49994
G1 X50.859 Y-49.693 E40.52952
G1 X51.104 Y-49.153 E40.55911
G1 X51.273 Y-48.584 E40.58872
G1 X51.364 Y-47.998 E40.61831
G1 X51.381 Y-47.615 E40.63743
G0 F3000 X50.981 Y-47.615
G1 F1500 X50.981 Y47.616 E45.38853
G1 X50.941 Y48.18 E45.41674
G1 X50.822 Y48.733 E45.44496
G1 X50.626 Y49.263 E45.47315
G1 X50.358 Y49.76 E45.50132
G1 X50.022 Y50.215 E45.52954
G1 X49.625 Y50.618 E45.55776
G1 X49.175 Y50.96 E45.58596
G1 X48.682 Y51.236 E45.61415
G1 X48.154 Y51.44 E45.64239
G1 X47.604 Y51.567 E45.67055
G1 X46.981 Y51.616 E45.70173
G1 X-46.981 Y51.616 E50.38951
G1 X-47.545 Y51.576 E50.41772
G1 X-48.098 Y51.457 E50.44594
G1 X-48.628 Y51.261 E50.47413
G1 X-49.125 Y50.993 E50.5023
G1 X-49.58 Y50.657 E50.53052
G1 X-49.983 Y50.26 E50.55874
G1 X-50.325 Y49.81 E50.58694
G1 X-50.601 Y49.317 E50.61513
G1 X-50.805 Y48.789 E50.64337
G1 X-50.932 Y48.239 E50.67153
G1 X-50.981 Y47.616 E50.70271
G1 X-50.981 Y-47.616 E55.45385
G1 X-50.941 Y-48.18 E55.48206
G1 X-50.822 Y-48.733 E55.51028
G1 X-50.626 Y-49.263 E55.53848
G1 X-50.358 Y-49.76 E55.56665
G1 X-50.022 Y-50.215 E55.59486
G1 X-49.625 Y-50.618 E55.62309
G1 X-49.175 Y-50.96 E55.65129
G1 X-48.682 Y-51.236 E55.67947
G1 X-48.154 Y-51.44 E55.70771
G1 X-47.604 Y-51.567 E55.73588
G1 X-46.981 Y-51.616 E55.76705
G1 X46.981 Y-51.615 E60.45484
G1 X47.545 Y-51.575 E60.48305
G1 X48.098 Y-51.456 E60.51127
G1 X48.628 Y-51.26 E60.53946
G1 X49.125 Y-50.992 E60.56763
G1 X49.58 Y-50.656 E60.59585
G1 X49.983 Y-50.259 E60.62407
G1 X50.325 Y-49.809 E60.65227
G1 X50.601 Y-49.316 E60.68046
G1 X50.805 Y-48.788 E60.7087
G1 X50.932 Y-48.238 E60.73686
G1 X50.981 Y-47.615 E60.76804
G0 F3000 X50.581 Y-47.615
G1 F1500 X50.581 Y47.616 E65.51913
G1 X50.541 Y48.151 E65.5459
G1 X50.422 Y48.674 E65.57265
G1 X50.227 Y49.173 E65.59938
G1 X49.959 Y49.638 E65.62616
G1 X49.626 Y50.058 E65.6529
G1 X49.234 Y50.424 E65.67966
G1 X48.792 Y50.727 E65.70639
G1 X48.309 Y50.962 E65.73319
G1 X47.798 Y51.122 E65.7599
G1 X47.268 Y51.205 E65.78667
G1 X46.981 Y51.216 E65.801
G1 X-46.981 Y51.216 E70.48878
G1 X-47.516 Y51.176 E70.51555
G1 X-48.039 Y51.057 E70.54231
G1 X-48.538 Y50.862 E70.56903
G1 X-49.003 Y50.594 E70.59581
G1 X-49.423 Y50.261 E70.62255
G1 X-49.789 Y49.869 E70.64931
G1 X-50.092 Y49.427 E70.67604
G1 X-50.327 Y48.944 E70.70284
G1 X-50.487 Y48.433 E70.72956
G1 X-50.57 Y47.903 E70.75632
G1 X-50.581 Y47.616 E70.77065
G1 X-50.581 Y-47.616 E75.52179
G1 X-50.541 Y-48.151 E75.54856
G1 X-50.422 Y-48.674 E75.57532
G1 X-50.227 Y-49.173 E75.60205
G1 X-49.959 Y-49.638 E75.62882
G1 X-49.626 Y-50.058 E75.65556
G1 X-49.234 Y-50.424 E75.68232
G1 X-48.792 Y-50.727 E75.70905
G1 X-48.309 Y-50.962 E75.73585
G1 X-47.798 Y-51.122 E75.76257
G1 X-47.268 Y-51.205 E75.78933
G1 X-46.981 Y-51.216 E75.80366
G1 X46.981 Y-51.215 E80.49144
G1 X47.516 Y-51.175 E80.51821
G1 X48.039 Y-51.056 E80.54497
G1 X48.538 Y-50.861 E80.5717
G1 X49.003 Y-50.593 E80.59847
G1 X49.423 Y-50.26 E80.62521
G1 X49.789 Y-49.868 E80.65197
G1 X50.092 Y-49.426 E80.67871
G1 X50.327 Y-48.943 E80.7055
G1 X50.487 Y-48.432 E80.73222
G1 X50.57 Y-47.902 E80.75898
G1 X50.581 Y-47.615 E80.77331
G0 F3000 X50.181 Y-47.615
G1 F1500 X50.181 Y47.616 E85.5244
G1 X50.141 Y48.12 E85.54963
G1 X50.022 Y48.611 E85.57483
G1 X49.828 Y49.078 E85.60006
G1 X49.562 Y49.508 E85.62529
G1 X49.232 Y49.891 E85.65051
G1 X48.845 Y50.217 E85.67576
G1 X48.412 Y50.478 E85.70098
G1 X47.944 Y50.668 E85.72618
G1 X47.451 Y50.781 E85.75141
G1 X46.981 Y50.816 E85.77493
G1 X-46.981 Y50.816 E90.46271
G1 X-47.485 Y50.776 E90.48793
G1 X-47.976 Y50.657 E90.51314
G1 X-48.443 Y50.463 E90.53837
G1 X-48.873 Y50.197 E90.56359
G1 X-49.256 Y49.867 E90.58881
G1 X-49.582 Y49.48 E90.61406
G1 X-49.843 Y49.047 E90.63928
G1 X-50.033 Y48.579 E90.66448
G1 X-50.146 Y48.086 E90.68972
G1 X-50.181 Y47.616 E90.71323
G1 X-50.181 Y-47.616 E95.46437
G1 X-50.141 Y-48.12 E95.4896
G1 X-50.022 Y-48.611 E95.5148
G1 X-49.828 Y-49.078 E95.54003
G1 X-49.562 Y-49.508 E95.56526
G1 X-49.232 Y-49.891 E95.59048
G1 X-48.845 Y-50.217 E95.61572
G1 X-48.412 Y-50.478 E95.64095
G1 X-47.944 Y-50.668 E95.66615
G1 X-47.451 Y-50.781 E95.69138
G1 X-46.981 Y-50.816 E95.71489
G1 X46.981 Y-50.815 E100.40268
G1 X47.485 Y-50.775 E100.4279
G1 X47.976 Y-50.656 E100.45311
G1 X48.443 Y-50.462 E100.47834
G1 X48.873 Y-50.196 E100.50356
G1 X49.256 Y-49.866 E100.52878
G1 X49.582 Y-49.479 E100.55403
G1 X49.843 Y-49.046 E100.57925
G1 X50.033 Y-48.578 E100.60445
G1 X50.146 Y-48.085 E100.62969
G1 X50.181 Y-47.615 E100.6532
G1 F1500 E98.6532
G0 F3000 X47.655 Y-47.011
G0 X46.376 Y-47.011
G0 X46.32 Y-46.955
G0 X46.39 Y-47.025
;TYPE:WALL-INNER
G1 F1500 E100.73635
G1 X46.39 Y47.025 E105.42852
G1 X-46.39 Y47.025 E110.05734
G1 X-46.39 Y-47.025 E114.74951
G1 X46.39 Y-47.025 E119.37832
G0 F3000 X46.79 Y-47.425
;TYPE:WALL-OUTER
G1 F1500 X46.79 Y47.425 E124.11041
G1 X-46.79 Y47.425 E128.77913
G1 X-46.79 Y-47.425 E133.51122
G1 X46.79 Y-47.425 E138.17994
G0 F3000 X46.79 Y-47.225
G0 X46.19 Y-46.825
G0 X45.907 Y-46.864
;TYPE:SKIN
G1 F1500 X46.229 Y-46.542 E138.20266
G0 F3000 X46.229 Y-45.976
G1 F1500 X45.341 Y-46.864 E138.26532
G1 X45.271 Y-46.934
G0 F3000 X44.776 Y-46.864
G1 F1500 X46.229 Y-45.411 E138.36783
G1 X46.299 Y-45.341
G0 F3000 X46.229 Y-44.845
G1 F1500 X44.21 Y-46.864 E138.51028
G1 X44.14 Y-46.934
G0 F3000 X43.644 Y-46.864
G1 F1500 X46.229 Y-44.279 E138.69267
G1 X46.299 Y-44.209
G0 F3000 X46.229 Y-43.714
G1 F1500 X43.079 Y-46.864 E138.91492
G1 X43.009 Y-46.934
G0 F3000 X42.513 Y-46.864
G1 F1500 X46.229 Y-43.148 E139.1771
G1 X46.299 Y-43.078
G0 F3000 X46.229 Y-42.582
G1 F1500 X41.947 Y-46.864 E139.47922
G1 X41.877 Y-46.934
G0 F3000 X41.382 Y-46.864
G1 F1500 X46.229 Y-42.016 E139.82124
G1 X46.299 Y-41.946
G0 F3000 X46.229 Y-41.451
G1 F1500 X40.816 Y-46.864 E140.20316
G1 X40.746 Y-46.934
G0 F3000 X40.25 Y-46.864
G1 F1500 X46.229 Y-40.885 E140.62501
G1 X46.299 Y-40.815
G0 F3000 X46.229 Y-40.319
G1 F1500 X39.684 Y-46.864 E141.08679
G1 X39.614 Y-46.934
G0 F3000 X39.119 Y-46.864
G1 F1500 X46.229 Y-39.754 E141.58844
G1 X46.299 Y-39.684
G0 F3000 X46.229 Y-39.188
G1 F1500 X38.553 Y-46.864 E142.13002
G1 X38.483 Y-46.934
G0 F3000 X37.987 Y-46.864
G1 F1500 X46.229 Y-38.622 E142.71154
G1 X46.299 Y-38.552
G0 F3000 X46.229 Y-38.057
G1 F1500 X37.422 Y-46.864 E143.33292
G1 X37.352 Y-46.934
G0 F3000 X36.856 Y-46.864
G1 F1500 X46.229 Y-37.491 E143.99424
G1 X46.299 Y-37.421
G0 F3000 X46.229 Y-36.925
G1 F1500 X36.29 Y-46.864 E144.69549
G1 X36.22 Y-46.934
G0 F3000 X35.725 Y-46.864
G1 F1500 X46.229 Y-36.36 E145.4366
G1 X46.299 Y-36.29
G0 F3000 X46.229 Y-35.794
G1 F1500 X35.159 Y-46.864 E146.21765
G1 X35.089 Y-46.934
G0 F3000 X34.593 Y-46.864
G1 F1500 X46.229 Y-35.228 E147.03863
G1 X46.299 Y-35.158
G0 F3000 X46.229 Y-34.663
G1 F1500 X34.028 Y-46.864 E147.89948
G1 X33.958 Y-46.934
G0 F3000 X33.462 Y-46.864
G1 F1500 X46.229 Y-34.097 E148.80026
G1 X46.299 Y-34.027
G0 F3000 X46.229 Y-33.531
G1 F1500 X32.896 Y-46.864 E149.74098
G1 X32.826 Y-46.934
G0 F3000 X32.331 Y-46.864
G1 F1500 X46.229 Y-32.966 E150.72155
G1 X46.299 Y-32.896
G0 F3000 X46.229 Y-32.4
G1 F1500 X31.765 Y-46.864 E151.74207
G1 X31.695 Y-46.934
G0 F3000 X31.199 Y-46.864
G1 F1500 X46.229 Y-31.834 E152.80252
G1 X46.299 Y-31.764
G0 F3000 X46.229 Y-31.268
G1 F1500 X30.633 Y-46.864 E153.9029
G1 X30.563 Y-46.934
G0 F3000 X30.068 Y-46.864
G1 F1500 X46.229 Y-30.703 E155.04314
G1 X46.299 Y-30.633
G0 F3000 X46.229 Y-30.137
G1 F1500 X29.502 Y-46.864 E156.22332
G1 X29.432 Y-46.934
G0 F3000 X28.936 Y-46.864
G1 F1500 X46.229 Y-29.571 E157.44344
G1 X46.299 Y-29.501
G0 F3000 X46.229 Y-29.006
G1 F1500 X28.371 Y-46.864 E158.70342
G1 X28.301 Y-46.934
G0 F3000 X27.805 Y-46.864
G1 F1500 X46.229 Y-28.44 E160.00333
G1 X46.299 Y-28.37
G0 F3000 X46.229 Y-27.874
G1 F1500 X27.239 Y-46.864 E161.34318
G1 X27.169 Y-46.934
G0 F3000 X26.674 Y-46.864
G1 F1500 X46.229 Y-27.309 E162.72289
G1 X46.299 Y-27.239
G0 F3000 X46.229 Y-26.743
G1 F1500 X26.108 Y-46.864 E164.14253
G1 X26.038 Y-46.934
G0 F3000 X25.542 Y-46.864
G1 F1500 X46.229 Y-26.177 E165.60211
G1 X46.299 Y-26.107
G0 F3000 X46.229 Y-25.612
G1 F1500 X24.977 Y-46.864 E167.10156
G1 X24.907 Y-46.934
G0 F3000 X24.411 Y-46.864
G1 F1500 X46.229 Y-25.046 E168.64093
G1 X46.299 Y-24.976
G0 F3000 X46.229 Y-24.48
G1 F1500 X23.845 Y-46.864 E170.22024
G1 X23.775 Y-46.934
G0 F3000 X23.28 Y-46.864
G1 F1500 X46.229 Y-23.915 E171.83942
G1 X46.299 Y-23.845
G0 F3000 X46.229 Y-23.349
G1 F1500 X22.714 Y-46.864 E173.49853
G1 X22.644 Y-46.934
G0 F3000 X22.148 Y-46.864
G1 F1500 X46.229 Y-22.783 E175.19758
G1 X46.299 Y-22.713
G0 F3000 X46.229 Y-22.218
G1 F1500 X21.583 Y-46.864 E176.93648
G1 X21.513 Y-46.934
G0 F3000 X21.017 Y-46.864
G1 F1500 X46.229 Y-21.652 E178.71533
G1 X46.299 Y-21.582
G0 F3000 X46.229 Y-21.086
G1 F1500 X20.451 Y-46.864 E180.5341
G1 X20.381 Y-46.934
G0 F3000 X19.885 Y-46.864
G1 F1500 X46.229 Y-20.52 E182.39282
G1 X46.299 Y-20.45
G0 F3000 X46.229 Y-19.955
G1 F1500 X19.32 Y-46.864 E184.29139
G1 X19.25 Y-46.934
G0 F3000 X18.754 Y-46.864
G1 F1500 X46.229 Y-19.389 E186.2299
G1 X46.299 Y-19.319
G0 F3000 X46.229 Y-18.823
G1 F1500 X18.188 Y-46.864 E188.20834
G1 X18.118 Y-46.934
G0 F3000 X17.623 Y-46.864
G1 F1500 X46.229 Y-18.258 E190.22665
G1 X46.299 Y-18.188
G0 F3000 X46.229 Y-17.692
G1 F1500 X17.057 Y-46.864 E192.28489
G1 X16.987 Y-46.934
G0 F3000 X16.491 Y-46.864
G1 F1500 X46.229 Y-17.126 E194.38307
G1 X46.299 Y-17.056
G0 F3000 X46.229 Y-16.561
G1 F1500 X15.926 Y-46.864 E196.52111
G1 X15.856 Y-46.934
G0 F3000 X15.36 Y-46.864
G1 F1500 X46.229 Y-15.995 E198.69909
G1 X46.299 Y-15.925
G0 F3000 X46.229 Y-15.429
G1 F1500 X14.794 Y-46.864 E200.917
G1 X14.724 Y-46.934
G0 F3000 X14.229 Y-46.864
G1 F1500 X46.229 Y-14.864 E203.17477
G1 X46.299 Y-14.794
G0 F3000 X46.229 Y-14.298
G1 F1500 X13.663 Y-46.864 E205.47248
G1 X13.593 Y-46.934
G0 F3000 X13.097 Y-46.864
G1 F1500 X46.229 Y-13.732 E207.81012
G1 X46.299 Y-13.662
G0 F3000 X46.229 Y-13.167
G1 F1500 X12.532 Y-46.864 E210.18762
G1 X12.462 Y-46.934
G0 F3000 X11.966 Y-46.864
G1 F1500 X46.229 Y-12.601 E212.60506
G1 X46.299 Y-12.531
G0 F3000 X46.229 Y-12.035
G1 F1500 X11.4 Y-46.864 E215.06244
G1 X11.33 Y-46.934
G0 F3000 X10.834 Y-46.864
G1 F1500 X46.229 Y-11.469 E217.55974
G1 X46.299 Y-11.399
G0 F3000 X46.229 Y-10.904
G1 F1500 X10.269 Y-46.864 E220.09692
G1 X10.199 Y-46.934
G0 F3000 X9.703 Y-46.864
G1 F1500 X46.229 Y-10.338 E222.67402
G1 X46.299 Y-10.268
G0 F3000 X46.229 Y-9.772
G1 F1500 X9.137 Y-46.864 E225.29106
G1 X9.067 Y-46.934
G0 F3000 X8.572 Y-46.864
G1 F1500 X46.229 Y-9.207 E227.94797
G1 X46.299 Y-9.137
G0 F3000 X46.229 Y-8.641
G1 F1500 X8.006 Y-46.864 E230.64481
G1 X7.936 Y-46.934
G0 F3000 X7.44 Y-46.864
G1 F1500 X46.229 Y-8.075 E233.38158
G1 X46.299 Y-8.005
G0 F3000 X46.229 Y-7.51
G1 F1500 X6.875 Y-46.864 E236.15822
G1 X6.805 Y-46.934
G0 F3000 X6.309 Y-46.864
G1 F1500 X46.229 Y-6.944 E238.97479
G1 X46.299 Y-6.874
G0 F3000 X46.229 Y-6.378
G1 F1500 X5.743 Y-46.864 E241.8313
G1 X5.673 Y-46.934
G0 F3000 X5.178 Y-46.864
G1 F1500 X46.229 Y-5.813 E244.72767
G1 X46.299 Y-5.743
G0 F3000 X46.229 Y-5.247
G1 F1500 X4.612 Y-46.864 E247.66397
G1 X4.542 Y-46.934
G0 F3000 X4.046 Y-46.864
G1 F1500 X46.229 Y-4.681 E250.64021
G1 X46.299 Y-4.611
G0 F3000 X46.229 Y-4.116
G1 F1500 X3.481 Y-46.864 E253.65631
G1 X3.411 Y-46.934
G0 F3000 X2.915 Y-46.864
G1 F1500 X46.229 Y-3.55 E256.71235
G1 X46.299 Y-3.48
G0 F3000 X46.229 Y-2.984
G1 F1500 X2.349 Y-46.864 E259.80832
G1 X2.279 Y-46.934
G0 F3000 X1.784 Y-46.864
G1 F1500 X46.229 Y-2.419 E262.94415
G1 X46.299 Y-2.349
G0 F3000 X46.229 Y-1.853
G1 F1500 X1.218 Y-46.864 E266.11992
G1 X1.148 Y-46.934
G0 F3000 X0.652 Y-46.864
G1 F1500 X46.229 Y-1.287 E269.33563
G1 X46.299 Y-1.217
G0 F3000 X46.229 Y-.721
G1 F1500 X0.086 Y-46.864 E272.59126
G1 X0.016 Y-46.934
G0 F3000 X-.478 Y-46.864
G1 F1500 X46.229 Y-.156 E275.88673
G1 X46.299 Y-0.086
G0 F3000 X46.229 Y0.409
G1 F1500 X-1.044 Y-46.864 E279.2221
G1 X-1.114 Y-46.934
G0 F3000 X-1.61 Y-46.864
G1 F1500 X46.229 Y0.975 E282.5974
G1 X46.299 Y1.045
G0 F3000 X46.229 Y1.54
G1 F1500 X-2.175 Y-46.864 E286.01256
G1 X-2.245 Y-46.934
G0 F3000 X-2.741 Y-46.864
G1 F1500 X46.229 Y2.106 E289.46766
G1 X46.299 Y2.176
G0 F3000 X46.229 Y2.672
G1 F1500 X-3.307 Y-46.864 E292.96269
G1 X-3.377 Y-46.934
G0 F3000 X-3.872 Y-46.864
G1 F1500 X46.229 Y3.237 E296.49759
G1 X46.299 Y3.307
G0 F3000 X46.229 Y3.803
