;FLAVOR:Marlin
;TIME:1843
;Filament used: 1.6337m
;Layer height: 0.2
;Generated with Cura_SteamEngine 1.2.1
M190 S60
M104 S230
M109 S230
G28
G1 Z50.00 F400
G92 E0
G1 F200 E3
G92 E0
M132 X Y Z A
M907 X100 Y100 Z50 A100
;LAYER_COUNT:20
;LAYER:0
M107
G0 F3000 X1.44 Y2.519 Z0.3
;TYPE:SKIRT
G1 F1500 X3.988 Y3.066 E0.13002
G1 X9.335 Y3.981 E0.40066
G1 X14.68 Y4.587 E0.66903
G1 X20.052 Y4.89 E0.93746
G1 X25.447 Y4.888 E1.20662
G1 X30.796 Y4.584 E1.47392
G1 X38.232 Y3.67 E1.84769
G1 X40.352 Y3.344 E1.9547
G1 X40.906 Y3.291 E1.98247
G1 X42.869 Y3.219 E2.08047
G1 X43.193 Y3.218 E2.09663
G1 X44.647 Y3.263 E2.16921
G1 X45.225 Y3.316 E2.19816
G1 X49.734 Y4.006 E2.42574
G1 X50.393 Y4.155 E2.45945
G1 X52.692 Y4.848 E2.57924
G1 X53.048 Y4.971 E2.59803
G1 X54.482 Y5.529 E2.6748
G1 X54.994 Y5.763 E2.70289
G1 X58.731 Y7.749 E2.91402
G1 X59.312 Y8.114 E2.94825
G1 X61.645 Y9.821 E3.09247
G1 X62.157 Y10.254 E3.12593
G1 X64.991 Y13.01 E3.32315
G1 X65.423 Y13.49 E3.35537
G1 X67.253 Y15.825 E3.50337
G1 X67.513 Y16.191 E3.52577
G1 X68.348 Y17.49 E3.60281
G1 X68.585 Y17.901 E3.62648
G1 X69.998 Y20.667 E3.78144
G1 X70.13 Y20.948 E3.79693
G1 X70.555 Y21.932 E3.85041
G1 X70.734 Y22.419 E3.87629
G1 X71.801 Y25.875 E4.05674
G1 X71.955 Y26.537 E4.09065
G1 X72.266 Y28.492 E4.18941
G1 X72.287 Y28.637 E4.19672
G1 X72.563 Y30.795 E4.30526
G1 X72.601 Y31.327 E4.33187
G1 X72.635 Y33.446 E4.4376
G1 X72.628 Y33.797 E4.45512
G1 X72.54 Y35.336 E4.53203
G1 X72.489 Y35.814 E4.55601
G1 X71.961 Y39.141 E4.72407
G1 X71.828 Y39.732 E4.75429
G1 X71.01 Y42.538 E4.90011
G1 X70.873 Y42.94 E4.9213
G1 X70.332 Y44.326 E4.99553
G1 X70.114 Y44.806 E5.02183
G1 X68.281 Y48.31 E5.21912
G1 X67.966 Y48.829 E5.24941
G1 X66.637 Y50.736 E5.36537
G1 X66.418 Y51.027 E5.38354
G1 X65.526 Y52.12 E5.45393
G1 X65.145 Y52.534 E5.482
G1 X61.96 Y55.617 E5.70315
G1 X61.496 Y56.012 E5.73355
G1 X59.947 Y57.17 E5.83004
G1 X59.668 Y57.364 E5.84699
G1 X58.369 Y58.199 E5.92403
G1 X57.889 Y58.47 E5.95153
G1 X54.149 Y60.306 E6.15939
G1 X53.586 Y60.539 E6.18979
G1 X51.611 Y61.214 E6.29392
G1 X51.282 Y61.313 E6.31106
G1 X49.791 Y61.706 E6.38799
G1 X49.247 Y61.817 E6.41569
G1 X45.144 Y62.403 E6.62246
G1 X44.462 Y62.451 E6.65657
G1 X41.507 Y62.449 E6.804
G1 X40.773 Y62.392 E6.84073
G1 X34.535 Y61.423 E7.15568
G1 X29.098 Y60.681 E7.42944
G1 X23.737 Y60.257 E7.69774
G1 X18.343 Y60.136 E7.96692
G1 X12.969 Y60.319 E8.23518
G1 X1.785 Y61.336 E8.79546
G1 X-3.611 Y62.131 E9.06757
G1 X-7.992 Y62.906 E9.28953
G1 X-8.551 Y62.971 E9.31761
G1 X-11.284 Y63.129 E9.45419
G1 X-11.573 Y63.137 E9.46861
G1 X-14.944 Y63.128 E9.63679
G1 X-20.354 Y63.357 E9.90694
G1 X-25.726 Y63.891 E10.17627
G1 X-31.077 Y64.729 E10.44649
G1 X-33.624 Y65.24 E10.57609
G1 X-36.271 Y65.849 E10.7116
G1 X-41.515 Y67.293 E10.98296
G1 X-45.167 Y68.48 E11.17454
G1 X-45.767 Y68.633 E11.20543
G1 X-46.382 Y68.707 E11.23634
G1 X-47.001 Y68.702 E11.26722
G1 X-47.615 Y68.617 E11.29814
G1 X-47.943 Y68.538 E11.31498
G1 X-55.008 Y66.563 E11.68096
G1 X-60.279 Y65.331 E11.95102
G1 X-65.587 Y64.403 E12.21986
G1 X-70.928 Y63.777 E12.48814
G1 X-76.297 Y63.455 E12.75649
G1 X-81.694 Y63.436 E13.02574
G1 X-87.064 Y63.722 E13.29404
G1 X-92.414 Y64.312 E13.56257
G1 X-97.764 Y65.209 E13.8332
G1 X-101.575 Y66.034 E14.02774
G1 X-102.183 Y66.126 E14.05842
G1 X-102.864 Y66.184 E14.09252
G1 X-103.483 Y66.196 E14.1234
G1 X-104.115 Y66.126 E14.15513
G1 X-105.112 Y65.948 E14.20565
G1 X-105.713 Y65.8 E14.23653
G1 X-106.29 Y65.576 E14.26741
G1 X-106.593 Y65.422 E14.28437
G1 X-107.572 Y64.88 E14.3402
G1 X-108.093 Y64.546 E14.37107
G1 X-108.567 Y64.147 E14.40199
G1 X-108.856 Y63.846 E14.4228
G1 X-109.597 Y63.001 E14.47887
G1 X-109.974 Y62.51 E14.50976
G1 X-110.285 Y61.974 E14.54068
G1 X-110.444 Y61.62 E14.56004
G1 X-110.84 Y60.631 E14.61319
G1 X-111.033 Y60.043 E14.64406
G1 X-111.139 Y59.503 E14.67152
G1 X-111.212 Y58.974 E14.69816
G1 X-111.257 Y58.356 E14.72907
G1 X-111.228 Y57.787 E14.7575
G1 X-110.597 Y52.115 E15.04222
G1 X-110.25 Y46.731 E15.31138
G1 X-110.207 Y41.334 E15.58065
G1 X-110.468 Y35.963 E15.84893
G1 X-111.034 Y30.612 E16.11738
G1 X-111.907 Y25.257 E16.38807
G1 X-112.437 Y22.698 E16.51845
G1 X-113.057 Y20.079 E16.65272
G1 X-114.529 Y14.857 E16.9234
G1 X-116.294 Y9.731 E17.19387
G1 X-117.269 Y7.244 E17.32714
G1 X-117.821 Y5.914 E17.39899
G1 X-118.021 Y5.328 E17.42988
G1 X-118.128 Y4.831 E17.45524
G1 X-118.559 Y2.132 E17.5916
G1 X-118.605 Y1.735 E17.61154
G1 X-118.776 Y-.538 E17.72526
G1 X-118.79 Y-.904 E17.74353
G1 X-118.787 Y-3.152 E17.85569
G1 X-118.773 Y-3.517 E17.87391
G1 X-118.596 Y-5.799 E17.9881
G1 X-118.552 Y-6.171 E18.00679
G1 X-118.199 Y-8.423 E18.12051
G1 X-118.126 Y-8.796 E18.13948
G1 X-117.584 Y-11.064 E18.25581
G1 X-117.513 Y-11.324 E18.26926
G1 X-116.835 Y-13.59 E18.38726
G1 X-115.122 Y-19.777 E18.70755
G1 X-114.919 Y-20.362 E18.73844
G1 X-114.642 Y-20.916 E18.76934
G1 X-114.296 Y-21.429 E18.80021
G1 X-113.886 Y-21.894 E18.83114
G1 X-113.42 Y-22.302 E18.86204
G1 X-112.906 Y-22.647 E18.89293
G1 X-112.351 Y-22.923 E18.92385
G1 X-111.766 Y-23.125 E18.95473
G1 X-111.159 Y-23.25 E18.98565
G1 X-110.542 Y-23.296 E19.01651
G1 X-109.707 Y-23.231 E19.0583
G1 X-104.091 Y-22.295 E19.34235
G1 X-104.001 Y-22.279 E19.34691
G1 X-98.569 Y-21.267 E19.62257
G1 X-93.236 Y-20.584 E19.89081
G1 X-87.867 Y-20.201 E20.15935
G1 X-82.475 Y-20.124 E20.42839
G1 X-77.102 Y-20.35 E20.69668
G1 X-71.732 Y-20.882 E20.96591
G1 X-66.424 Y-21.713 E21.23395
G1 X-61.144 Y-22.847 E21.50338
G1 X-58.582 Y-23.512 E21.63543
G1 X-52.945 Y-25.236 E21.92952
G1 X-52.527 Y-25.344 E21.95106
G1 X-51.917 Y-25.472 E21.98215
G1 X-51.304 Y-25.56 E22.01305
G1 X-50.634 Y-25.565 E22.04648
G1 X-49.506 Y-25.495 E22.10286
G1 X-48.891 Y-25.417 E22.13379
G1 X-48.292 Y-25.26 E22.16468
G1 X-47.894 Y-25.108 E22.18594
G1 X-46.874 Y-24.666 E22.2414
G1 X-46.323 Y-24.384 E22.27228
G1 X-45.813 Y-24.033 E22.30317
G1 X-45.499 Y-23.763 E22.32383
G1 X-41.136 Y-19.67 E22.62229
G1 X-37.029 Y-16.163 E22.89173
G1 X-32.746 Y-12.904 E23.16023
G1 X-28.287 Y-9.894 E23.42863
G1 X-23.653 Y-7.136 E23.69767
G1 X-18.872 Y-4.642 E23.9667
G1 X-13.973 Y-2.431 E24.23485
G1 X-8.951 Y-.498 E24.50332
G1 X-3.812 Y1.153 E24.77261
G1 X1.44 Y2.519 E25.04335
G0 F3000 X1.352 Y2.909
G1 F1500 X3.91 Y3.458 E25.17388
G1 X9.274 Y4.376 E25.44538
G1 X14.648 Y4.985 E25.71521
G1 X20.046 Y5.29 E25.98494
G1 X25.451 Y5.288 E26.2546
G1 X30.836 Y4.982 E26.52369
G1 X38.28 Y4.067 E26.89787
G1 X40.413 Y3.739 E27.00554
G1 X40.921 Y3.691 E27.03099
G1 X42.884 Y3.619 E27.12899
G1 X43.181 Y3.618 E27.14381
G1 X44.635 Y3.663 E27.21639
G1 X45.165 Y3.712 E27.24294
G1 X49.674 Y4.402 E27.47051
G1 X50.278 Y4.538 E27.5014
G1 X52.577 Y5.231 E27.6212
G1 X52.903 Y5.344 E27.63841
G1 X54.337 Y5.902 E27.71518
G1 X54.806 Y6.117 E27.74092
G1 X58.543 Y8.103 E27.95205
G1 X59.076 Y8.437 E27.98343
G1 X61.409 Y10.144 E28.12766
G1 X61.879 Y10.541 E28.15835
G1 X64.713 Y13.297 E28.35557
G1 X65.108 Y13.737 E28.38507
G1 X66.938 Y16.072 E28.53308
G1 X67.176 Y16.407 E28.55358
G1 X68.011 Y17.706 E28.63062
G1 X68.228 Y18.083 E28.65232
G1 X69.641 Y20.849 E28.80728
G1 X69.762 Y21.106 E28.82145
G1 X70.187 Y22.09 E28.87493
G1 X70.352 Y22.537 E28.8987
G1 X71.419 Y25.993 E29.07915
G1 X71.56 Y26.6 E29.11024
G1 X71.871 Y28.555 E29.209
G1 X71.89 Y28.688 E29.21571
G1 X72.166 Y30.846 E29.32425
G1 X72.201 Y31.333 E29.34861
G1 X72.235 Y33.452 E29.45434
G1 X72.229 Y33.774 E29.4704
G1 X72.141 Y35.313 E29.54731
G1 X72.094 Y35.752 E29.56934
G1 X71.566 Y39.079 E29.7374
G1 X71.444 Y39.62 E29.76507
G1 X70.626 Y42.426 E29.91089
G1 X70.501 Y42.795 E29.93032
G1 X69.96 Y44.181 E30.00455
G1 X69.76 Y44.621 E30.02867
G1 X67.927 Y48.125 E30.22596
G1 X67.638 Y48.601 E30.25374
G1 X66.309 Y50.508 E30.3697
G1 X66.108 Y50.774 E30.38634
G1 X65.216 Y51.867 E30.45672
G1 X64.867 Y52.246 E30.48243
G1 X61.682 Y55.329 E30.70358
G1 X61.257 Y55.692 E30.73146
G1 X59.708 Y56.85 E30.82795
G1 X59.452 Y57.027 E30.84348
G1 X58.153 Y57.862 E30.92052
G1 X57.713 Y58.111 E30.94574
G1 X53.973 Y59.947 E31.1536
G1 X53.457 Y60.161 E31.18147
G1 X51.482 Y60.836 E31.2856
G1 X51.18 Y60.927 E31.30133
G1 X49.689 Y61.32 E31.37826
G1 X49.19 Y61.421 E31.40366
G1 X45.087 Y62.007 E31.61044
G1 X44.462 Y62.051 E31.6417
G1 X41.507 Y62.049 E31.78912
G1 X40.835 Y61.997 E31.82275
G1 X34.601 Y61.029 E32.13749
G1 X29.131 Y60.282 E32.41292
G1 X23.759 Y59.857 E32.68177
G1 X18.338 Y59.736 E32.95229
G1 X12.953 Y59.919 E33.22111
G1 X1.728 Y60.94 E33.78344
G1 X-3.673 Y61.735 E34.0558
G1 X-8.062 Y62.512 E34.27817
G1 X-8.574 Y62.572 E34.30389
G1 X-11.307 Y62.73 E34.44047
G1 X-11.572 Y62.737 E34.45369
G1 X-14.959 Y62.728 E34.62267
G1 X-20.392 Y62.958 E34.89397
G1 X-25.758 Y63.491 E35.16299
G1 X-31.148 Y64.336 E35.43519
G1 X-33.721 Y64.851 E35.5661
G1 X-36.37 Y65.461 E35.70172
G1 X-41.638 Y66.912 E35.97433
G1 X-45.291 Y68.099 E36.16596
G1 X-45.866 Y68.244 E36.19554
G1 X-46.455 Y68.311 E36.22512
G1 X-47.048 Y68.297 E36.25471
G1 X-47.836 Y68.153 E36.29467
G1 X-54.907 Y66.176 E36.66098
G1 X-60.208 Y64.938 E36.93256
G1 X-65.523 Y64.008 E37.20176
G1 X-70.893 Y63.379 E37.4715
G1 X-76.29 Y63.055 E37.74124
G1 X-81.697 Y63.036 E38.011
G1 X-87.111 Y63.324 E38.28149
G1 X-92.47 Y63.915 E38.55047
G1 X-97.828 Y64.814 E38.82152
G1 X-101.659 Y65.643 E39.01707
G1 X-102.217 Y65.727 E39.04522
G1 X-102.898 Y65.785 E39.07932
G1 X-103.49 Y65.796 E39.10886
G1 X-104.044 Y65.733 E39.13668
G1 X-105.041 Y65.555 E39.18721
G1 X-105.617 Y65.411 E39.21683
G1 X-106.399 Y65.072 E39.25935
G1 X-107.378 Y64.53 E39.31518
G1 X-107.876 Y64.209 E39.34474
G1 X-108.327 Y63.823 E39.37435
G1 X-108.555 Y63.582 E39.3909
G1 X-109.296 Y62.737 E39.44697
G1 X-109.656 Y62.266 E39.47655
G1 X-109.95 Y61.751 E39.50614
G1 X-110.073 Y61.472 E39.52135
G1 X-110.469 Y60.483 E39.5745
G1 X-110.652 Y59.918 E39.60413
G1 X-110.743 Y59.448 E39.62801
G1 X-110.816 Y58.919 E39.65465
G1 X-110.857 Y58.328 E39.68421
G1 X-110.83 Y57.832 E39.70899
G1 X-110.2 Y52.165 E39.99346
G1 X-109.85 Y46.742 E40.26458
G1 X-109.807 Y41.336 E40.53429
G1 X-110.07 Y35.936 E40.80402
G1 X-110.638 Y30.56 E41.07372
G1 X-111.515 Y25.182 E41.34558
G1 X-112.05 Y22.597 E41.47728
G1 X-112.672 Y19.969 E41.61201
G1 X-114.15 Y14.728 E41.88368
G1 X-115.917 Y9.595 E42.15452
G1 X-116.873 Y7.156 E42.28521
G1 X-117.452 Y5.761 E42.36057
G1 X-117.642 Y5.199 E42.39016
G1 X-117.733 Y4.768 E42.41214
G1 X-118.164 Y2.069 E42.5485
G1 X-118.207 Y1.705 E42.56679
G1 X-118.378 Y-.568 E42.68051
G1 X-118.39 Y-.904 E42.69728
G1 X-118.387 Y-3.152 E42.80943
G1 X-118.374 Y-3.486 E42.82611
G1 X-118.197 Y-5.768 E42.9403
G1 X-118.157 Y-6.109 E42.95743
G1 X-117.804 Y-8.361 E43.07116
G1 X-117.736 Y-8.703 E43.08855
G1 X-117.194 Y-10.971 E43.20489
G1 X-117.13 Y-11.21 E43.21723
G1 X-116.451 Y-13.479 E43.33539
G1 X-114.737 Y-19.67 E43.65588
G1 X-114.54 Y-20.229 E43.68545
G1 X-114.27 Y-20.757 E43.71504
G1 X-113.932 Y-21.244 E43.74461
G1 X-113.531 Y-21.681 E43.7742
G1 X-113.075 Y-22.061 E43.80382
G1 X-112.573 Y-22.375 E43.83336
G1 X-112.032 Y-22.619 E43.86297
G1 X-111.464 Y-22.788 E43.89253
G1 X-110.878 Y-22.879 E43.92212
G1 X-110.285 Y-22.891 E43.95171
G1 X-109.773 Y-22.836 E43.9774
G1 X-104.157 Y-21.9 E44.26145
G1 X-104.074 Y-21.886 E44.26565
G1 X-98.622 Y-20.87 E44.54233
G1 X-93.28 Y-20.186 E44.81102
G1 X-87.883 Y-19.801 E45.08096
G1 X-82.464 Y-19.724 E45.35135
G1 X-77.08 Y-19.95 E45.62019
G1 X-71.685 Y-20.484 E45.89066
G1 X-66.35 Y-21.32 E46.16008
G1 X-61.057 Y-22.457 E46.43017
G1 X-58.477 Y-23.127 E46.56315
G1 X-52.828 Y-24.854 E46.85786
G1 X-52.445 Y-24.952 E46.87758
G1 X-51.835 Y-25.08 E46.90868
G1 X-51.247 Y-25.163 E46.93831
G1 X-50.658 Y-25.166 E46.96769
G1 X-49.53 Y-25.096 E47.02408
G1 X-48.942 Y-25.019 E47.05366
G1 X-48.37 Y-24.864 E47.08323
G1 X-48.054 Y-24.741 E47.10015
G1 X-47.034 Y-24.299 E47.15561
G1 X-46.507 Y-24.027 E47.18519
G1 X-46.021 Y-23.687 E47.21479
G1 X-45.773 Y-23.471 E47.23119
G1 X-41.409 Y-19.378 E47.52969
G1 X-37.285 Y-15.856 E47.80026
G1 X-32.978 Y-12.579 E48.07026
G1 X-28.497 Y-9.554 E48.33999
G1 X-23.843 Y-6.783 E48.61022
G1 X-19.063 Y-4.291 E48.87916
G1 X-14.117 Y-2.058 E49.1499
G1 X-9.081 Y-.119 E49.41912
G1 X-3.929 Y1.536 E49.68909
G1 X1.352 Y2.909 E49.96132
G0 F3000 X1.259 Y3.298
G1 F1500 X3.828 Y3.85 E50.09242
G1 X9.218 Y4.772 E50.36523
G1 X14.613 Y5.383 E50.63611
G1 X20.042 Y5.69 E50.9074
G1 X25.457 Y5.688 E51.17755
G1 X30.877 Y5.38 E51.44839
G1 X38.357 Y4.461 E51.82438
G1 X40.474 Y4.135 E51.93124
G1 X40.935 Y4.091 E51.95434
G1 X42.898 Y4.019 E52.05234
G1 X43.169 Y4.018 E52.06586
G1 X44.623 Y4.063 E52.13844
G1 X45.104 Y4.107 E52.16254
G1 X49.613 Y4.797 E52.39011
G1 X50.162 Y4.921 E52.41819
G1 X52.461 Y5.614 E52.53798
G1 X52.758 Y5.716 E52.55365
G1 X54.192 Y6.274 E52.63042
G1 X54.618 Y6.47 E52.65381
G1 X58.355 Y8.456 E52.86495
G1 X58.84 Y8.76 E52.8935
G1 X61.173 Y10.467 E53.03773
G1 X61.6 Y10.827 E53.06559
G1 X64.434 Y13.583 E53.26281
G1 X64.793 Y13.984 E53.28966
G1 X66.623 Y16.319 E53.43767
G1 X66.84 Y16.623 E53.45631
G1 X67.675 Y17.922 E53.53335
G1 X67.872 Y18.265 E53.55308
G1 X69.285 Y21.031 E53.70804
G1 X69.395 Y21.265 E53.72094
G1 X69.82 Y22.249 E53.77442
G1 X69.97 Y22.655 E53.79601
G1 X71.037 Y26.111 E53.97646
G1 X71.165 Y26.663 E54.00473
G1 X71.476 Y28.618 E54.10349
G1 X71.494 Y28.739 E54.1096
G1 X71.77 Y30.897 E54.21814
G1 X71.801 Y31.34 E54.24029
G1 X71.835 Y33.459 E54.34602
G1 X71.829 Y33.751 E54.36059
G1 X71.741 Y35.29 E54.4375
G1 X71.699 Y35.689 E54.45752
G1 X71.171 Y39.016 E54.62558
G1 X71.06 Y39.508 E54.65074
G1 X70.242 Y42.314 E54.79656
G1 X70.128 Y42.649 E54.81421
G1 X69.587 Y44.035 E54.88844
G1 X69.405 Y44.435 E54.91037
G1 X67.572 Y47.939 E55.10766
G1 X67.31 Y48.372 E55.13291
G1 X65.981 Y50.279 E55.24887
G1 X65.798 Y50.521 E55.26401
G1 X64.906 Y51.614 E55.33439
G1 X64.589 Y51.959 E55.35777
G1 X61.404 Y55.042 E55.57892
G1 X61.017 Y55.372 E55.60429
G1 X59.468 Y56.53 E55.70078
G1 X59.236 Y56.691 E55.71487
G1 X57.937 Y57.526 E55.79191
G1 X57.537 Y57.752 E55.81483
G1 X53.797 Y59.588 E56.02269
G1 X53.328 Y59.782 E56.04801
G1 X51.353 Y60.457 E56.15214
G1 X51.079 Y60.54 E56.16642
G1 X49.588 Y60.933 E56.24335
G1 X49.134 Y61.025 E56.26646
G1 X45.031 Y61.611 E56.47324
G1 X44.462 Y61.651 E56.5017
G1 X41.507 Y61.649 E56.64912
G1 X40.896 Y61.602 E56.6797
G1 X34.605 Y60.625 E56.99732
G1 X29.198 Y59.887 E57.26957
G1 X23.765 Y59.457 E57.54148
G1 X18.351 Y59.336 E57.81165
G1 X12.921 Y59.521 E58.08271
G1 X1.67 Y60.544 E58.64634
G1 X-3.729 Y61.339 E58.9186
G1 X-8.131 Y62.118 E59.14163
G1 X-8.597 Y62.172 E59.16503
G1 X-11.33 Y62.33 E59.30161
G1 X-11.571 Y62.337 E59.31364
G1 X-14.975 Y62.328 E59.48347
G1 X-20.414 Y62.558 E59.75506
G1 X-25.806 Y63.094 E60.0254
G1 X-31.215 Y63.942 E60.29855
G1 X-33.817 Y64.463 E60.43094
G1 X-36.452 Y65.07 E60.56584
G1 X-41.755 Y66.53 E60.84026
G1 X-45.414 Y67.719 E61.0322
G1 X-45.963 Y67.855 E61.06042
G1 X-46.525 Y67.913 E61.0886
G1 X-47.09 Y67.891 E61.11681
G1 X-47.728 Y67.767 E61.14924
G1 X-54.799 Y65.79 E61.51554
G1 X-60.119 Y64.547 E61.78811
G1 X-65.461 Y63.612 E62.05867
G1 X-70.857 Y62.98 E62.32972
G1 X-76.282 Y62.655 E62.60086
G1 X-81.717 Y62.636 E62.87201
G1 X-87.124 Y62.924 E63.14215
G1 X-92.526 Y63.519 E63.41329
G1 X-97.896 Y64.42 E63.68494
G1 X-101.744 Y65.253 E63.88137
G1 X-102.251 Y65.329 E63.90695
G1 X-102.932 Y65.387 E63.94104
G1 X-103.497 Y65.395 E63.96923
G1 X-103.974 Y65.339 E63.9932
G1 X-104.971 Y65.161 E64.04372
G1 X-105.519 Y65.022 E64.07193
G1 X-106.205 Y64.722 E64.10928
G1 X-107.184 Y64.18 E64.16511
G1 X-107.658 Y63.872 E64.19331
G1 X-108.254 Y63.318 E64.23391
G1 X-108.995 Y62.473 E64.28998
G1 X-109.337 Y62.023 E64.31818
G1 X-109.701 Y61.323 E64.35754
