;FLAVOR:Marlin
;TIME:2080
;Filament used: 2.02189m
;Layer height: 0.2
;Generated with Cura_SteamEngine 1.2.1
M190 S60
M104 S230
M109 S230
G28
G1 Z50.00 F400
G92 E0
G1 F200 E3
G92 E0
M132 X Y Z A
M907 X100 Y100 Z50 A100
;LAYER_COUNT:20
;LAYER:0
M107
G0 F3000 X38.67 Y37.998 Z0.3
;TYPE:SKIRT
G1 F1500 X35.53 Y41.148 E0.2219
G1 X35.107 Y41.525 E0.25017
G1 X32.469 Y43.61 E0.41792
G1 X32.248 Y43.775 E0.43168
G1 X30.145 Y45.249 E0.5598
G1 X29.963 Y45.37 E0.57071
G1 X28.026 Y46.6 E0.68518
G1 X27.624 Y46.829 E0.70826
G1 X22.087 Y49.637 E1.018
G1 X21.854 Y49.748 E1.03088
G1 X20.263 Y50.45 E1.11763
G1 X19.982 Y50.563 E1.13274
G1 X17.489 Y51.48 E1.26527
G1 X17.171 Y51.584 E1.28196
G1 X13.103 Y52.766 E1.49331
G1 X12.552 Y52.892 E1.52151
G1 X5.177 Y54.12 E1.89451
G1 X4.628 Y54.179 E1.92206
G1 X0.939 Y54.363 E2.10633
G1 X0.596 Y54.368 E2.12345
G1 X-3.18 Y54.286 E2.31188
G1 X-3.46 Y54.272 E2.32586
G1 X-4.817 Y54.163 E2.39378
G1 X-5.184 Y54.119 E2.41222
G1 X-11.709 Y53.085 E2.74182
G1 X-12.152 Y52.993 E2.76439
G1 X-15.077 Y52.242 E2.91505
G1 X-15.397 Y52.148 E2.93169
G1 X-18.743 Y51.036 E3.1076
G1 X-19.02 Y50.934 E3.12233
G1 X-21.382 Y49.984 E3.24934
G1 X-21.803 Y49.791 E3.27245
G1 X-28.337 Y46.398 E3.63976
G1 X-28.812 Y46.115 E3.66735
G1 X-31.999 Y43.962 E3.85923
G1 X-32.25 Y43.781 E3.87467
G1 X-34.393 Y42.122 E4.00988
G1 X-34.665 Y41.895 E4.02755
G1 X-36.284 Y40.439 E4.13618
G1 X-36.463 Y40.269 E4.1485
G1 X-40.704 Y36.04 E4.4473
G1 X-41.036 Y35.673 E4.47199
G1 X-43.147 Y33.082 E4.63873
G1 X-43.363 Y32.797 E4.65657
G1 X-45.738 Y29.393 E4.86365
G1 X-45.87 Y29.193 E4.8756
G1 X-46.618 Y27.998 E4.94594
G1 X-46.829 Y27.623 E4.96741
G1 X-49.669 Y22.026 E5.28053
G1 X-49.813 Y21.717 E5.29754
G1 X-50.785 Y19.409 E5.42248
G1 X-50.892 Y19.13 E5.43739
G1 X-51.736 Y16.716 E5.56497
G1 X-51.831 Y16.413 E5.58081
G1 X-52.941 Y12.406 E5.78825
G1 X-53.055 Y11.879 E5.81515
G1 X-54.11 Y5.249 E6.15009
G1 X-54.159 Y4.814 E6.17193
G1 X-54.329 Y2.262 E6.29953
G1 X-54.34 Y1.96 E6.31461
G1 X-54.352 Y-1.388 E6.48164
G1 X-54.344 Y-1.68 E6.49621
G1 X-54.17 Y-4.707 E6.64748
G1 X-54.119 Y-5.183 E6.67136
G1 X-53.071 Y-11.802 E7.0057
G1 X-52.967 Y-12.291 E7.03064
G1 X-52.037 Y-15.77 E7.2103
G1 X-51.917 Y-16.153 E7.23033
G1 X-50.356 Y-20.499 E7.46071
G1 X-50.271 Y-20.718 E7.47243
G1 X-50.01 Y-21.346 E7.50636
G1 X-49.81 Y-21.768 E7.52966
G1 X-48.611 Y-24.01 E7.65651
G1 X-46.715 Y-27.811 E7.86842
G1 X-46.462 Y-28.257 E7.894
G1 X-45.241 Y-30.164 E8.00697
G1 X-45.068 Y-30.417 E8.02226
G1 X-42.619 Y-33.752 E8.22869
G1 X-42.449 Y-33.97 E8.24248
G1 X-41.044 Y-35.669 E8.35248
G1 X-40.739 Y-36.004 E8.37508
G1 X-36.125 Y-40.617 E8.70058
G1 X-35.784 Y-40.927 E8.72358
G1 X-33.111 Y-43.13 E8.89639
G1 X-32.829 Y-43.346 E8.91411
G1 X-29.991 Y-45.352 E9.0875
G1 X-29.782 Y-45.491 E9.10002
G1 X-28.011 Y-46.609 E9.20451
G1 X-27.593 Y-46.845 E9.22846
G1 X-20.835 Y-50.218 E9.60528
G1 X-20.288 Y-50.45 E9.63492
G1 X-15.985 Y-51.968 E9.86256
G1 X-15.627 Y-52.078 E9.88125
G1 X-12.302 Y-52.966 E10.05295
G1 X-11.814 Y-53.07 E10.07784
G1 X-5.302 Y-54.101 E10.40677
G1 X-4.806 Y-54.153 E10.43165
G1 X-.916 Y-54.36 E10.626
G1 X-.64 Y-54.367 E10.63978
G1 X1.38 Y-54.358 E10.74055
G1 X1.69 Y-54.347 E10.75603
G1 X5.078 Y-54.113 E10.92546
G1 X5.496 Y-54.065 E10.94645
G1 X11.748 Y-53.078 E11.26223
G1 X12.187 Y-52.988 E11.28459
G1 X14.633 Y-52.363 E11.41054
G1 X14.836 Y-52.306 E11.42106
G1 X16.986 Y-51.655 E11.53313
G1 X17.299 Y-51.548 E11.54963
G1 X21.215 Y-50.061 E11.75862
G1 X21.721 Y-49.835 E11.78626
G1 X28.23 Y-46.459 E12.15208
G1 X28.712 Y-46.172 E12.18007
G1 X32.167 Y-43.832 E12.38825
G1 X32.467 Y-43.611 E12.40684
G1 X35.452 Y-41.231 E12.5973
G1 X35.856 Y-40.87 E12.62433
G1 X40.936 Y-35.784 E12.98297
G1 X41.317 Y-35.355 E13.01159
G1 X44.032 Y-31.894 E13.23105
G1 X44.243 Y-31.602 E13.24902
G1 X46.177 Y-28.714 E13.42243
G1 X46.454 Y-28.246 E13.44956
G1 X49.856 Y-21.661 E13.81934
G1 X50.047 Y-21.243 E13.84227
G1 X51.017 Y-18.821 E13.97244
G1 X51.113 Y-18.558 E13.9864
G1 X51.955 Y-16.04 E14.11886
G1 X52.039 Y-15.76 E14.13345
G1 X52.961 Y-12.319 E14.31118
G1 X53.066 Y-11.829 E14.33618
G1 X54.124 Y-5.157 E14.6732
G1 X54.175 Y-4.676 E14.69734
G1 X54.344 Y-1.686 E14.84675
G1 X54.352 Y-1.385 E14.86177
G1 X54.329 Y2.251 E15.04317
G1 X54.316 Y2.58 E15.0596
G1 X54.138 Y4.951 E15.17822
G1 X54.092 Y5.341 E15.19781
G1 X53.07 Y11.811 E15.52461
G1 X52.99 Y12.207 E15.54476
G1 X52.632 Y13.664 E15.61961
G1 X52.569 Y13.897 E15.63166
G1 X51.559 Y17.268 E15.80722
G1 X51.444 Y17.606 E15.82503
G1 X50.061 Y21.218 E16.01799
G1 X49.854 Y21.682 E16.04334
G1 X46.842 Y27.59 E16.37419
G1 X46.601 Y28.01 E16.39835
G1 X44.714 Y30.938 E16.57213
G1 X44.538 Y31.192 E16.58755
G1 X42.846 Y33.48 E16.72952
G1 X42.684 Y33.688 E16.74268
G1 X41.029 Y35.686 E16.87211
G1 X40.66 Y36.083 E16.89915
G1 X38.67 Y37.998 E17.03694
G0 F3000 X38.393 Y37.71
G1 F1500 X35.247 Y40.865 E17.25922
G1 X34.859 Y41.211 E17.28516
G1 X32.221 Y43.296 E17.45291
G1 X32.018 Y43.447 E17.46554
G1 X29.915 Y44.921 E17.59366
G1 X29.749 Y45.032 E17.60362
G1 X27.812 Y46.262 E17.7181
G1 X27.443 Y46.472 E17.73928
G1 X21.906 Y49.28 E18.04901
G1 X21.692 Y49.382 E18.06084
G1 X20.101 Y50.084 E18.1476
G1 X19.844 Y50.188 E18.16143
G1 X17.351 Y51.105 E18.29395
G1 X17.06 Y51.2 E18.30923
G1 X12.992 Y52.382 E18.52057
G1 X12.487 Y52.497 E18.54641
G1 X5.112 Y53.725 E18.91942
G1 X4.608 Y53.78 E18.94471
G1 X0.919 Y53.964 E19.12899
G1 X0.604 Y53.968 E19.1447
G1 X-3.172 Y53.886 E19.33313
G1 X-3.428 Y53.873 E19.34592
G1 X-4.785 Y53.764 E19.41384
G1 X-5.122 Y53.724 E19.43077
G1 X-11.647 Y52.69 E19.76037
G1 X-12.052 Y52.606 E19.781
G1 X-14.977 Y51.855 E19.93167
G1 X-15.271 Y51.768 E19.94696
G1 X-18.617 Y50.656 E20.12287
G1 X-18.871 Y50.563 E20.13637
G1 X-21.233 Y49.613 E20.26338
G1 X-21.619 Y49.436 E20.28457
G1 X-28.153 Y46.043 E20.65188
G1 X-28.588 Y45.784 E20.67714
G1 X-31.775 Y43.631 E20.86902
G1 X-32.005 Y43.464 E20.8832
G1 X-34.148 Y41.805 E21.01841
G1 X-34.397 Y41.598 E21.03456
G1 X-36.016 Y40.142 E21.1432
G1 X-36.181 Y39.986 E21.15452
G1 X-40.422 Y35.757 E21.45333
G1 X-40.726 Y35.42 E21.47597
G1 X-42.837 Y32.829 E21.64271
G1 X-43.035 Y32.568 E21.65905
G1 X-45.41 Y29.164 E21.86613
G1 X-45.531 Y28.981 E21.87707
G1 X-46.279 Y27.786 E21.94741
G1 X-46.473 Y27.442 E21.96711
G1 X-49.313 Y21.845 E22.28024
G1 X-49.444 Y21.562 E22.2958
G1 X-50.416 Y19.254 E22.42074
G1 X-50.514 Y18.998 E22.43441
G1 X-51.358 Y16.584 E22.562
G1 X-51.445 Y16.307 E22.57648
G1 X-52.555 Y12.3 E22.78392
G1 X-52.66 Y11.816 E22.80863
G1 X-53.715 Y5.186 E23.14356
G1 X-53.76 Y4.787 E23.16359
G1 X-53.93 Y2.235 E23.2912
G1 X-53.94 Y1.959 E23.30498
G1 X-53.952 Y-1.389 E23.47201
G1 X-53.945 Y-1.658 E23.48543
G1 X-53.771 Y-4.685 E23.6367
G1 X-53.724 Y-5.12 E23.65853
G1 X-52.676 Y-11.739 E23.99287
G1 X-52.581 Y-12.187 E24.01571
G1 X-51.651 Y-15.666 E24.19538
G1 X-51.541 Y-16.017 E24.21373
G1 X-49.98 Y-20.363 E24.44411
G1 X-49.902 Y-20.565 E24.45492
G1 X-49.641 Y-21.193 E24.48884
G1 X-49.458 Y-21.58 E24.5102
G1 X-48.259 Y-23.822 E24.63705
G1 X-46.358 Y-27.633 E24.84952
G1 X-46.126 Y-28.042 E24.87298
G1 X-44.905 Y-29.949 E24.98595
G1 X-44.745 Y-30.18 E24.99997
G1 X-42.296 Y-33.515 E25.2064
G1 X-42.141 Y-33.715 E25.21902
G1 X-40.736 Y-35.414 E25.32901
G1 X-40.456 Y-35.722 E25.34978
G1 X-35.842 Y-40.335 E25.67529
G1 X-35.529 Y-40.618 E25.69634
G1 X-32.856 Y-42.821 E25.86915
G1 X-32.598 Y-43.019 E25.88537
G1 X-29.76 Y-45.025 E26.05876
G1 X-29.569 Y-45.153 E26.07023
G1 X-27.798 Y-46.271 E26.17472
G1 X-27.414 Y-46.487 E26.1967
G1 X-20.656 Y-49.86 E26.57352
G1 X-20.155 Y-50.072 E26.60066
G1 X-15.852 Y-51.59 E26.82831
G1 X-15.523 Y-51.692 E26.84549
G1 X-12.198 Y-52.58 E27.01719
G1 X-11.751 Y-52.675 E27.03999
G1 X-5.239 Y-53.706 E27.36892
G1 X-4.785 Y-53.754 E27.3917
G1 X-.895 Y-53.961 E27.58605
G1 X-.641 Y-53.967 E27.59872
G1 X1.379 Y-53.958 E27.6995
G1 X1.662 Y-53.948 E27.71363
G1 X5.05 Y-53.714 E27.88306
G1 X5.433 Y-53.67 E27.90229
G1 X11.685 Y-52.683 E28.21807
G1 X12.088 Y-52.6 E28.2386
G1 X14.534 Y-51.975 E28.36455
G1 X14.72 Y-51.923 E28.37418
G1 X16.87 Y-51.272 E28.48626
G1 X17.157 Y-51.174 E28.50139
G1 X21.073 Y-49.687 E28.71037
G1 X21.537 Y-49.48 E28.73572
G1 X28.046 Y-46.104 E29.10153
G1 X28.487 Y-45.841 E29.12715
G1 X31.942 Y-43.501 E29.33533
G1 X32.218 Y-43.298 E29.35243
G1 X35.203 Y-40.918 E29.54289
G1 X35.573 Y-40.587 E29.56766
G1 X40.653 Y-35.501 E29.92629
G1 X41.002 Y-35.108 E29.95251
G1 X43.717 Y-31.647 E30.17197
G1 X43.911 Y-31.379 E30.18848
G1 X45.845 Y-28.491 E30.36189
G1 X46.098 Y-28.063 E30.38669
G1 X49.5 Y-21.478 E30.75647
G1 X49.676 Y-21.094 E30.77754
G1 X50.646 Y-18.672 E30.90771
G1 X50.734 Y-18.431 E30.92051
G1 X51.576 Y-15.913 E31.05297
G1 X51.653 Y-15.657 E31.06631
G1 X52.575 Y-12.216 E31.24404
G1 X52.671 Y-11.766 E31.26699
G1 X53.729 Y-5.094 E31.60402
G1 X53.776 Y-4.653 E31.62614
G1 X53.945 Y-1.663 E31.77555
G1 X53.952 Y-1.387 E31.78933
G1 X53.929 Y2.249 E31.97073
G1 X53.917 Y2.55 E31.98576
G1 X53.739 Y4.921 E32.10438
G1 X53.697 Y5.279 E32.12237
G1 X52.675 Y11.749 E32.44916
G1 X52.602 Y12.112 E32.46763
G1 X52.244 Y13.569 E32.54248
G1 X52.186 Y13.782 E32.5535
G1 X51.176 Y17.153 E32.72906
G1 X51.07 Y17.463 E32.74541
G1 X49.687 Y21.075 E32.93837
G1 X49.498 Y21.5 E32.96157
G1 X46.486 Y27.408 E33.29242
G1 X46.264 Y27.794 E33.31464
G1 X44.377 Y30.722 E33.48842
G1 X44.217 Y30.954 E33.50248
G1 X42.525 Y33.242 E33.64445
G1 X42.375 Y33.433 E33.65657
G1 X40.72 Y35.431 E33.78601
G1 X40.383 Y35.794 E33.81072
G1 X38.393 Y37.71 E33.94854
G0 F3000 X38.115 Y37.422
G1 F1500 X34.964 Y40.583 E34.17121
G1 X34.611 Y40.897 E34.19478
G1 X31.973 Y42.982 E34.36254
G1 X31.789 Y43.12 E34.37401
G1 X29.686 Y44.594 E34.50214
G1 X29.534 Y44.695 E34.51124
G1 X27.597 Y45.925 E34.62571
G1 X27.262 Y46.115 E34.64493
G1 X21.725 Y48.923 E34.95466
G1 X21.531 Y49.016 E34.9654
G1 X19.94 Y49.718 E35.05215
G1 X19.706 Y49.812 E35.06474
G1 X17.213 Y50.729 E35.19726
G1 X16.948 Y50.816 E35.21117
G1 X12.88 Y51.998 E35.42252
G1 X12.421 Y52.103 E35.44601
G1 X5.046 Y53.331 E35.81902
G1 X4.588 Y53.38 E35.842
G1 X0.899 Y53.564 E36.02627
G1 X0.613 Y53.568 E36.04054
G1 X-3.163 Y53.486 E36.22897
G1 X-3.396 Y53.474 E36.24061
G1 X-4.753 Y53.365 E36.30853
G1 X-5.059 Y53.329 E36.3239
G1 X-11.584 Y52.295 E36.6535
G1 X-11.953 Y52.218 E36.6723
G1 X-14.878 Y51.467 E36.82297
G1 X-15.145 Y51.389 E36.83684
G1 X-18.491 Y50.277 E37.01275
G1 X-18.722 Y50.192 E37.02503
G1 X-21.084 Y49.242 E37.15205
G1 X-21.434 Y49.081 E37.17127
G1 X-27.968 Y45.688 E37.53858
G1 X-28.364 Y45.453 E37.56156
G1 X-31.551 Y43.3 E37.75344
G1 X-31.761 Y43.148 E37.76637
G1 X-33.904 Y41.489 E37.90158
G1 X-34.13 Y41.3 E37.91628
G1 X-35.749 Y39.844 E38.02491
G1 X-35.898 Y39.702 E38.03518
G1 X-40.139 Y35.473 E38.33398
G1 X-40.416 Y35.168 E38.35454
G1 X-42.527 Y32.577 E38.52127
G1 X-42.706 Y32.339 E38.53613
G1 X-45.081 Y28.935 E38.74321
G1 X-45.192 Y28.768 E38.75321
G1 X-45.94 Y27.573 E38.82355
G1 X-46.116 Y27.261 E38.84142
G1 X-48.956 Y21.664 E39.15454
G1 X-49.075 Y21.407 E39.16867
G1 X-50.047 Y19.099 E39.29362
G1 X-50.137 Y18.866 E39.30608
G1 X-50.981 Y16.452 E39.43366
G1 X-51.06 Y16.2 E39.44684
G1 X-52.17 Y12.193 E39.65428
G1 X-52.265 Y11.754 E39.67668
G1 X-53.32 Y5.124 E40.01162
G1 X-53.361 Y4.761 E40.02984
G1 X-53.531 Y2.209 E40.15744
G1 X-53.54 Y1.957 E40.17003
G1 X-53.552 Y-1.391 E40.33706
G1 X-53.545 Y-1.635 E40.34924
G1 X-53.371 Y-4.662 E40.5005
G1 X-53.329 Y-5.058 E40.52037
G1 X-52.281 Y-11.677 E40.85471
G1 X-52.194 Y-12.084 E40.87547
G1 X-51.264 Y-15.563 E41.05513
G1 X-51.165 Y-15.882 E41.0718
G1 X-49.604 Y-20.228 E41.30218
G1 X-49.533 Y-20.411 E41.31198
G1 X-49.272 Y-21.039 E41.34591
G1 X-49.105 Y-21.391 E41.36534
G1 X-47.905 Y-23.633 E41.49221
G1 X-46 Y-27.454 E41.70522
G1 X-45.789 Y-27.826 E41.72656
G1 X-44.568 Y-29.733 E41.83953
G1 X-44.423 Y-29.944 E41.8523
G1 X-41.974 Y-33.279 E42.05873
G1 X-41.833 Y-33.46 E42.07017
G1 X-40.428 Y-35.159 E42.18017
G1 X-40.173 Y-35.439 E42.19906
G1 X-35.559 Y-40.052 E42.52457
G1 X-35.275 Y-40.31 E42.54371
G1 X-32.602 Y-42.513 E42.71652
G1 X-32.367 Y-42.692 E42.73126
G1 X-29.529 Y-44.698 E42.90465
G1 X-29.355 Y-44.814 E42.91508
G1 X-27.584 Y-45.932 E43.01957
G1 X-27.235 Y-46.129 E43.03956
G1 X-20.477 Y-49.502 E43.41638
G1 X-20.022 Y-49.695 E43.44104
G1 X-15.719 Y-51.213 E43.66868
G1 X-15.42 Y-51.306 E43.68431
G1 X-12.095 Y-52.194 E43.85601
G1 X-11.689 Y-52.28 E43.87671
G1 X-5.177 Y-53.311 E44.20564
G1 X-4.764 Y-53.354 E44.22636
G1 X-.874 Y-53.561 E44.42071
G1 X-.643 Y-53.567 E44.43223
G1 X1.377 Y-53.558 E44.53301
G1 X1.635 Y-53.548 E44.54589
G1 X5.023 Y-53.314 E44.71532
G1 X5.371 Y-53.275 E44.7328
G1 X11.623 Y-52.288 E45.04857
G1 X11.989 Y-52.212 E45.06722
G1 X14.435 Y-51.587 E45.19317
G1 X14.604 Y-51.54 E45.20192
G1 X16.754 Y-50.889 E45.314
G1 X17.015 Y-50.8 E45.32776
G1 X20.931 Y-49.313 E45.53674
G1 X21.353 Y-49.125 E45.55979
G1 X27.862 Y-45.749 E45.9256
G1 X28.263 Y-45.51 E45.94889
G1 X31.718 Y-43.17 E46.15708
G1 X31.969 Y-42.986 E46.1726
G1 X34.954 Y-40.606 E46.36307
G1 X35.29 Y-40.305 E46.38557
G1 X40.37 Y-35.219 E46.74421
G1 X40.687 Y-34.861 E46.76806
G1 X43.402 Y-31.4 E46.98752
G1 X43.579 Y-31.157 E47.00252
G1 X45.513 Y-28.269 E47.17593
G1 X45.743 Y-27.879 E47.19851
G1 X49.145 Y-21.294 E47.56829
G1 X49.304 Y-20.945 E47.58743
G1 X50.274 Y-18.523 E47.71759
G1 X50.355 Y-18.305 E47.72919
G1 X51.197 Y-15.787 E47.86166
G1 X51.267 Y-15.553 E47.87384
G1 X52.189 Y-12.112 E48.05157
G1 X52.276 Y-11.703 E48.07243
G1 X53.334 Y-5.031 E48.40946
G1 X53.377 Y-4.631 E48.42953
G1 X53.546 Y-1.641 E48.57894
G1 X53.552 Y-1.39 E48.59146
G1 X53.529 Y2.246 E48.77287
G1 X53.518 Y2.52 E48.78655
G1 X53.34 Y4.891 E48.90517
G1 X53.302 Y5.216 E48.9215
G1 X52.28 Y11.686 E49.24829
G1 X52.213 Y12.016 E49.26509
G1 X51.855 Y13.473 E49.33994
G1 X51.803 Y13.667 E49.34996
G1 X50.793 Y17.038 E49.52553
G1 X50.697 Y17.32 E49.54039
G1 X49.314 Y20.932 E49.73335
G1 X49.142 Y21.319 E49.75448
G1 X46.13 Y27.227 E50.08532
G1 X45.928 Y27.577 E50.10549
G1 X44.041 Y30.505 E50.27927
G1 X43.895 Y30.716 E50.29207
G1 X42.203 Y33.004 E50.43404
G1 X42.067 Y33.178 E50.44506
G1 X40.412 Y35.176 E50.5745
G1 X40.106 Y35.506 E50.59695
G1 X38.115 Y37.422 E50.73481
G0 F3000 X37.862 Y37.11
G1 F1500 X34.681 Y40.301 E50.9596
G1 X34.363 Y40.583 E50.9808
G1 X31.725 Y42.668 E51.14856
G1 X31.559 Y42.792 E51.15889
G1 X29.456 Y44.266 E51.28702
G1 X29.32 Y44.357 E51.29518
G1 X27.383 Y45.587 E51.40966
G1 X27.081 Y45.759 E51.42699
G1 X21.544 Y48.567 E51.73673
G1 X21.369 Y48.65 E51.74639
G1 X19.778 Y49.352 E51.83315
G1 X19.568 Y49.437 E51.84445
G1 X17.075 Y50.354 E51.97698
G1 X16.836 Y50.432 E51.98952
G1 X12.768 Y51.614 E52.20087
G1 X12.355 Y51.708 E52.222
G1 X4.98 Y52.936 E52.595
G1 X4.568 Y52.981 E52.61568
G1 X0.879 Y53.165 E52.79995
G1 X0.622 Y53.168 E52.81278
G1 X-3.154 Y53.086 E53.00121
G1 X-3.364 Y53.075 E53.0117
G1 X-4.721 Y52.966 E53.07962
G1 X-4.996 Y52.934 E53.09343
G1 X-11.521 Y51.9 E53.42303
G1 X-11.853 Y51.831 E53.43994
G1 X-14.778 Y51.08 E53.59061
G1 X-15.018 Y51.009 E53.60309
G1 X-18.364 Y49.897 E53.779
G1 X-18.572 Y49.821 E53.79005
G1 X-20.934 Y48.871 E53.91706
G1 X-21.25 Y48.726 E53.93441
G1 X-27.784 Y45.333 E54.30172
G1 X-28.14 Y45.121 E54.3224
G1 X-31.327 Y42.968 E54.51428
G1 X-31.516 Y42.832 E54.52589
G1 X-33.659 Y41.173 E54.6611
G1 X-33.862 Y41.003 E54.67431
G1 X-35.481 Y39.547 E54.78294
G1 X-35.616 Y39.419 E54.79223
G1 X-39.857 Y35.19 E55.09103
G1 X-40.106 Y34.915 E55.10954
G1 X-42.217 Y32.324 E55.27627
G1 X-42.378 Y32.11 E55.28963
G1 X-44.753 Y28.706 E55.49671
G1 X-44.853 Y28.556 E55.50571
G1 X-45.601 Y27.361 E55.57604
G1 X-45.759 Y27.08 E55.59212
