;FLAVOR:Marlin
;TIME:814
;Filament used: 0.94687m
;Layer height: 0.2
;Generated with Cura_SteamEngine 1.1.0
M190 S60
M104 S230
M109 S230
G28
G1 Z50.00 F400
G92 E0
G1 F200 E3
G92 E0
M132 X Y Z A
M907 X100 Y100 Z50 A100
;LAYER_COUNT:25
;LAYER:0
M107
G0 F1800 X0.00 Y-2.211 Z0.3
;TYPE:WALL-OUTER
G1 F1500 X-.574 Y-2.217 E0.02864
G1 X-1.151 Y-2.237 E0.05744
G1 X-1.73 Y-2.27 E0.08638
G1 X-2.3 Y-2.316 E0.11491
G1 X-2.877 Y-2.376 E0.14385
G1 X-3.445 Y-2.447 E0.17241
G1 X-4.019 Y-2.534 E0.20137
G1 X-4.588 Y-2.632 E0.23018
G1 X-5.153 Y-2.743 E0.2589
G1 X-5.711 Y-2.866 E0.28741
G1 X-6.275 Y-3.004 E0.31638
G1 X-7.327 Y-3.287 E0.37073
G1 X-7.827 Y-3.406 E0.39637
G1 X-8.33 Y-3.512 E0.42202
G1 X-8.837 Y-3.605 E0.44773
G1 X-9.345 Y-3.684 E0.47338
G1 X-9.855 Y-3.75 E0.49904
G1 X-10.367 Y-3.801 E0.52471
G1 X-10.88 Y-3.839 E0.55037
G1 X-11.394 Y-3.863 E0.57604
G1 X-11.907 Y-3.874 E0.60164
G1 X-12.423 Y-3.871 E0.62739
G1 X-12.936 Y-3.854 E0.65299
G1 X-13.45 Y-3.823 E0.67868
G1 X-13.963 Y-3.779 E0.70437
G1 X-14.473 Y-3.721 E0.72998
G1 X-14.983 Y-3.65 E0.75567
G1 X-15.49 Y-3.564 E0.78132
G1 X-15.995 Y-3.466 E0.80699
G1 X-16.497 Y-3.354 E0.83265
G1 X-16.995 Y-3.227 E0.85829
G1 X-17.492 Y-3.089 E0.88402
G1 X-17.983 Y-2.936 E0.90968
G1 X-18.47 Y-2.772 E0.93532
G1 X-18.953 Y-2.594 E0.961
G1 X-19.43 Y-2.403 E0.98663
G1 X-19.903 Y-2.199 E1.01233
G1 X-20.369 Y-1.982 E1.03798
G1 X-20.83 Y-1.754 E1.06364
G1 X-21.285 Y-1.514 E1.0893
G1 X-21.733 Y-1.261 E1.11497
G1 X-22.173 Y-.996 E1.1406
G1 X-22.608 Y-.719 E1.16633
G1 X-23.034 Y-.431 E1.19198
G1 X-23.452 Y-.132 E1.21762
G1 X-23.862 Y0.178 E1.24326
G1 X-24.407 Y0.608 E1.2779
G1 X-24.547 Y0.701 E1.28628
G1 X-24.705 Y0.791 E1.29535
G1 X-24.871 Y0.87 E1.30453
G1 X-25.028 Y0.933 E1.31297
G1 X-25.207 Y0.99 E1.32234
G1 X-25.37 Y1.031 E1.33072
G1 X-25.548 Y1.062 E1.33974
G1 X-25.724 Y1.08 E1.34856
G1 X-25.902 Y1.087 E1.35745
G1 X-26.08 Y1.081 E1.36634
G1 X-26.259 Y1.063 E1.37531
G1 X-26.433 Y1.034 E1.38411
G1 X-26.598 Y0.994 E1.39258
G1 X-26.774 Y0.939 E1.40178
G1 X-26.931 Y0.877 E1.4102
G1 X-27.103 Y0.795 E1.41971
G1 X-27.247 Y0.714 E1.42795
G1 X-27.407 Y0.61 E1.43747
G1 X-27.541 Y0.508 E1.44588
G1 X-27.673 Y0.393 E1.45461
G1 X-27.796 Y0.269 E1.46332
G1 X-27.922 Y0.125 E1.47287
G1 X-28.023 Y-0.008 E1.4812
G1 X-28.12 Y-.156 E1.49003
G1 X-28.213 Y-.32 E1.49944
G1 X-28.287 Y-.479 E1.50819
G1 X-28.347 Y-.633 E1.51643
G1 X-28.405 Y-.815 E1.52596
G1 X-28.444 Y-.976 E1.53423
G1 X-28.475 Y-1.153 E1.54319
G1 X-28.492 Y-1.331 E1.55211
G1 X-28.498 Y-1.503 E1.5607
G1 X-28.492 Y-1.68 E1.56953
G1 X-28.472 Y-1.87 E1.57907
G1 X-28.441 Y-2.044 E1.58788
G1 X-28.401 Y-2.203 E1.59606
G1 X-28.343 Y-2.385 E1.60559
G1 X-28.277 Y-2.55 E1.61446
G1 X-28.206 Y-2.697 E1.6226
G1 X-28.112 Y-2.863 E1.63212
G1 X-28.018 Y-3.004 E1.64057
G1 X-27.588 Y-3.549 E1.67521
G1 X-27.278 Y-3.959 E1.70085
G1 X-26.979 Y-4.377 E1.72649
G1 X-26.691 Y-4.803 E1.75215
G1 X-26.415 Y-5.237 E1.77781
G1 X-26.15 Y-5.678 E1.80348
G1 X-25.898 Y-6.126 E1.82912
G1 X-25.656 Y-6.581 E1.85483
G1 X-25.428 Y-7.042 E1.88049
G1 X-25.211 Y-7.508 E1.90614
G1 X-25.008 Y-7.98 E1.93177
G1 X-24.817 Y-8.458 E1.95745
G1 X-24.639 Y-8.941 E1.98313
G1 X-24.474 Y-9.428 E2.00878
G1 X-24.322 Y-9.919 E2.03443
G1 X-24.183 Y-10.415 E2.06013
G1 X-24.057 Y-10.914 E2.0858
G1 X-23.945 Y-11.416 E2.11146
G1 X-23.846 Y-11.92 E2.13709
G1 X-23.761 Y-12.428 E2.16279
G1 X-23.69 Y-12.937 E2.18843
G1 X-23.632 Y-13.448 E2.21408
G1 X-23.588 Y-13.96 E2.23972
G1 X-23.557 Y-14.474 E2.26541
G1 X-23.54 Y-14.988 E2.29107
G1 X-23.537 Y-15.502 E2.31671
G1 X-23.547 Y-16.017 E2.34241
G1 X-23.571 Y-16.531 E2.36808
G1 X-23.61 Y-17.043 E2.3937
G1 X-23.661 Y-17.556 E2.41942
G1 X-23.727 Y-18.066 E2.44508
G1 X-23.806 Y-18.574 E2.47072
G1 X-23.899 Y-19.08 E2.49639
G1 X-24.005 Y-19.584 E2.52209
G1 X-24.124 Y-20.084 E2.54773
G1 X-24.407 Y-21.139 E2.60222
G1 X-24.545 Y-21.7 E2.63105
G1 X-24.669 Y-22.262 E2.65976
G1 X-24.78 Y-22.828 E2.68853
G1 X-24.878 Y-23.395 E2.71724
G1 X-24.964 Y-23.966 E2.74605
G1 X-25.035 Y-24.533 E2.77456
G1 X-25.095 Y-25.111 E2.80355
G1 X-25.141 Y-25.68 E2.83203
G1 X-25.173 Y-26.26 E2.86101
G1 X-25.193 Y-26.837 E2.88982
G1 X-25.2 Y-27.409 E2.91835
G1 X-25.193 Y-27.985 E2.94709
G1 X-25.173 Y-28.561 E2.97585
G1 X-25.14 Y-29.141 E3.00483
G1 X-25.095 Y-29.71 E3.03331
G1 X-25.035 Y-30.288 E3.0623
G1 X-24.963 Y-30.855 E3.09081
G1 X-24.878 Y-31.426 E3.11961
G1 X-24.78 Y-31.993 E3.14832
G1 X-24.669 Y-32.559 E3.1771
G1 X-24.545 Y-33.122 E3.20586
G1 X-24.407 Y-33.682 E3.23463
G1 X-24.124 Y-34.738 E3.28918
G1 X-24.005 Y-35.238 E3.31482
G1 X-23.899 Y-35.741 E3.34046
G1 X-23.806 Y-36.248 E3.36618
G1 X-23.727 Y-36.756 E3.39183
G1 X-23.661 Y-37.266 E3.41749
G1 X-23.61 Y-37.778 E3.44316
G1 X-23.571 Y-38.291 E3.46882
G1 X-23.547 Y-38.804 E3.49444
G1 X-23.537 Y-39.319 E3.52014
G1 X-23.54 Y-39.833 E3.54579
G1 X-23.557 Y-40.347 E3.57144
G1 X-23.588 Y-40.861 E3.59713
G1 X-23.632 Y-41.373 E3.62277
G1 X-23.69 Y-41.884 E3.64843
G1 X-23.761 Y-42.393 E3.67407
G1 X-23.846 Y-42.901 E3.69977
G1 X-23.945 Y-43.406 E3.72544
G1 X-24.057 Y-43.908 E3.7511
G1 X-24.183 Y-44.407 E3.77678
G1 X-24.322 Y-44.902 E3.80243
G1 X-24.474 Y-45.394 E3.82812
G1 X-24.639 Y-45.881 E3.85377
G1 X-24.817 Y-46.363 E3.87941
G1 X-25.008 Y-46.841 E3.90509
G1 X-25.211 Y-47.313 E3.93072
G1 X-25.428 Y-47.779 E3.95637
G1 X-25.656 Y-48.24 E3.98203
G1 X-25.898 Y-48.695 E4.00774
G1 X-26.15 Y-49.144 E4.03343
G1 X-26.415 Y-49.584 E4.05905
G1 X-26.691 Y-50.018 E4.08471
G1 X-26.979 Y-50.444 E4.11036
G1 X-27.278 Y-50.862 E4.13601
G1 X-27.588 Y-51.272 E4.16165
G1 X-28.023 Y-51.824 E4.19671
G1 X-28.112 Y-51.958 E4.20474
G1 X-28.206 Y-52.124 E4.21425
G1 X-28.278 Y-52.275 E4.2226
G1 X-28.344 Y-52.439 E4.23142
G1 X-28.401 Y-52.618 E4.24079
G1 X-28.442 Y-52.784 E4.24932
G1 X-28.473 Y-52.959 E4.25819
G1 X-28.492 Y-53.142 E4.26737
G1 X-28.498 Y-53.306 E4.27556
G1 X-28.492 Y-53.497 E4.28509
G1 X-28.474 Y-53.673 E4.29392
G1 X-28.444 Y-53.847 E4.30273
G1 X-28.405 Y-54.006 E4.31089
G1 X-28.347 Y-54.188 E4.32042
G1 X-28.287 Y-54.342 E4.32867
G1 X-28.206 Y-54.515 E4.3382
G1 X-28.126 Y-54.657 E4.34633
G1 X-28.028 Y-54.806 E4.35523
G1 X-27.922 Y-54.947 E4.36403
G1 X-27.796 Y-55.091 E4.37357
G1 X-27.68 Y-55.208 E4.38179
G1 X-27.536 Y-55.333 E4.39131
G1 X-27.406 Y-55.432 E4.39946
G1 X-27.254 Y-55.532 E4.40854
G1 X-27.103 Y-55.616 E4.41716
G1 X-26.931 Y-55.698 E4.42666
G1 X-26.779 Y-55.758 E4.43482
G1 X-26.604 Y-55.813 E4.44397
G1 X-26.425 Y-55.856 E4.45315
G1 X-26.256 Y-55.886 E4.46172
G1 X-26.08 Y-55.903 E4.47054
G1 X-25.902 Y-55.909 E4.47942
G1 X-25.724 Y-55.902 E4.48831
G1 X-25.548 Y-55.884 E4.49714
G1 X-25.37 Y-55.853 E4.50615
G1 X-25.201 Y-55.811 E4.51484
G1 X-25.038 Y-55.758 E4.52339
G1 X-24.864 Y-55.689 E4.53273
G1 X-24.702 Y-55.611 E4.5417
G1 X-24.552 Y-55.527 E4.55028
G1 X-24.41 Y-55.432 E4.5588
G1 X-23.862 Y-54.999 E4.59364
G1 X-23.452 Y-54.689 E4.61929
G1 X-23.034 Y-54.39 E4.64493
G1 X-22.608 Y-54.102 E4.67058
G1 X-22.173 Y-53.826 E4.69628
G1 X-21.733 Y-53.561 E4.72191
G1 X-21.285 Y-53.308 E4.74758
G1 X-20.83 Y-53.067 E4.77327
G1 X-20.369 Y-52.839 E4.79893
G1 X-19.903 Y-52.622 E4.82457
G1 X-19.43 Y-52.419 E4.85025
G1 X-18.953 Y-52.228 E4.87589
G1 X-18.47 Y-52.049 E4.90158
G1 X-17.983 Y-51.885 E4.92722
G1 X-17.492 Y-51.733 E4.95286
G1 X-16.995 Y-51.594 E4.97861
G1 X-16.497 Y-51.468 E5.00424
G1 X-15.995 Y-51.356 E5.0299
G1 X-15.49 Y-51.257 E5.05557
G1 X-14.982 Y-51.172 E5.08127
G1 X-14.473 Y-51.101 E5.10691
G1 X-13.963 Y-51.042 E5.13252
G1 X-13.45 Y-50.999 E5.15821
G1 X-12.936 Y-50.967 E5.1839
G1 X-12.423 Y-50.951 E5.20951
G1 X-11.908 Y-50.947 E5.2352
G1 X-11.394 Y-50.958 E5.26085
G1 X-10.88 Y-50.982 E5.28652
G1 X-10.367 Y-51.021 E5.31219
G1 X-9.855 Y-51.072 E5.33786
G1 X-9.345 Y-51.138 E5.36352
G1 X-8.837 Y-51.217 E5.38916
G1 X-8.33 Y-51.309 E5.41487
G1 X-7.827 Y-51.415 E5.44052
G1 X-7.327 Y-51.535 E5.46617
G1 X-6.275 Y-51.817 E5.52051
G1 X-5.711 Y-51.955 E5.54948
G1 X-5.153 Y-52.078 E5.57798
G1 X-4.588 Y-52.19 E5.60672
G1 X-4.019 Y-52.288 E5.63553
G1 X-3.445 Y-52.375 E5.66449
G1 X-2.878 Y-52.446 E5.693
G1 X-2.301 Y-52.505 E5.72194
G1 X-1.73 Y-52.552 E5.75052
G1 X-1.151 Y-52.584 E5.77945
G1 X-.574 Y-52.604 E5.80825
G1 X0.00 Y-52.611 E5.83689
G1 X0.574 Y-52.604 E5.86553
G1 X1.151 Y-52.584 E5.89434
G1 X1.73 Y-52.551 E5.92327
G1 X2.301 Y-52.505 E5.95185
G1 X2.878 Y-52.446 E5.98079
G1 X3.445 Y-52.374 E6.0093
G1 X4.019 Y-52.288 E6.03826
G1 X4.588 Y-52.19 E6.06706
G1 X5.153 Y-52.078 E6.0958
G1 X5.711 Y-51.955 E6.12431
G1 X6.271 Y-51.818 E6.15307
G1 X7.327 Y-51.535 E6.20761
G1 X7.827 Y-51.415 E6.23326
G1 X8.33 Y-51.309 E6.25891
G1 X8.837 Y-51.217 E6.28462
G1 X9.345 Y-51.138 E6.31027
G1 X9.855 Y-51.072 E6.33592
G1 X10.367 Y-51.021 E6.36159
G1 X10.88 Y-50.982 E6.38726
G1 X11.394 Y-50.958 E6.41293
G1 X11.908 Y-50.947 E6.43858
G1 X12.423 Y-50.951 E6.46428
G1 X12.936 Y-50.967 E6.48988
G1 X13.45 Y-50.999 E6.51558
G1 X13.963 Y-51.042 E6.54126
G1 X14.473 Y-51.101 E6.56687
G1 X14.982 Y-51.172 E6.59251
G1 X15.49 Y-51.257 E6.61821
G1 X15.995 Y-51.356 E6.64388
G1 X16.497 Y-51.468 E6.66954
G1 X16.995 Y-51.594 E6.69517
G1 X17.492 Y-51.733 E6.72092
G1 X17.983 Y-51.885 E6.74656
G1 X18.47 Y-52.049 E6.7722
G1 X18.953 Y-52.228 E6.7979
G1 X19.43 Y-52.419 E6.82353
G1 X19.903 Y-52.622 E6.84921
G1 X20.369 Y-52.839 E6.87486
G1 X20.83 Y-53.067 E6.90052
G1 X21.285 Y-53.308 E6.9262
G1 X21.733 Y-53.561 E6.95187
G1 X22.173 Y-53.826 E6.9775
G1 X22.608 Y-54.102 E7.0032
G1 X23.034 Y-54.39 E7.02885
G1 X23.452 Y-54.689 E7.05449
G1 X23.862 Y-54.999 E7.08014
G1 X24.41 Y-55.432 E7.11498
G1 X24.552 Y-55.527 E7.12351
G1 X24.702 Y-55.611 E7.13208
G1 X24.864 Y-55.689 E7.14105
G1 X25.038 Y-55.758 E7.15039
G1 X25.201 Y-55.811 E7.15894
G1 X25.37 Y-55.853 E7.16763
G1 X25.548 Y-55.884 E7.17665
G1 X25.724 Y-55.902 E7.18547
G1 X25.902 Y-55.909 E7.19436
G1 X26.08 Y-55.903 E7.20325
G1 X26.256 Y-55.886 E7.21207
G1 X26.425 Y-55.856 E7.22063
G1 X26.604 Y-55.813 E7.22981
G1 X26.779 Y-55.758 E7.23897
G1 X26.931 Y-55.698 E7.24712
G1 X27.103 Y-55.616 E7.25663
G1 X27.254 Y-55.532 E7.26525
G1 X27.406 Y-55.432 E7.27432
G1 X27.536 Y-55.333 E7.28248
G1 X27.68 Y-55.207 E7.29202
G1 X27.797 Y-55.091 E7.30024
G1 X27.922 Y-54.947 E7.30975
G1 X28.028 Y-54.806 E7.31856
G1 X28.126 Y-54.657 E7.32745
G1 X28.206 Y-54.515 E7.33558
G1 X28.287 Y-54.342 E7.34511
G1 X28.347 Y-54.188 E7.35336
G1 X28.405 Y-54.006 E7.36289
G1 X28.444 Y-53.847 E7.37106
G1 X28.474 Y-53.673 E7.37987
G1 X28.492 Y-53.497 E7.38869
G1 X28.498 Y-53.319 E7.39758
G1 X28.492 Y-53.142 E7.40641
G1 X28.473 Y-52.959 E7.41559
G1 X28.442 Y-52.784 E7.42446
G1 X28.401 Y-52.618 E7.43299
G1 X28.344 Y-52.439 E7.44236
G1 X28.278 Y-52.275 E7.45118
G1 X28.206 Y-52.124 E7.45953
G1 X28.112 Y-51.958 E7.46905
G1 X28.023 Y-51.824 E7.47707
G1 X27.588 Y-51.272 E7.51213
G1 X27.278 Y-50.862 E7.53778
G1 X26.979 Y-50.444 E7.56342
G1 X26.691 Y-50.018 E7.58907
G1 X26.415 Y-49.584 E7.61473
G1 X26.15 Y-49.144 E7.64036
G1 X25.898 Y-48.695 E7.66605
G1 X25.656 Y-48.24 E7.69176
G1 X25.428 Y-47.779 E7.71742
G1 X25.211 Y-47.313 E7.74306
G1 X25.008 Y-46.841 E7.76869
G1 X24.817 Y-46.363 E7.79438
G1 X24.639 Y-45.881 E7.82001
G1 X24.474 Y-45.394 E7.84566
G1 X24.322 Y-44.902 E7.87135
G1 X24.183 Y-44.407 E7.897
G1 X24.057 Y-43.908 E7.92268
G1 X23.945 Y-43.406 E7.94834
G1 X23.846 Y-42.901 E7.97402
G1 X23.761 Y-42.393 E7.99971
G1 X23.69 Y-41.884 E8.02535
G1 X23.632 Y-41.373 E8.05101
G1 X23.588 Y-40.861 E8.07665
G1 X23.557 Y-40.347 E8.10234
G1 X23.54 Y-39.833 E8.128
G1 X23.537 Y-39.319 E8.15364
G1 X23.547 Y-38.804 E8.17934
G1 X23.571 Y-38.291 E8.20496
G1 X23.61 Y-37.778 E8.23063
G1 X23.661 Y-37.266 E8.2563
G1 X23.727 Y-36.756 E8.28195
G1 X23.806 Y-36.248 E8.3076
G1 X23.899 Y-35.741 E8.33332
G1 X24.005 Y-35.238 E8.35896
G1 X24.124 Y-34.738 E8.38461
G1 X24.406 Y-33.686 E8.43894
G1 X24.544 Y-33.127 E8.46767
G1 X24.668 Y-32.563 E8.49648
G1 X24.779 Y-31.998 E8.52521
G1 X24.877 Y-31.43 E8.55396
G1 X24.964 Y-30.855 E8.58298
G1 X25.035 Y-30.288 E8.61149
G1 X25.095 Y-29.71 E8.64048
G1 X25.141 Y-29.141 E8.66896
G1 X25.173 Y-28.565 E8.69774
G1 X25.193 Y-27.99 E8.72644
G1 X25.2 Y-27.413 E8.75523
G1 X25.193 Y-26.837 E8.78397
G1 X25.173 Y-26.26 E8.81277
G1 X25.14 Y-25.68 E8.84176
G1 X25.095 Y-25.111 E8.87023
G1 X25.035 Y-24.533 E8.89922
G1 X24.963 Y-23.966 E8.92774
G1 X24.878 Y-23.395 E8.95654
G1 X24.78 Y-22.828 E8.98525
G1 X24.669 Y-22.262 E9.01402
G1 X24.545 Y-21.7 E9.04274
G1 X24.407 Y-21.139 E9.07156
G1 X24.124 Y-20.084 E9.12605
G1 X24.005 Y-19.584 E9.1517
G1 X23.899 Y-19.08 E9.17739
G1 X23.806 Y-18.574 E9.20306
G1 X23.727 Y-18.066 E9.22871
G1 X23.661 Y-17.556 E9.25436
G1 X23.61 Y-17.043 E9.28008
G1 X23.571 Y-16.531 E9.3057
G1 X23.547 Y-16.017 E9.33137
G1 X23.537 Y-15.502 E9.35707
G1 X23.54 Y-14.988 E9.38271
G1 X23.557 Y-14.474 E9.40837
G1 X23.588 Y-13.96 E9.43406
G1 X23.632 Y-13.448 E9.4597
G1 X23.69 Y-12.937 E9.48536
G1 X23.761 Y-12.428 E9.511
G1 X23.846 Y-11.92 E9.53669
G1 X23.945 Y-11.416 E9.56232
G1 X24.057 Y-10.914 E9.58798
G1 X24.183 Y-10.415 E9.61366
G1 X24.322 Y-9.919 E9.63936
G1 X24.474 Y-9.428 E9.665
G1 X24.639 Y-8.941 E9.69065
G1 X24.817 Y-8.458 E9.71633
G1 X25.008 Y-7.98 E9.74201
G1 X25.211 Y-7.508 E9.76765
G1 X25.428 Y-7.042 E9.79329
G1 X25.656 Y-6.581 E9.81895
G1 X25.898 Y-6.126 E9.84466
G1 X26.15 Y-5.678 E9.87031
G1 X26.415 Y-5.237 E9.89598
G1 X26.691 Y-4.803 E9.92164
G1 X26.979 Y-4.377 E9.94729
G1 X27.278 Y-3.959 E9.97293
G1 X27.588 Y-3.549 E9.99857
G1 X28.018 Y-3.004 E10.03321
G1 X28.112 Y-2.863 E10.04166
G1 X28.206 Y-2.697 E10.05118
G1 X28.277 Y-2.55 E10.05932
G1 X28.343 Y-2.385 E10.06819
G1 X28.401 Y-2.203 E10.07772
G1 X28.441 Y-2.044 E10.0859
G1 X28.472 Y-1.87 E10.09472
G1 X28.491 Y-1.694 E10.10355
G1 X28.498 Y-1.516 E10.11244
G1 X28.492 Y-1.331 E10.12167
G1 X28.475 Y-1.153 E10.13059
G1 X28.444 Y-.976 E10.13956
G1 X28.405 Y-.815 E10.14782
G1 X28.347 Y-.633 E10.15735
G1 X28.287 Y-.479 E10.1656
G1 X28.213 Y-.32 E10.17435
G1 X28.12 Y-.156 E10.18375
G1 X28.023 Y-0.008 E10.19258
G1 X27.922 Y0.125 E10.20091
G1 X27.796 Y0.269 E10.21046
G1 X27.673 Y0.393 E10.21917
G1 X27.541 Y0.508 E10.22791
G1 X27.407 Y0.61 E10.23631
G1 X27.247 Y0.714 E10.24583
G1 X27.103 Y0.795 E10.25407
G1 X26.931 Y0.877 E10.26358
G1 X26.774 Y0.939 E10.272
G1 X26.598 Y0.994 E10.2812
G1 X26.433 Y1.034 E10.28967
G1 X26.259 Y1.063 E10.29847
G1 X26.08 Y1.081 E10.30745
G1 X25.902 Y1.087 E10.31633
G1 X25.724 Y1.08 E10.32522
G1 X25.548 Y1.062 E10.33404
G1 X25.37 Y1.031 E10.34306
G1 X25.207 Y0.99 E10.35144
G1 X25.028 Y0.933 E10.36082
G1 X24.871 Y0.87 E10.36926
G1 X24.705 Y0.791 E10.37843
G1 X24.547 Y0.701 E10.3875
G1 X24.407 Y0.608 E10.39589
G1 X23.862 Y0.178 E10.43052
G1 X23.452 Y-.132 E10.45616
G1 X23.034 Y-.431 E10.4818
G1 X22.608 Y-.719 E10.50746
G1 X22.173 Y-.996 E10.53319
G1 X21.733 Y-1.261 E10.55881
G1 X21.285 Y-1.514 E10.58448
G1 X20.83 Y-1.754 E10.61014
G1 X20.369 Y-1.982 E10.6358
G1 X19.903 Y-2.199 E10.66145
G1 X19.43 Y-2.403 E10.68715
G1 X18.953 Y-2.594 E10.71278
G1 X18.47 Y-2.772 E10.73846
G1 X17.983 Y-2.936 E10.7641
G1 X17.492 Y-3.089 E10.78976
G1 X16.995 Y-3.227 E10.81549
G1 X16.497 Y-3.354 E10.84113
G1 X15.995 Y-3.466 E10.86679
G1 X15.49 Y-3.564 E10.89246
G1 X14.983 Y-3.65 E10.91811
G1 X14.473 Y-3.721 E10.9438
G1 X13.963 Y-3.779 E10.96941
G1 X13.45 Y-3.823 E10.9951
G1 X12.936 Y-3.854 E11.02079
G1 X12.423 Y-3.871 E11.0464
G1 X11.907 Y-3.874 E11.07214
G1 X11.394 Y-3.863 E11.09774
G1 X10.88 Y-3.839 E11.12341
G1 X10.367 Y-3.801 E11.14908
G1 X9.855 Y-3.75 E11.17475
G1 X9.345 Y-3.684 E11.2004
G1 X8.837 Y-3.605 E11.22605
G1 X8.33 Y-3.512 E11.25177
G1 X7.827 Y-3.406 E11.27741
