;FLAVOR:Marlin
;TIME:1844
;Filament used: 2.19694m
;Layer height: 0.2
;Generated with Cura_SteamEngine 1.1.0
M190 S60
M104 S230
M109 S230
G28
G1 Z50.00 F400
G92 E0
G1 F200 E3
G92 E0
M132 X Y Z A
M907 X100 Y100 Z50 A100
;LAYER_COUNT:27
;LAYER:0
M107
G0 F1800 X4.847 Y28.528 Z0.3
;TYPE:SKIRT
G1 F1500 X-.479 Y29.254 E0.26817
G1 X-5.808 Y30.291 E0.53902
G1 X-8.33 Y30.893 E0.66838
G1 X-13.966 Y32.506 E0.96085
G1 X-14.267 Y32.581 E0.97633
G1 X-15.509 Y32.851 E1.03974
G1 X-16.122 Y32.944 E1.07067
G1 X-16.72 Y32.957 E1.10051
G1 X-17.273 Y32.935 E1.12812
G1 X-17.889 Y32.871 E1.15902
G1 X-18.233 Y32.799 E1.17656
G1 X-25.361 Y31.039 E1.54285
G1 X-27.913 Y30.531 E1.67267
G1 X-33.269 Y29.696 E1.94311
G1 X-38.649 Y29.167 E2.21282
G1 X-43.263 Y28.941 E2.44328
G1 X-44.03 Y28.841 E2.48187
G1 X-44.728 Y28.692 E2.51748
G1 X-45.324 Y28.524 E2.54838
G1 X-45.963 Y28.245 E2.58316
G1 X-46.899 Y27.752 E2.63594
G1 X-47.427 Y27.429 E2.66682
G1 X-47.925 Y27.025 E2.69881
G1 X-48.404 Y26.581 E2.7314
G1 X-48.988 Y25.932 E2.77496
G1 X-49.297 Y25.518 E2.80073
G1 X-49.634 Y24.999 E2.8316
G1 X-49.857 Y24.549 E2.85666
G1 X-50.211 Y23.729 E2.90122
G1 X-50.419 Y23.146 E2.9321
G1 X-50.51 Y22.771 E2.95135
G1 X-50.647 Y22.088 E2.9861
G1 X-50.723 Y21.564 E3.01252
G1 X-50.995 Y18.465 E3.16772
G1 X-51.704 Y13.119 E3.43677
G1 X-52.715 Y7.822 E3.70581
G1 X-53.322 Y5.237 E3.83829
G1 X-54.794 Y-0.015 E4.11041
G1 X-56.484 Y-5.179 E4.38148
G1 X-56.638 Y-5.779 E4.41239
G1 X-56.714 Y-6.394 E4.4433
G1 X-56.718 Y-6.878 E4.46745
G1 X-56.67 Y-7.994 E4.52318
G1 X-56.545 Y-8.892 E4.56841
G1 X-55.23 Y-14.457 E4.8537
G1 X-54.73 Y-17.061 E4.98599
G1 X-53.94 Y-22.394 E5.25495
G1 X-53.406 Y-28.385 E5.55503
G1 X-53.311 Y-28.997 E5.58593
G1 X-53.139 Y-29.592 E5.61683
G1 X-52.891 Y-30.159 E5.64771
G1 X-52.572 Y-30.69 E5.67861
G1 X-52.151 Y-31.215 E5.71218
G1 X-51.946 Y-31.437 E5.72726
G1 X-51.498 Y-31.864 E5.75814
G1 X-50.998 Y-32.23 E5.78905
G1 X-50.435 Y-32.538 E5.82107
G1 X-48.037 Y-33.647 E5.95288
G1 X-43.221 Y-36.105 E6.22263
G1 X-38.581 Y-38.814 E6.49069
G1 X-34.074 Y-41.8 E6.76042
G1 X-29.778 Y-45.009 E7.02794
G1 X-25.128 Y-48.927 E7.3313
G1 X-24.629 Y-49.294 E7.3622
G1 X-24.305 Y-49.485 E7.38097
G1 X-23.53 Y-49.901 E7.42485
G1 X-22.967 Y-50.158 E7.45573
G1 X-22.335 Y-50.35 E7.48868
G1 X-21.678 Y-50.501 E7.52231
G1 X-20.848 Y-50.617 E7.56412
G1 X-17.061 Y-50.811 E7.75331
G1 X-11.655 Y-51.339 E8.0243
G1 X-9.039 Y-51.707 E8.15609
G1 X-3.319 Y-52.741 E8.44609
G1 X-2.465 Y-52.818 E8.48887
G1 X2.461 Y-52.818 E8.73463
G1 X3.281 Y-52.747 E8.77569
G1 X10.47 Y-51.5 E9.13971
G1 X15.819 Y-50.91 E9.40819
G1 X21.097 Y-50.596 E9.67198
G1 X21.712 Y-50.519 E9.7029
G1 X22.227 Y-50.391 E9.72937
G1 X22.872 Y-50.192 E9.76305
G1 X23.587 Y-49.907 E9.80145
G1 X30.088 Y-46.688 E10.16337
G1 X35.097 Y-44.597 E10.43417
G1 X37.53 Y-43.703 E10.56349
G1 X42.702 Y-42.044 E10.83447
G1 X47.921 Y-40.691 E11.10345
G1 X50.585 Y-40.117 E11.23941
G1 X53.152 Y-39.644 E11.36963
G1 X58.509 Y-38.884 E11.63957
G1 X63.883 Y-38.431 E11.90863
G1 X69.26 Y-38.283 E12.17699
G1 X74.648 Y-38.439 E12.44592
G1 X80.802 Y-38.947 E12.75398
G1 X81.67 Y-38.94 E12.79729
G1 X86.833 Y-38.429 E13.05613
G1 X87.444 Y-38.328 E13.08703
G1 X87.755 Y-38.245 E13.10309
G1 X92.756 Y-36.726 E13.36384
G1 X93.336 Y-36.508 E13.39476
G1 X93.623 Y-36.367 E13.41071
G1 X98.214 Y-33.914 E13.6704
G1 X98.74 Y-33.587 E13.7013
G1 X99 Y-33.388 E13.71763
G1 X103.086 Y-30.03 E13.98149
G1 X103.538 Y-29.607 E14.01238
G1 X103.75 Y-29.366 E14.02839
G1 X107.036 Y-25.359 E14.28693
G1 X107.397 Y-24.855 E14.31786
G1 X107.558 Y-24.577 E14.33388
G1 X110.018 Y-19.973 E14.59431
G1 X110.274 Y-19.409 E14.62521
G1 X110.379 Y-19.099 E14.64154
G1 X111.904 Y-14.052 E14.90458
G1 X112.044 Y-13.449 E14.93546
G1 X112.086 Y-13.133 E14.95137
G1 X112.592 Y-7.974 E15.20999
G1 X112.613 Y-7.355 E15.24089
G1 X112.592 Y-7.035 E15.25689
G1 X112.082 Y-1.852 E15.51672
G1 X111.982 Y-1.241 E15.5476
G1 X111.899 Y-.93 E15.56366
G1 X110.377 Y4.092 E15.82547
G1 X110.159 Y4.672 E15.85638
G1 X110.017 Y4.961 E15.87244
G1 X107.563 Y9.556 E16.13233
G1 X107.237 Y10.083 E16.16325
G1 X107.04 Y10.339 E16.17936
G1 X103.711 Y14.397 E16.44123
G1 X103.288 Y14.85 E16.47215
G1 X103.045 Y15.064 E16.4883
G1 X99.022 Y18.365 E16.74793
G1 X98.519 Y18.726 E16.77882
G1 X98.237 Y18.889 E16.79507
G1 X93.584 Y21.372 E17.05819
G1 X93.02 Y21.627 E17.08907
G1 X92.715 Y21.731 E17.10515
G1 X87.744 Y23.236 E17.36427
G1 X87.141 Y23.377 E17.39517
G1 X86.822 Y23.419 E17.41122
G1 X81.605 Y23.931 E17.67275
G1 X80.986 Y23.952 E17.70365
G1 X80.662 Y23.931 E17.71984
G1 X72.501 Y23.121 E18.129
G1 X67.085 Y22.819 E18.39962
G1 X61.706 Y22.823 E18.66798
G1 X56.337 Y23.131 E18.93628
G1 X50.976 Y23.744 E19.20549
G1 X45.653 Y24.661 E19.47496
G1 X43.058 Y25.222 E19.60742
G1 X40.461 Y25.86 E19.74084
G1 X35.228 Y27.385 E20.01277
G1 X31.544 Y28.631 E20.2068
G1 X30.698 Y28.834 E20.2502
G1 X30.21 Y28.905 E20.2748
G1 X29.593 Y28.954 E20.30568
G1 X29.066 Y28.934 E20.332
G1 X20.962 Y28.166 E20.73812
G1 X15.606 Y27.983 E21.00548
G1 X10.213 Y28.103 E21.27461
G1 X4.847 Y28.528 E21.54316
G0 F1800 X4.814 Y28.13
G1 F1500 X-.558 Y28.862 E21.81365
G1 X-5.881 Y29.897 E22.08418
G1 X-8.441 Y30.508 E22.21549
G1 X-14.076 Y32.121 E22.50791
G1 X-14.352 Y32.191 E22.52212
G1 X-15.594 Y32.461 E22.58553
G1 X-16.181 Y32.547 E22.61513
G1 X-16.704 Y32.558 E22.64123
G1 X-17.257 Y32.536 E22.66884
G1 X-17.846 Y32.472 E22.6984
G1 X-18.137 Y32.411 E22.71323
G1 X-25.295 Y30.644 E23.08106
G1 X-27.82 Y30.141 E23.20951
G1 X-33.222 Y29.299 E23.48227
G1 X-38.611 Y28.769 E23.75243
G1 X-43.243 Y28.542 E23.9838
G1 X-43.947 Y28.45 E24.01922
G1 X-44.645 Y28.301 E24.05483
G1 X-45.215 Y28.138 E24.0844
G1 X-45.776 Y27.891 E24.11498
G1 X-46.712 Y27.398 E24.16776
G1 X-47.217 Y27.087 E24.19735
G1 X-47.653 Y26.732 E24.2254
G1 X-48.132 Y26.288 E24.25799
G1 X-48.667 Y25.693 E24.29791
G1 X-48.976 Y25.279 E24.32368
G1 X-49.298 Y24.781 E24.35327
G1 X-49.49 Y24.391 E24.37495
G1 X-49.844 Y23.571 E24.41951
G1 X-50.041 Y23.012 E24.44908
G1 X-50.118 Y22.692 E24.4655
G1 X-50.255 Y22.009 E24.50026
G1 X-50.324 Y21.529 E24.52445
G1 X-50.595 Y18.447 E24.67881
G1 X-51.312 Y13.043 E24.95077
G1 X-52.326 Y7.725 E25.22087
G1 X-52.929 Y5.157 E25.35247
G1 X-54.413 Y-.135 E25.62668
G1 X-56.104 Y-5.304 E25.89801
G1 X-56.25 Y-5.878 E25.92756
G1 X-56.317 Y-6.468 E25.95718
G1 X-56.318 Y-6.861 E25.97679
G1 X-56.27 Y-7.977 E26.03252
G1 X-56.156 Y-8.8 E26.07397
G1 X-54.837 Y-14.381 E26.36008
G1 X-54.334 Y-17 E26.49313
G1 X-53.544 Y-22.334 E26.76214
G1 X-53.008 Y-28.349 E27.06342
G1 X-52.915 Y-28.935 E27.09302
G1 X-52.745 Y-29.503 E27.1226
G1 X-52.5 Y-30.043 E27.15219
G1 X-52.185 Y-30.545 E27.18176
G1 X-51.858 Y-30.944 E27.20749
G1 X-51.653 Y-31.166 E27.22257
G1 X-51.222 Y-31.574 E27.25218
G1 X-50.74 Y-31.919 E27.28175
G1 X-50.267 Y-32.175 E27.30858
G1 X-47.866 Y-33.285 E27.44055
G1 X-43.038 Y-35.749 E27.71098
G1 X-38.351 Y-38.486 E27.98176
G1 X-33.859 Y-41.461 E28.25056
G1 X-29.518 Y-44.705 E28.52093
G1 X-24.87 Y-48.621 E28.82415
G1 X-24.392 Y-48.971 E28.8537
G1 X-24.116 Y-49.133 E28.86967
G1 X-23.341 Y-49.549 E28.91355
G1 X-22.801 Y-49.793 E28.94312
G1 X-22.246 Y-49.96 E28.97203
G1 X-21.589 Y-50.111 E29.00566
G1 X-20.828 Y-50.217 E29.044
G1 X-17.044 Y-50.411 E29.23303
G1 X-11.607 Y-50.942 E29.50557
G1 X-8.99 Y-51.31 E29.63742
G1 X-3.248 Y-52.348 E29.92853
G1 X-2.465 Y-52.418 E29.96775
G1 X2.461 Y-52.418 E30.21351
G1 X3.213 Y-52.353 E30.25117
G1 X10.424 Y-51.103 E30.61629
G1 X15.79 Y-50.511 E30.88563
G1 X21.074 Y-50.196 E31.14972
G1 X21.662 Y-50.121 E31.17929
G1 X22.109 Y-50.008 E31.20229
G1 X22.754 Y-49.809 E31.23597
G1 X23.409 Y-49.548 E31.27114
G1 X29.923 Y-46.323 E31.63378
G1 X34.945 Y-44.226 E31.90529
G1 X37.389 Y-43.329 E32.03518
G1 X42.585 Y-41.662 E32.30742
G1 X47.838 Y-40.299 E32.57817
G1 X50.487 Y-39.729 E32.71335
G1 X53.097 Y-39.247 E32.84577
G1 X58.472 Y-38.486 E33.1166
G1 X63.857 Y-38.032 E33.38622
G1 X69.26 Y-37.883 E33.65587
G1 X74.674 Y-38.04 E33.92609
G1 X80.835 Y-38.548 E34.23451
G1 X81.63 Y-38.542 E34.27417
G1 X86.793 Y-38.031 E34.53302
G1 X87.639 Y-37.862 E34.57606
G1 X92.64 Y-36.343 E34.83681
G1 X93.435 Y-36.014 E34.87974
G1 X98.026 Y-33.561 E35.13943
G1 X98.746 Y-33.079 E35.18266
G1 X102.832 Y-29.721 E35.44652
G1 X103.44 Y-29.112 E35.48945
G1 X106.726 Y-25.105 E35.74798
G1 X107.205 Y-24.389 E35.79096
G1 X109.665 Y-19.785 E36.05139
G1 X109.996 Y-18.984 E36.09463
G1 X111.521 Y-13.937 E36.35767
G1 X111.688 Y-13.093 E36.40059
G1 X112.194 Y-7.934 E36.65921
G1 X112.194 Y-7.074 E36.70211
G1 X111.684 Y-1.891 E36.96194
G1 X111.516 Y-1.046 E37.00493
G1 X109.994 Y3.976 E37.26673
G1 X109.664 Y4.773 E37.30977
G1 X107.21 Y9.368 E37.56966
G1 X106.731 Y10.086 E37.61272
G1 X103.402 Y14.144 E37.87458
G1 X102.791 Y14.754 E37.91765
G1 X98.768 Y18.055 E38.17728
G1 X98.048 Y18.536 E38.22048
G1 X93.395 Y21.019 E38.4836
G1 X92.599 Y21.348 E38.52657
G1 X87.628 Y22.853 E38.78569
G1 X86.783 Y23.021 E38.82868
G1 X81.566 Y23.533 E39.0902
G1 X80.701 Y23.532 E39.13336
G1 X72.539 Y22.722 E39.54256
G1 X67.107 Y22.419 E39.81399
G1 X61.701 Y22.423 E40.08369
G1 X56.286 Y22.734 E40.3543
G1 X50.933 Y23.346 E40.6231
G1 X45.574 Y24.269 E40.8944
G1 X42.976 Y24.83 E41.027
G1 X40.35 Y25.476 E41.16192
G1 X35.108 Y27.004 E41.43432
G1 X31.416 Y28.252 E41.62876
G1 X30.64 Y28.438 E41.66857
G1 X30.152 Y28.509 E41.69317
G1 X29.561 Y28.555 E41.72275
G1 X29.104 Y28.535 E41.74557
G1 X20.997 Y27.766 E42.15184
G1 X15.611 Y27.583 E42.42071
G1 X10.191 Y27.703 E42.69118
G1 X4.814 Y28.13 E42.96028
G0 F1800 X4.765 Y27.732
G1 F1500 X-.617 Y28.466 E43.23128
G1 X-5.959 Y29.505 E43.50278
G1 X-8.537 Y30.12 E43.63501
G1 X-14.187 Y31.737 E43.92821
G1 X-14.437 Y31.8 E43.94107
G1 X-15.679 Y32.07 E44.00448
G1 X-16.239 Y32.15 E44.0327
G1 X-16.688 Y32.158 E44.05511
G1 X-17.241 Y32.136 E44.08272
G1 X-18.041 Y32.022 E44.12303
G1 X-25.186 Y30.258 E44.4902
G1 X-27.777 Y29.742 E44.62201
G1 X-33.156 Y28.904 E44.8936
G1 X-38.593 Y28.369 E45.16616
G1 X-43.224 Y28.142 E45.39748
G1 X-43.863 Y28.059 E45.42963
G1 X-44.561 Y27.91 E45.46524
G1 X-45.104 Y27.753 E45.49344
G1 X-45.59 Y27.537 E45.51997
G1 X-46.526 Y27.044 E45.57275
G1 X-47.006 Y26.746 E45.60094
G1 X-47.381 Y26.439 E45.62512
G1 X-47.86 Y25.995 E45.6577
G1 X-48.347 Y25.454 E45.69402
G1 X-48.656 Y25.04 E45.71979
G1 X-48.961 Y24.564 E45.748
G1 X-49.122 Y24.232 E45.7664
G1 X-49.476 Y23.412 E45.81096
G1 X-49.726 Y22.614 E45.85268
G1 X-49.863 Y21.931 E45.88744
G1 X-49.926 Y21.494 E45.90946
G1 X-50.199 Y18.381 E46.06537
G1 X-50.915 Y12.986 E46.33689
G1 X-51.932 Y7.655 E46.60765
G1 X-52.549 Y5.027 E46.74232
G1 X-54.022 Y-.226 E47.01451
G1 X-55.724 Y-5.428 E47.28757
G1 X-55.861 Y-5.976 E47.31575
G1 X-55.92 Y-6.539 E47.344
G1 X-55.918 Y-6.844 E47.35921
G1 X-55.87 Y-7.96 E47.41494
G1 X-55.767 Y-8.708 E47.45261
G1 X-54.443 Y-14.31 E47.7398
G1 X-53.944 Y-16.909 E47.87183
G1 X-53.144 Y-22.309 E48.14418
G1 X-52.609 Y-28.314 E48.44495
G1 X-52.519 Y-28.872 E48.47315
G1 X-52.352 Y-29.412 E48.50135
G1 X-52.11 Y-29.923 E48.52956
G1 X-51.798 Y-30.394 E48.55775
G1 X-51.564 Y-30.673 E48.57591
G1 X-51.359 Y-30.895 E48.59099
G1 X-50.947 Y-31.282 E48.61919
G1 X-50.484 Y-31.607 E48.64741
G1 X-50.099 Y-31.812 E48.66917
G1 X-47.695 Y-32.924 E48.80132
G1 X-42.833 Y-35.405 E49.07364
G1 X-38.154 Y-38.137 E49.34396
G1 X-33.612 Y-41.146 E49.61577
G1 X-29.276 Y-44.385 E49.88579
G1 X-24.612 Y-48.315 E50.19007
G1 X-23.927 Y-48.78 E50.23137
G1 X-23.152 Y-49.196 E50.27526
G1 X-22.636 Y-49.428 E50.30348
G1 X-22.156 Y-49.57 E50.32846
G1 X-21.499 Y-49.721 E50.36209
G1 X-20.807 Y-49.818 E50.39695
G1 X-17.007 Y-50.013 E50.58678
G1 X-11.559 Y-50.545 E50.85988
G1 X-8.916 Y-50.916 E50.99303
G1 X-3.177 Y-51.954 E51.28399
G1 X-2.465 Y-52.018 E51.31966
G1 X2.461 Y-52.018 E51.56542
G1 X3.144 Y-51.959 E51.59962
G1 X10.359 Y-50.708 E51.96495
G1 X15.762 Y-50.112 E52.23614
G1 X21.05 Y-49.797 E52.50043
G1 X21.61 Y-49.724 E52.5286
G1 X21.991 Y-49.626 E52.54823
G1 X22.636 Y-49.427 E52.58191
G1 X23.232 Y-49.19 E52.6139
G1 X29.764 Y-45.956 E52.97754
G1 X34.793 Y-43.856 E53.24944
G1 X37.27 Y-42.947 E53.38107
G1 X42.472 Y-41.278 E53.65363
G1 X47.745 Y-39.91 E53.92541
G1 X50.402 Y-39.338 E54.06101
G1 X53.041 Y-38.851 E54.19489
G1 X58.416 Y-38.089 E54.46573
G1 X63.847 Y-37.632 E54.73764
G1 X69.261 Y-37.482 E55.00785
G1 X74.7 Y-37.64 E55.27932
G1 X80.868 Y-38.149 E55.58809
G1 X81.591 Y-38.144 E55.62416
G1 X86.754 Y-37.633 E55.883
G1 X87.523 Y-37.479 E55.92213
G1 X92.524 Y-35.96 E56.18288
G1 X93.246 Y-35.661 E56.22187
G1 X97.837 Y-33.208 E56.48156
G1 X98.492 Y-32.77 E56.52087
G1 X102.578 Y-29.412 E56.78473
G1 X103.131 Y-28.858 E56.82379
G1 X106.417 Y-24.851 E57.08232
G1 X106.852 Y-24.2 E57.12138
G1 X109.312 Y-19.596 E57.38181
G1 X109.613 Y-18.868 E57.42111
G1 X111.138 Y-13.821 E57.68415
G1 X111.29 Y-13.054 E57.72316
G1 X111.796 Y-7.895 E57.98178
G1 X111.796 Y-7.113 E58.02079
G1 X111.286 Y-1.93 E58.28062
G1 X111.133 Y-1.162 E58.31969
G1 X109.611 Y3.86 E58.58149
G1 X109.311 Y4.584 E58.62059
G1 X106.857 Y9.179 E58.88048
G1 X106.422 Y9.832 E58.91963
G1 X103.093 Y13.89 E59.18149
G1 X102.537 Y14.445 E59.22068
G1 X98.514 Y17.746 E59.48031
G1 X97.86 Y18.183 E59.51955
G1 X93.207 Y20.666 E59.78267
G1 X92.483 Y20.965 E59.82175
G1 X87.512 Y22.47 E60.08088
G1 X86.744 Y22.623 E60.11994
G1 X81.527 Y23.135 E60.38147
G1 X80.741 Y23.134 E60.42069
G1 X72.579 Y22.324 E60.82989
G1 X67.111 Y22.019 E61.10311
G1 X61.677 Y22.023 E61.37422
G1 X56.271 Y22.333 E61.64437
G1 X50.872 Y22.951 E61.91548
G1 X45.491 Y23.878 E62.1879
G1 X42.875 Y24.443 E62.32142
G1 X40.256 Y25.087 E62.45597
G1 X34.987 Y26.622 E62.72977
G1 X31.288 Y27.873 E62.92458
G1 X30.583 Y28.042 E62.96075
G1 X30.095 Y28.113 E62.98536
G1 X29.531 Y28.155 E63.01357
G1 X29.141 Y28.137 E63.03305
G1 X21.031 Y27.368 E63.43947
G1 X15.599 Y27.183 E63.71064
G1 X10.167 Y27.304 E63.98171
G1 X4.765 Y27.732 E64.25206
G0 F1800 X4.715 Y27.335
G1 F1500 X-.679 Y28.071 E64.52366
G1 X-6.054 Y29.116 E64.79684
G1 X-8.648 Y29.736 E64.9299
G1 X-14.297 Y31.352 E65.22303
G1 X-14.522 Y31.409 E65.23461
G1 X-15.764 Y31.679 E65.29803
G1 X-16.295 Y31.753 E65.32477
G1 X-16.672 Y31.758 E65.34358
G1 X-17.225 Y31.736 E65.37119
G1 X-17.945 Y31.634 E65.40747
G1 X-25.099 Y29.867 E65.77511
G1 X-27.711 Y29.348 E65.90798
G1 X-33.107 Y28.507 E66.18043
G1 X-38.555 Y27.971 E66.45355
G1 X-43.204 Y27.743 E66.68577
G1 X-43.78 Y27.668 E66.71474
G1 X-44.478 Y27.519 E66.75035
G1 X-44.992 Y27.368 E66.77708
G1 X-45.404 Y27.183 E66.79961
G1 X-46.34 Y26.69 E66.85239
G1 X-46.794 Y26.406 E66.87911
G1 X-47.109 Y26.145 E66.89952
G1 X-47.588 Y25.701 E66.9321
G1 X-48.026 Y25.214 E66.96478
G1 X-48.335 Y24.8 E66.99055
G1 X-48.623 Y24.348 E67.01729
G1 X-48.755 Y24.074 E67.03246
G1 X-49.109 Y23.254 E67.07702
G1 X-49.334 Y22.535 E67.11461
G1 X-49.471 Y21.852 E67.14936
G1 X-49.527 Y21.459 E67.16917
G1 X-49.799 Y18.359 E67.32442
G1 X-50.522 Y12.913 E67.59851
G1 X-51.539 Y7.58 E67.86937
G1 X-52.163 Y4.924 E68.00548
G1 X-53.64 Y-.346 E68.27854
G1 X-55.344 Y-5.553 E68.55187
G1 X-55.472 Y-6.073 E68.57859
G1 X-55.519 Y-6.827 E68.61628
G1 X-55.471 Y-7.943 E68.67201
G1 X-55.377 Y-8.616 E68.70591
G1 X-54.059 Y-14.19 E68.99167
G1 X-53.545 Y-16.872 E69.12791
G1 X-52.748 Y-22.249 E69.3991
G1 X-52.211 Y-28.278 E69.70108
G1 X-52.124 Y-28.808 E69.72787
G1 X-51.959 Y-29.318 E69.75461
G1 X-51.72 Y-29.798 E69.78137
G1 X-51.27 Y-30.401 E69.8189
G1 X-51.065 Y-30.623 E69.83398
G1 X-50.673 Y-30.989 E69.86074
G1 X-50.231 Y-31.293 E69.8875
G1 X-49.931 Y-31.448 E69.90435
G1 X-47.545 Y-32.551 E70.03549
G1 X-42.642 Y-35.054 E70.31013
G1 X-37.932 Y-37.804 E70.58223
G1 X-33.398 Y-40.807 E70.85355
