;FLAVOR:Marlin
;TIME:2529
;Filament used: 1.39916m
;Layer height: 0.1
;Generated with Cura_SteamEngine 1.1.0
M190 S60
M104 S230
M109 S230
G28
G1 Z50.00 F400
G92 E0
G1 F200 E3
G92 E0
M132 X Y Z A
M907 X100 Y100 Z50 A100
;LAYER_COUNT:22
;LAYER:0
M107
G0 F3600 X38.049 Y-11.971 Z0.3
;TYPE:SKIRT
G1 F1500 X40.238 Y-7.054 E0.26852
G1 X42.701 Y-2.269 E0.53702
G1 X46.355 Y3.861 E0.89305
G1 X46.637 Y4.413 E0.92398
G1 X46.846 Y4.996 E0.95488
G1 X46.978 Y5.601 E0.98577
G1 X47.017 Y5.937 E1.00265
G1 X47.452 Y11.386 E1.27536
G1 X48.165 Y16.706 E1.54315
G1 X49.193 Y22.054 E1.81485
G1 X49.797 Y24.607 E1.94573
G1 X50.494 Y27.223 E2.0808
G1 X52.037 Y32.352 E2.34802
G1 X52.177 Y32.955 E2.3789
G1 X52.238 Y33.572 E2.40983
G1 X52.219 Y34.191 E2.44073
G1 X52.121 Y34.802 E2.4716
G1 X51.945 Y35.396 E2.50251
G1 X51.632 Y36.076 E2.53986
G1 X50.687 Y37.768 E2.63654
G1 X50.471 Y38.118 E2.65706
G1 X49.342 Y39.786 E2.75755
G1 X49.105 Y40.106 E2.77742
G1 X47.942 Y41.55 E2.86992
G1 X47.623 Y41.908 E2.89384
G1 X45.672 Y43.888 E3.03252
G1 X45.318 Y44.213 E3.0565
G1 X43.903 Y45.387 E3.14823
G1 X43.599 Y45.619 E3.1673
G1 X42.069 Y46.695 E3.26062
G1 X41.743 Y46.906 E3.28
G1 X40.163 Y47.836 E3.37146
G1 X39.738 Y48.058 E3.39539
G1 X37.192 Y49.232 E3.53526
G1 X36.823 Y49.384 E3.55517
G1 X29.324 Y52.112 E3.95328
G1 X28.729 Y52.286 E3.98421
G1 X28.425 Y52.343 E3.99964
G1 X25.634 Y52.78 E4.14058
G1 X20.275 Y53.796 E4.41271
G1 X17.679 Y54.403 E4.54571
G1 X12.474 Y55.856 E4.81532
G1 X7.364 Y57.599 E5.08468
G1 X1.397 Y60.015 E5.40585
G1 X1.219 Y60.083 E5.41536
G1 X-6.555 Y62.876 E5.82748
G1 X-7.15 Y63.048 E5.85838
G1 X-7.962 Y63.154 E5.89923
G1 X-8.893 Y63.196 E5.94573
G1 X-9.512 Y63.184 E5.97662
G1 X-10.351 Y63.037 E6.01911
G1 X-11.355 Y62.768 E6.07097
G1 X-11.942 Y62.57 E6.10188
G1 X-12.639 Y62.214 E6.14092
G1 X-13.358 Y61.769 E6.18311
G1 X-13.863 Y61.409 E6.21405
G1 X-14.483 Y60.803 E6.2573
G1 X-15.228 Y59.93 E6.31456
G1 X-15.599 Y59.434 E6.34546
G1 X-16.023 Y58.623 E6.39112
G1 X-18.667 Y52.124 E6.74116
G1 X-20.98 Y47.258 E7.00996
G1 X-23.557 Y42.547 E7.27786
G1 X-26.412 Y37.962 E7.54732
G1 X-29.507 Y33.568 E7.81546
G1 X-32.856 Y29.341 E8.08452
G1 X-36.415 Y25.338 E8.35175
G1 X-41.04 Y20.76 E8.67641
G1 X-42.464 Y19.377 E8.77545
G1 X-42.88 Y18.918 E8.80635
G1 X-43.16 Y18.525 E8.83042
G1 X-43.498 Y17.998 E8.86166
G1 X-43.798 Y17.457 E8.89252
G1 X-43.986 Y17 E8.91718
G1 X-44.309 Y16.082 E8.96573
G1 X-44.476 Y15.486 E8.99661
G1 X-44.58 Y14.59 E9.04161
G1 X-44.603 Y13.502 E9.0959
G1 X-44.576 Y12.884 E9.12676
G1 X-44.466 Y12.257 E9.15852
G1 X-43.742 Y9.307 E9.31007
G1 X-42.628 Y3.952 E9.58295
G1 X-42.207 Y1.376 E9.71317
G1 X-41.553 Y-4.04 E9.98534
G1 X-41.25 Y-7.529 E10.16006
G1 X-41.157 Y-8.141 E10.19094
G1 X-40.985 Y-8.736 E10.22184
G1 X-40.69 Y-9.397 E10.25796
G1 X-38.095 Y-14.192 E10.52997
G1 X-35.809 Y-19.053 E10.79796
G1 X-33.769 Y-24.109 E11.06996
G1 X-32.91 Y-26.54 E11.1986
G1 X-31.313 Y-31.733 E11.46965
G1 X-29.87 Y-37.622 E11.77215
G1 X-29.816 Y-37.823 E11.78253
G1 X-29.129 Y-40.18 E11.90501
G1 X-29.017 Y-40.519 E11.92283
G1 X-28.478 Y-41.96 E11.99958
G1 X-28.368 Y-42.227 E12.01399
G1 X-27.697 Y-43.737 E12.09643
G1 X-27.567 Y-44.007 E12.11138
G1 X-26.773 Y-45.53 E12.19707
G1 X-26.598 Y-45.838 E12.21474
G1 X-25.454 Y-47.686 E12.32317
G1 X-25.267 Y-47.966 E12.33997
G1 X-24.342 Y-49.249 E12.41888
G1 X-24.109 Y-49.546 E12.43771
G1 X-22.427 Y-51.53 E12.56748
G1 X-22.132 Y-51.848 E12.58912
G1 X-20.538 Y-53.416 E12.70067
G1 X-20.225 Y-53.698 E12.72169
G1 X-18.364 Y-55.232 E12.84201
G1 X-18.07 Y-55.456 E12.86045
G1 X-16.675 Y-56.436 E12.94551
G1 X-16.381 Y-56.627 E12.963
G1 X-14.483 Y-57.763 E13.07335
G1 X-14.105 Y-57.966 E13.09476
G1 X-11.817 Y-59.071 E13.22152
G1 X-11.337 Y-59.272 E13.24749
G1 X-8.283 Y-60.357 E13.40918
G1 X-7.817 Y-60.497 E13.43346
G1 X-5.671 Y-61.022 E13.54368
G1 X-5.323 Y-61.093 E13.5614
G1 X-3.735 Y-61.359 E13.64173
G1 X-3.38 Y-61.405 E13.65959
G1 X-.937 Y-61.629 E13.78198
G1 X-.425 Y-61.648 E13.80754
G1 X2.809 Y-61.598 E13.9689
G1 X3.305 Y-61.565 E13.9937
G1 X5.579 Y-61.293 E14.10796
G1 X6.005 Y-61.223 E14.1295
G1 X8.429 Y-60.709 E14.25312
G1 X8.928 Y-60.574 E14.27892
G1 X12.04 Y-59.554 E14.4423
G1 X12.494 Y-59.379 E14.46657
G1 X14.488 Y-58.493 E14.57543
G1 X14.871 Y-58.303 E14.59676
G1 X17.048 Y-57.093 E14.72102
G1 X17.363 Y-56.901 E14.73943
G1 X18.708 Y-56.012 E14.81986
G1 X18.939 Y-55.85 E14.83394
G1 X20.186 Y-54.916 E14.91167
G1 X20.418 Y-54.73 E14.9265
G1 X21.751 Y-53.596 E15.01382
G1 X22.012 Y-53.357 E15.03147
G1 X23.557 Y-51.833 E15.13974
G1 X23.842 Y-51.526 E15.16064
G1 X25.44 Y-49.647 E15.2837
G1 X25.67 Y-49.355 E15.30225
G1 X26.667 Y-47.98 E15.38698
G1 X26.865 Y-47.685 E15.40471
G1 X28.03 Y-45.799 E15.5153
G1 X28.197 Y-45.505 E15.53217
G1 X28.944 Y-44.08 E15.61244
G1 X29.104 Y-43.743 E15.63105
G1 X30.067 Y-41.498 E15.75293
G1 X30.2 Y-41.152 E15.77142
G1 X30.75 Y-39.535 E15.85663
G1 X30.85 Y-39.202 E15.87398
G1 X31.404 Y-37.08 E15.98339
G1 X31.491 Y-36.68 E16.00382
G1 X32.638 Y-30.005 E16.34171
G1 X33.827 Y-24.708 E16.61256
G1 X34.507 Y-22.185 E16.74292
G1 X36.147 Y-16.988 E17.01481
G1 X38.049 Y-11.971 E17.28249
G0 F3600 X37.679 Y-11.818
G1 F1500 X39.881 Y-6.872 E17.5526
G1 X42.346 Y-2.085 E17.82122
G1 X46.012 Y4.066 E18.17847
G1 X46.28 Y4.595 E18.20805
G1 X46.475 Y5.155 E18.23764
G1 X46.618 Y5.969 E18.27887
G1 X47.052 Y11.415 E18.55143
G1 X47.772 Y16.78 E18.82149
G1 X48.8 Y22.129 E19.09324
G1 X49.408 Y24.697 E19.2249
G1 X50.112 Y27.343 E19.3615
G1 X51.654 Y32.467 E19.62846
G1 X51.787 Y33.045 E19.65805
G1 X51.84 Y33.636 E19.68766
G1 X51.813 Y34.228 E19.71722
G1 X51.707 Y34.811 E19.74679
G1 X51.524 Y35.375 E19.77637
G1 X51.282 Y35.88 E19.80431
G1 X50.337 Y37.572 E19.90099
G1 X50.14 Y37.893 E19.91978
G1 X49.011 Y39.561 E20.02027
G1 X48.794 Y39.855 E20.0385
G1 X47.631 Y41.299 E20.131
G1 X47.338 Y41.627 E20.15295
G1 X45.387 Y43.607 E20.29163
G1 X45.063 Y43.905 E20.31359
G1 X43.648 Y45.079 E20.40532
G1 X43.369 Y45.292 E20.42283
G1 X41.839 Y46.368 E20.51615
G1 X41.54 Y46.561 E20.5339
G1 X39.96 Y47.491 E20.62537
G1 X39.57 Y47.695 E20.64733
G1 X37.024 Y48.869 E20.7872
G1 X36.686 Y49.008 E20.80544
G1 X29.187 Y51.736 E21.20355
G1 X28.363 Y51.948 E21.246
G1 X25.558 Y52.387 E21.38764
G1 X20.183 Y53.406 E21.66058
G1 X17.593 Y54.012 E21.79328
G1 X12.347 Y55.477 E22.06502
G1 X7.228 Y57.223 E22.33486
G1 X1.247 Y59.644 E22.65677
G1 X1.084 Y59.707 E22.66549
G1 X-6.69 Y62.5 E23.07761
G1 X-7.261 Y62.662 E23.10722
G1 X-7.98 Y62.755 E23.14339
G1 X-8.911 Y62.797 E23.18988
G1 X-9.504 Y62.783 E23.21948
G1 X-10.248 Y62.651 E23.25717
G1 X-11.252 Y62.382 E23.30903
G1 X-11.813 Y62.19 E23.33861
G1 X-12.429 Y61.873 E23.37317
G1 X-13.148 Y61.428 E23.41536
G1 X-13.63 Y61.083 E23.44493
G1 X-14.179 Y60.543 E23.48335
G1 X-14.924 Y59.67 E23.54061
G1 X-15.278 Y59.194 E23.5702
G1 X-15.653 Y58.472 E23.61079
G1 X-18.303 Y51.959 E23.9616
G1 X-20.626 Y47.073 E24.23151
G1 X-23.212 Y42.344 E24.50041
G1 X-26.075 Y37.746 E24.77064
G1 X-29.189 Y33.326 E25.04039
G1 X-32.552 Y29.081 E25.31058
G1 X-36.125 Y25.062 E25.57887
G1 X-40.758 Y20.476 E25.9041
G1 X-42.185 Y19.09 E26.00334
G1 X-42.582 Y18.65 E26.03291
G1 X-42.824 Y18.309 E26.05377
G1 X-43.162 Y17.782 E26.085
G1 X-43.447 Y17.263 E26.11454
G1 X-43.609 Y16.867 E26.13589
G1 X-43.932 Y15.949 E26.18444
G1 X-44.09 Y15.378 E26.214
G1 X-44.18 Y14.582 E26.25397
G1 X-44.203 Y13.494 E26.30826
G1 X-44.176 Y12.902 E26.33782
G1 X-44.077 Y12.353 E26.36566
G1 X-43.359 Y9.427 E26.51596
G1 X-42.231 Y4.006 E26.79221
G1 X-41.812 Y1.443 E26.92178
G1 X-41.153 Y-4.018 E27.19621
G1 X-40.851 Y-7.494 E27.37028
G1 X-40.76 Y-8.08 E27.39986
G1 X-40.591 Y-8.648 E27.42943
G1 X-40.338 Y-9.207 E27.46004
G1 X-37.739 Y-14.01 E27.7325
G1 X-35.44 Y-18.897 E28.00194
G1 X-33.398 Y-23.959 E28.27426
G1 X-32.53 Y-26.415 E28.40422
G1 X-30.929 Y-31.621 E28.67595
G1 X-29.482 Y-37.527 E28.97932
G1 X-29.432 Y-37.711 E28.98883
G1 X-28.745 Y-40.068 E29.11131
G1 X-28.642 Y-40.378 E29.12761
G1 X-28.103 Y-41.819 E29.20437
G1 X-28.003 Y-42.065 E29.21761
G1 X-27.332 Y-43.575 E29.30005
G1 X-27.213 Y-43.822 E29.31373
G1 X-26.419 Y-45.345 E29.39942
G1 X-26.258 Y-45.627 E29.41562
G1 X-25.114 Y-47.475 E29.52405
G1 X-24.942 Y-47.732 E29.53948
G1 X-24.017 Y-49.015 E29.61839
G1 X-23.804 Y-49.287 E29.63563
G1 X-22.122 Y-51.271 E29.76539
G1 X-21.852 Y-51.563 E29.78524
G1 X-20.258 Y-53.131 E29.89679
G1 X-19.971 Y-53.389 E29.91604
G1 X-18.11 Y-54.923 E30.03636
G1 X-17.84 Y-55.128 E30.05328
G1 X-16.445 Y-56.108 E30.13833
G1 X-16.176 Y-56.283 E30.15434
G1 X-14.278 Y-57.419 E30.2647
G1 X-13.932 Y-57.606 E30.28432
G1 X-11.644 Y-58.711 E30.41108
G1 X-11.203 Y-58.895 E30.43492
G1 X-8.149 Y-59.98 E30.59662
G1 X-7.722 Y-60.108 E30.61886
G1 X-5.576 Y-60.633 E30.72908
G1 X-5.257 Y-60.699 E30.74533
G1 X-3.669 Y-60.965 E30.82566
G1 X-3.344 Y-61.007 E30.84201
G1 X-.901 Y-61.231 E30.9644
G1 X-.431 Y-61.248 E30.98787
G1 X2.803 Y-61.198 E31.14923
G1 X3.258 Y-61.168 E31.17198
G1 X5.532 Y-60.896 E31.28624
G1 X5.922 Y-60.831 E31.30596
G1 X8.346 Y-60.317 E31.42959
G1 X8.803 Y-60.194 E31.4532
G1 X11.915 Y-59.174 E31.61658
G1 X12.332 Y-59.014 E31.63887
G1 X14.326 Y-58.128 E31.74773
G1 X14.677 Y-57.953 E31.76729
G1 X16.854 Y-56.743 E31.89155
G1 X17.142 Y-56.568 E31.90837
G1 X18.487 Y-55.679 E31.9888
G1 X18.699 Y-55.53 E32.00173
G1 X19.946 Y-54.596 E32.07946
G1 X20.159 Y-54.425 E32.09309
G1 X21.492 Y-53.291 E32.1804
G1 X21.731 Y-53.072 E32.19657
G1 X23.276 Y-51.548 E32.30484
G1 X23.538 Y-51.267 E32.32401
G1 X25.136 Y-49.388 E32.44707
G1 X25.346 Y-49.12 E32.46405
G1 X26.343 Y-47.745 E32.54879
G1 X26.524 Y-47.474 E32.56505
G1 X27.689 Y-45.588 E32.67564
G1 X27.843 Y-45.319 E32.69111
G1 X28.59 Y-43.894 E32.77138
G1 X28.737 Y-43.586 E32.78841
G1 X29.7 Y-41.341 E32.91028
G1 X29.822 Y-41.023 E32.92727
G1 X30.372 Y-39.406 E33.01248
G1 X30.463 Y-39.1 E33.02841
G1 X31.017 Y-36.978 E33.13782
G1 X31.096 Y-36.612 E33.15651
G1 X32.244 Y-29.932 E33.49466
G1 X33.434 Y-24.63 E33.76576
G1 X34.127 Y-22.058 E33.89865
G1 X35.765 Y-16.868 E34.17017
G1 X37.679 Y-11.818 E34.4396
G0 F3600 X37.311 Y-11.662
G1 F1500 X39.52 Y-6.699 E34.71063
G1 X41.997 Y-1.888 E34.98059
G1 X45.668 Y4.271 E35.33831
G1 X45.922 Y4.776 E35.36651
G1 X46.103 Y5.311 E35.39469
G1 X46.219 Y6.001 E35.4296
G1 X46.655 Y11.462 E35.70291
G1 X47.376 Y16.841 E35.97367
G1 X48.407 Y22.2 E36.24594
G1 X49.026 Y24.82 E36.38025
G1 X49.722 Y27.435 E36.51525
G1 X51.271 Y32.582 E36.78341
G1 X51.396 Y33.134 E36.81165
G1 X51.441 Y33.697 E36.83983
G1 X51.406 Y34.262 E36.86807
G1 X51.292 Y34.815 E36.89624
G1 X51.102 Y35.348 E36.92447
G1 X50.933 Y35.685 E36.94328
G1 X49.988 Y37.377 E37.03997
G1 X49.809 Y37.669 E37.05705
G1 X48.68 Y39.337 E37.15754
G1 X48.482 Y39.604 E37.17413
G1 X47.319 Y41.048 E37.26663
G1 X47.053 Y41.346 E37.28656
G1 X45.102 Y43.326 E37.42524
G1 X44.807 Y43.597 E37.44522
G1 X43.392 Y44.771 E37.53695
G1 X43.139 Y44.965 E37.55286
G1 X41.609 Y46.041 E37.64617
G1 X41.337 Y46.216 E37.66231
G1 X39.757 Y47.146 E37.75378
G1 X39.403 Y47.331 E37.77371
G1 X36.857 Y48.505 E37.91358
G1 X36.549 Y48.632 E37.9302
G1 X29.05 Y51.36 E38.32831
G1 X28.301 Y51.553 E38.3669
G1 X25.488 Y51.993 E38.50895
G1 X20.11 Y53.013 E38.78204
G1 X17.492 Y53.625 E38.91618
G1 X12.226 Y55.095 E39.18894
G1 X7.096 Y56.845 E39.45936
G1 X1.097 Y59.274 E39.78226
G1 X0.948 Y59.33 E39.7902
G1 X-6.826 Y62.123 E40.20232
G1 X-7.37 Y62.276 E40.23051
G1 X-7.998 Y62.355 E40.26209
G1 X-8.929 Y62.397 E40.30858
G1 X-9.494 Y62.382 E40.33678
G1 X-10.144 Y62.265 E40.36973
G1 X-11.148 Y61.996 E40.42159
G1 X-11.683 Y61.811 E40.44983
G1 X-12.218 Y61.533 E40.47991
G1 X-12.937 Y61.088 E40.52209
G1 X-13.396 Y60.758 E40.5503
G1 X-13.875 Y60.284 E40.58392
G1 X-14.62 Y59.411 E40.64117
G1 X-14.955 Y58.956 E40.66936
G1 X-15.282 Y58.321 E40.705
G1 X-17.932 Y51.808 E41.0558
G1 X-20.271 Y46.888 E41.32759
G1 X-22.871 Y42.133 E41.59796
G1 X-25.733 Y37.538 E41.86804
G1 X-28.872 Y33.082 E42.13997
G1 X-32.239 Y28.832 E42.41048
G1 X-35.835 Y24.787 E42.6805
G1 X-40.477 Y20.192 E43.00637
G1 X-41.907 Y18.803 E43.10582
G1 X-42.283 Y18.382 E43.13399
G1 X-42.487 Y18.093 E43.15163
G1 X-42.825 Y17.566 E43.18287
G1 X-43.096 Y17.07 E43.21107
G1 X-43.231 Y16.735 E43.22909
G1 X-43.554 Y15.817 E43.27764
G1 X-43.704 Y15.271 E43.30589
G1 X-43.78 Y14.574 E43.34087
G1 X-43.803 Y13.486 E43.39516
G1 X-43.775 Y12.921 E43.42338
G1 X-43.689 Y12.448 E43.44737
G1 X-42.964 Y9.493 E43.59917
G1 X-41.843 Y4.105 E43.87373
G1 X-41.414 Y1.482 E44.00633
G1 X-40.757 Y-3.966 E44.2801
G1 X-40.453 Y-7.459 E44.45503
G1 X-40.364 Y-8.018 E44.48327
G1 X-40.198 Y-8.558 E44.51145
G1 X-39.986 Y-9.017 E44.53668
G1 X-37.39 Y-13.815 E44.80884
G1 X-35.068 Y-18.75 E45.08094
G1 X-33.021 Y-23.823 E45.35386
G1 X-32.144 Y-26.305 E45.48519
G1 X-30.544 Y-31.509 E45.75681
G1 X-29.093 Y-37.432 E46.06105
G1 X-29.048 Y-37.599 E46.06968
G1 X-28.361 Y-39.956 E46.19217
G1 X-28.267 Y-40.238 E46.207
G1 X-27.728 Y-41.679 E46.28375
G1 X-27.637 Y-41.902 E46.29577
G1 X-26.966 Y-43.412 E46.37821
G1 X-26.858 Y-43.637 E46.39066
G1 X-26.064 Y-45.16 E46.47635
G1 X-25.918 Y-45.416 E46.49105
G1 X-24.774 Y-47.264 E46.59948
G1 X-24.618 Y-47.498 E46.61351
G1 X-23.693 Y-48.781 E46.69242
G1 X-23.499 Y-49.029 E46.70813
G1 X-21.817 Y-51.013 E46.8379
G1 X-21.571 Y-51.278 E46.85594
G1 X-19.977 Y-52.846 E46.96749
G1 X-19.716 Y-53.081 E46.98501
G1 X-17.855 Y-54.615 E47.10533
G1 X-17.61 Y-54.801 E47.12068
G1 X-16.215 Y-55.781 E47.20573
G1 X-15.97 Y-55.94 E47.2203
G1 X-14.072 Y-57.076 E47.33066
G1 X-13.758 Y-57.246 E47.34848
G1 X-11.47 Y-58.351 E47.47524
G1 X-11.069 Y-58.518 E47.49691
G1 X-8.015 Y-59.603 E47.65861
G1 X-7.627 Y-59.719 E47.67881
G1 X-5.481 Y-60.244 E47.78903
G1 X-5.191 Y-60.304 E47.80381
G1 X-3.603 Y-60.57 E47.88414
G1 X-3.307 Y-60.608 E47.89902
G1 X-.864 Y-60.832 E48.02142
G1 X-.437 Y-60.849 E48.04274
G1 X2.797 Y-60.799 E48.2041
G1 X3.21 Y-60.771 E48.22475
G1 X5.484 Y-60.499 E48.33901
G1 X5.839 Y-60.44 E48.35697
G1 X8.263 Y-59.926 E48.48059
G1 X8.679 Y-59.814 E48.50208
G1 X11.791 Y-58.794 E48.66547
G1 X12.169 Y-58.648 E48.68568
G1 X14.163 Y-57.762 E48.79454
G1 X14.482 Y-57.603 E48.81233
G1 X16.659 Y-56.393 E48.93659
G1 X16.922 Y-56.234 E48.95192
G1 X18.267 Y-55.345 E49.03235
G1 X18.459 Y-55.21 E49.04406
G1 X19.706 Y-54.276 E49.12179
G1 X19.9 Y-54.121 E49.13418
G1 X21.233 Y-52.987 E49.22149
G1 X21.45 Y-52.788 E49.23618
G1 X22.995 Y-51.264 E49.34445
G1 X23.233 Y-51.007 E49.36193
G1 X24.831 Y-49.128 E49.48499
G1 X25.022 Y-48.885 E49.50041
G1 X26.019 Y-47.51 E49.58514
G1 X26.184 Y-47.264 E49.59992
G1 X27.349 Y-45.378 E49.71052
G1 X27.489 Y-45.133 E49.7246
G1 X28.236 Y-43.708 E49.80487
G1 X28.369 Y-43.428 E49.82033
G1 X29.332 Y-41.183 E49.9422
G1 X29.443 Y-40.894 E49.95765
G1 X29.993 Y-39.277 E50.04286
G1 X30.076 Y-38.999 E50.05733
G1 X30.63 Y-36.877 E50.16675
G1 X30.702 Y-36.544 E50.18375
G1 X31.852 Y-29.855 E50.52236
G1 X33.045 Y-24.535 E50.79437
G1 X33.742 Y-21.953 E50.92779
G1 X35.391 Y-16.727 E51.20119
G1 X37.311 Y-11.662 E51.47143
G0 F3600 X36.939 Y-11.515
G1 F1500 X39.157 Y-6.532 E51.74355
G1 X41.655 Y-1.679 E52.01586
G1 X45.324 Y4.476 E52.37335
G1 X45.564 Y4.956 E52.40013
G1 X45.729 Y5.466 E52.42687
G1 X45.821 Y6.033 E52.45553
G1 X46.258 Y11.509 E52.72959
G1 X46.983 Y16.915 E53.00171
G1 X48.018 Y22.298 E53.27519
G1 X48.627 Y24.876 E53.40735
G1 X49.343 Y27.565 E53.54618
G1 X50.888 Y32.698 E53.81361
G1 X51.004 Y33.221 E53.84034
G1 X51.041 Y33.756 E53.86709
G1 X50.998 Y34.291 E53.89387
G1 X50.876 Y34.813 E53.92062
G1 X50.584 Y35.49 E53.9574
G1 X49.639 Y37.182 E54.05409
G1 X49.477 Y37.445 E54.0695
G1 X48.348 Y39.113 E54.16999
G1 X48.171 Y39.353 E54.18486
