;FLAVOR:Marlin
;TIME:1410
;Filament used: 1.35925m
;Layer height: 0.2
;Generated with Cura_SteamEngine 1.1.0
M190 S60
M104 S230
M109 S230
G28
G1 Z50.00 F400
G92 E0
G1 F200 E3
G92 E0
M132 X Y Z A
M907 X100 Y100 Z50 A100
;LAYER_COUNT:12
;LAYER:0
M107
G0 F3000 X34.9 Y-6.685 Z0.3
;TYPE:SKIRT
G1 F1500 X36.483 Y-1.529 E0.26908
G1 X38.35 Y3.516 E0.53746
G1 X40.307 Y8.054 E0.78402
G1 X40.516 Y8.637 E0.81492
G1 X40.647 Y9.242 E0.8458
G1 X40.694 Y9.72 E0.86976
G1 X40.707 Y9.985 E0.883
G1 X40.698 Y10.604 E0.91389
G1 X40.608 Y11.217 E0.9448
G1 X40.441 Y11.813 E0.97568
G1 X40.201 Y12.377 E1.00626
G1 X39.28 Y14.208 E1.10851
G1 X37.018 Y19.14 E1.37921
G1 X35.041 Y24.181 E1.64936
G1 X33.375 Y29.254 E1.91575
G1 X31.966 Y34.536 E2.18849
G1 X31.397 Y37.108 E2.31991
G1 X30.657 Y41.041 E2.51957
G1 X30.504 Y41.641 E2.55046
G1 X30.136 Y42.484 E2.59635
G1 X29.172 Y44.219 E2.69537
G1 X28.951 Y44.579 E2.71645
G1 X27.849 Y46.207 E2.81453
G1 X27.618 Y46.52 E2.83393
G1 X26.482 Y47.936 E2.9245
G1 X26.16 Y48.298 E2.94868
G1 X24.156 Y50.335 E3.09124
G1 X23.799 Y50.663 E3.11542
G1 X22.397 Y51.826 E3.2063
G1 X22.091 Y52.06 E3.22552
G1 X20.542 Y53.148 E3.31996
G1 X20.213 Y53.359 E3.33946
G1 X18.624 Y54.292 E3.43139
G1 X18.2 Y54.514 E3.45527
G1 X15.678 Y55.674 E3.59376
G1 X15.298 Y55.829 E3.61424
G1 X7.559 Y58.615 E4.02459
G1 X6.964 Y58.787 E4.05549
G1 X6.462 Y58.87 E4.08088
G1 X5.894 Y58.933 E4.10939
G1 X5.275 Y58.961 E4.1403
G1 X4.959 Y58.945 E4.15609
G1 X4.264 Y58.886 E4.19089
G1 X3.362 Y58.721 E4.23664
G1 X2.864 Y58.58 E4.26246
G1 X2.27 Y58.369 E4.29391
G1 X-4.266 Y55.548 E4.64906
G1 X-6.754 Y54.609 E4.78174
G1 X-11.851 Y52.935 E5.04939
G1 X-17.118 Y51.527 E5.32139
G1 X-19.645 Y50.967 E5.45052
G1 X-24.995 Y50.014 E5.72164
G1 X-30.356 Y49.368 E5.99103
G1 X-35.795 Y49.024 E6.26293
G1 X-39.754 Y48.848 E6.46064
G1 X-40.369 Y48.781 E6.4915
G1 X-41.244 Y48.54 E6.53678
G1 X-41.868 Y48.303 E6.57008
G1 X-42.432 Y48.046 E6.601
G1 X-42.798 Y47.829 E6.62223
G1 X-43.412 Y47.426 E6.65887
G1 X-43.907 Y47.053 E6.6898
G1 X-44.191 Y46.788 E6.70917
G1 X-44.633 Y46.341 E6.74054
G1 X-45.039 Y45.873 E6.77145
G1 X-45.255 Y45.566 E6.79017
G1 X-45.583 Y45.057 E6.82038
G1 X-45.884 Y44.516 E6.85127
G1 X-46.077 Y44.046 E6.87662
G1 X-46.426 Y43.051 E6.92923
G1 X-46.593 Y42.454 E6.96015
G1 X-46.694 Y41.63 E7.00157
G1 X-46.725 Y40.743 E7.04585
G1 X-46.707 Y40.124 E7.07674
G1 X-46.651 Y39.716 E7.09729
G1 X-45.277 Y32.16 E7.48044
G1 X-44.66 Y26.845 E7.74739
G1 X-44.343 Y21.458 E8.01661
G1 X-44.33 Y16.04 E8.28692
G1 X-44.436 Y13.4 E8.41874
G1 X-44.732 Y9.079 E8.63482
G1 X-44.734 Y8.46 E8.6657
G1 X-44.62 Y7.671 E8.70547
G1 X-43.863 Y4.391 E8.87341
G1 X-42.738 Y-1.01 E9.14865
G1 X-42.319 Y-3.578 E9.27847
G1 X-41.663 Y-9 E9.55094
G1 X-41.372 Y-12.468 E9.72457
G1 X-41.281 Y-13.08 E9.75544
G1 X-41.111 Y-13.676 E9.78636
G1 X-40.784 Y-14.399 E9.82595
G1 X-39.605 Y-16.518 E9.94693
G1 X-37.167 Y-21.349 E10.2169
G1 X-35.019 Y-26.279 E10.48519
G1 X-33.148 Y-31.341 E10.75443
G1 X-31.565 Y-36.503 E11.0238
G1 X-30.318 Y-41.388 E11.27533
G1 X-30.23 Y-41.689 E11.29098
G1 X-29.539 Y-43.807 E11.40213
G1 X-29.411 Y-44.153 E11.42053
G1 X-28.694 Y-45.886 E11.5141
G1 X-28.544 Y-46.214 E11.53209
G1 X-27.573 Y-48.138 E11.63961
G1 X-27.398 Y-48.455 E11.65768
G1 X-26.45 Y-50.026 E11.74922
G1 X-26.253 Y-50.326 E11.76713
G1 X-24.995 Y-52.097 E11.8755
G1 X-24.695 Y-52.477 E11.89966
G1 X-22.6 Y-54.873 E12.05845
G1 X-22.324 Y-55.163 E12.07842
G1 X-21.372 Y-56.084 E12.1445
G1 X-21.13 Y-56.303 E12.16079
G1 X-19.422 Y-57.744 E12.27227
G1 X-19.042 Y-58.033 E12.29609
G1 X-16.494 Y-59.781 E12.45025
G1 X-16.189 Y-59.974 E12.46826
G1 X-15.407 Y-60.428 E12.51337
G1 X-15.09 Y-60.596 E12.53127
G1 X-12.321 Y-61.938 E12.68478
G1 X-11.843 Y-62.139 E12.71065
G1 X-9.27 Y-63.058 E12.84696
G1 X-8.844 Y-63.188 E12.86919
G1 X-6.708 Y-63.734 E12.97918
G1 X-6.237 Y-63.83 E13.00316
G1 X-3.172 Y-64.294 E13.15781
G1 X-2.768 Y-64.338 E13.17809
G1 X-1.335 Y-64.432 E13.24974
G1 X-1.008 Y-64.442 E13.26606
G1 X1.205 Y-64.436 E13.37646
G1 X1.686 Y-64.41 E13.4005
G1 X4.787 Y-64.089 E13.55603
G1 X5.188 Y-64.031 E13.57625
G1 X6.511 Y-63.78 E13.64343
G1 X6.814 Y-63.712 E13.65892
G1 X8.92 Y-63.169 E13.76743
G1 X9.381 Y-63.025 E13.79152
G1 X12.33 Y-61.939 E13.94831
G1 X12.772 Y-61.751 E13.97227
G1 X14.771 Y-60.778 E14.08319
G1 X15.189 Y-60.548 E14.10699
G1 X17.8 Y-58.938 E14.26003
G1 X18.234 Y-58.636 E14.28641
G1 X20.418 Y-56.932 E14.42461
G1 X20.754 Y-56.644 E14.44669
G1 X22.36 Y-55.133 E14.5567
G1 X22.698 Y-54.781 E14.58104
G1 X24.784 Y-52.374 E14.73995
G1 X25.082 Y-51.993 E14.76408
G1 X26.353 Y-50.187 E14.87426
G1 X26.612 Y-49.777 E14.89846
G1 X28.151 Y-47.041 E15.05507
G1 X28.379 Y-46.579 E15.08077
G1 X29.413 Y-44.167 E15.2117
G1 X29.544 Y-43.827 E15.22988
G1 X29.982 Y-42.544 E15.29751
G1 X30.075 Y-42.238 E15.31347
G1 X30.663 Y-40.048 E15.4266
G1 X30.734 Y-39.741 E15.44232
G1 X30.982 Y-38.497 E15.5056
G1 X31.045 Y-38.096 E15.52585
G1 X31.397 Y-34.971 E15.68275
G1 X31.427 Y-34.491 E15.70674
G1 X31.472 Y-30.635 E15.89913
G1 X31.707 Y-25.23 E16.16904
G1 X32.245 Y-19.859 E16.43834
G1 X33.087 Y-14.523 E16.70785
G1 X33.602 Y-11.959 E16.83832
G1 X34.9 Y-6.685 E17.1093
G0 F3000 X34.519 Y-6.561
G1 F1500 X36.098 Y-1.415 E17.37785
G1 X37.976 Y3.658 E17.64772
G1 X39.94 Y8.212 E17.89515
G1 X40.138 Y8.771 E17.92474
G1 X40.258 Y9.352 E17.95434
G1 X40.295 Y9.739 E17.97373
G1 X40.308 Y10.004 E17.98697
G1 X40.297 Y10.597 E18.01656
G1 X40.206 Y11.183 E18.04615
G1 X40.038 Y11.752 E18.07574
G1 X39.844 Y12.197 E18.09996
G1 X38.911 Y14.051 E18.20351
G1 X36.649 Y18.984 E18.47426
G1 X34.669 Y24.032 E18.74479
G1 X32.988 Y29.152 E19.01364
G1 X31.576 Y34.443 E19.28685
G1 X31.009 Y37.007 E19.41786
G1 X30.264 Y40.967 E19.61889
G1 X30.115 Y41.541 E19.64847
G1 X29.786 Y42.29 E19.68929
G1 X28.822 Y44.025 E19.78831
G1 X28.62 Y44.354 E19.80757
G1 X27.518 Y45.982 E19.90565
G1 X27.306 Y46.269 E19.92345
G1 X26.17 Y47.685 E20.01402
G1 X25.875 Y48.018 E20.03622
G1 X23.871 Y50.055 E20.17878
G1 X23.543 Y50.356 E20.20099
G1 X22.141 Y51.519 E20.29187
G1 X21.861 Y51.733 E20.30945
G1 X20.312 Y52.821 E20.40389
G1 X20.011 Y53.014 E20.42173
G1 X18.422 Y53.947 E20.51366
G1 X18.033 Y54.15 E20.53555
G1 X15.511 Y55.31 E20.67404
G1 X15.162 Y55.453 E20.69286
G1 X7.423 Y58.239 E21.10322
G1 X6.853 Y58.402 E21.13279
G1 X6.418 Y58.472 E21.15477
G1 X5.85 Y58.535 E21.18329
G1 X4.993 Y58.546 E21.22605
G1 X4.298 Y58.487 E21.26084
G1 X3.471 Y58.337 E21.30278
G1 X2.973 Y58.196 E21.3286
G1 X2.428 Y58.002 E21.35746
G1 X-4.126 Y55.173 E21.7136
G1 X-6.621 Y54.232 E21.84664
G1 X-11.728 Y52.554 E22.11483
G1 X-17.02 Y51.14 E22.38811
G1 X-19.585 Y50.571 E22.51919
G1 X-24.948 Y49.616 E22.79096
G1 X-30.3 Y48.971 E23.0599
G1 X-35.753 Y48.627 E23.33249
G1 X-39.736 Y48.449 E23.5314
G1 X-40.325 Y48.382 E23.56098
G1 X-41.102 Y48.166 E23.60121
G1 X-41.726 Y47.929 E23.63451
G1 X-42.265 Y47.682 E23.66409
G1 X-42.578 Y47.494 E23.68231
G1 X-43.192 Y47.091 E23.71895
G1 X-43.665 Y46.733 E23.74855
G1 X-43.907 Y46.507 E23.76507
G1 X-44.349 Y46.06 E23.79643
G1 X-44.736 Y45.611 E23.826
G1 X-44.919 Y45.349 E23.84195
G1 X-45.247 Y44.84 E23.87216
G1 X-45.533 Y44.321 E23.90172
G1 X-45.7 Y43.913 E23.92371
G1 X-46.049 Y42.918 E23.97632
G1 X-46.207 Y42.347 E24.00588
G1 X-46.294 Y41.616 E24.0426
G1 X-46.325 Y40.729 E24.08688
G1 X-46.306 Y40.136 E24.11648
G1 X-46.257 Y39.788 E24.13402
G1 X-44.883 Y32.233 E24.51712
G1 X-44.26 Y26.862 E24.78688
G1 X-43.943 Y21.483 E25.0557
G1 X-43.93 Y16.025 E25.328
G1 X-44.035 Y13.393 E25.45942
G1 X-44.333 Y9.052 E25.6765
G1 X-44.333 Y8.459 E25.70609
G1 X-44.23 Y7.761 E25.74129
G1 X-43.48 Y4.51 E25.90774
G1 X-42.341 Y-.956 E26.1863
G1 X-41.924 Y-3.512 E26.3155
G1 X-41.267 Y-8.947 E26.58863
G1 X-40.974 Y-12.434 E26.76321
G1 X-40.884 Y-13.02 E26.79279
G1 X-40.717 Y-13.589 E26.82237
G1 X-40.434 Y-14.204 E26.85615
G1 X-39.256 Y-16.322 E26.97706
G1 X-36.811 Y-21.166 E27.24777
G1 X-34.648 Y-26.132 E27.51801
G1 X-32.77 Y-31.212 E27.78821
G1 X-31.175 Y-36.414 E28.05967
G1 X-29.93 Y-41.289 E28.31069
G1 X-29.85 Y-41.565 E28.32502
G1 X-29.159 Y-43.683 E28.43617
G1 X-29.042 Y-44 E28.45303
G1 X-28.325 Y-45.733 E28.5466
G1 X-28.187 Y-46.033 E28.56307
G1 X-27.216 Y-47.957 E28.67059
G1 X-27.055 Y-48.248 E28.68718
G1 X-26.107 Y-49.819 E28.77873
G1 X-25.927 Y-50.094 E28.79512
G1 X-24.669 Y-51.865 E28.9035
G1 X-24.394 Y-52.213 E28.92563
G1 X-22.299 Y-54.609 E29.08442
G1 X-22.046 Y-54.875 E29.10273
G1 X-21.094 Y-55.796 E29.16882
G1 X-20.872 Y-55.997 E29.18376
G1 X-19.164 Y-57.438 E29.29525
G1 X-18.816 Y-57.703 E29.31707
G1 X-16.268 Y-59.451 E29.47123
G1 X-15.988 Y-59.628 E29.48775
G1 X-15.206 Y-60.082 E29.53287
G1 X-14.916 Y-60.236 E29.54925
G1 X-12.147 Y-61.578 E29.70276
G1 X-11.708 Y-61.763 E29.72653
G1 X-9.135 Y-62.682 E29.86284
G1 X-8.745 Y-62.801 E29.88318
G1 X-6.609 Y-63.347 E29.99317
G1 X-6.178 Y-63.434 E30.01511
G1 X-3.113 Y-63.898 E30.16977
G1 X-2.742 Y-63.939 E30.18839
G1 X-1.309 Y-64.033 E30.26003
G1 X-1.009 Y-64.042 E30.27501
G1 X1.204 Y-64.036 E30.38542
G1 X1.645 Y-64.013 E30.40745
G1 X4.746 Y-63.692 E30.56298
G1 X5.113 Y-63.638 E30.58149
G1 X6.436 Y-63.387 E30.64867
G1 X6.715 Y-63.325 E30.66293
G1 X8.821 Y-62.782 E30.77144
G1 X9.243 Y-62.65 E30.7935
G1 X12.192 Y-61.564 E30.95028
G1 X12.597 Y-61.391 E30.97225
G1 X14.596 Y-60.418 E31.08317
G1 X14.979 Y-60.207 E31.10499
G1 X17.59 Y-58.597 E31.25802
G1 X17.988 Y-58.321 E31.28219
G1 X20.172 Y-56.617 E31.42039
G1 X20.48 Y-56.353 E31.44063
G1 X22.086 Y-54.842 E31.55064
G1 X22.396 Y-54.519 E31.57297
G1 X24.482 Y-52.112 E31.73188
G1 X24.755 Y-51.762 E31.75403
G1 X26.026 Y-49.956 E31.8642
G1 X26.263 Y-49.581 E31.88634
G1 X27.802 Y-46.845 E32.04295
G1 X28.011 Y-46.422 E32.06649
G1 X29.045 Y-44.01 E32.19741
G1 X29.165 Y-43.698 E32.21409
G1 X29.603 Y-42.415 E32.28173
G1 X29.688 Y-42.134 E32.29637
G1 X30.276 Y-39.944 E32.4095
G1 X30.342 Y-39.663 E32.4239
G1 X30.59 Y-38.419 E32.48719
G1 X30.647 Y-38.052 E32.50572
G1 X30.999 Y-34.927 E32.66261
G1 X31.027 Y-34.486 E32.68466
G1 X31.072 Y-30.645 E32.8763
G1 X31.309 Y-25.191 E33.14866
G1 X31.848 Y-19.808 E33.41856
G1 X32.692 Y-14.455 E33.68892
G1 X33.211 Y-11.876 E33.82017
G1 X34.519 Y-6.561 E34.09324
G0 F3000 X34.129 Y-6.47
G1 F1500 X35.727 Y-1.264 E34.36493
G1 X37.598 Y3.791 E34.63385
G1 X39.573 Y8.371 E34.88268
G1 X39.76 Y8.904 E34.91086
G1 X39.869 Y9.459 E34.93908
G1 X39.895 Y9.759 E34.95411
G1 X39.908 Y10.024 E34.96734
G1 X39.896 Y10.589 E34.99554
G1 X39.804 Y11.147 E35.02375
G1 X39.635 Y11.686 E35.05193
G1 X39.487 Y12.017 E35.07002
G1 X38.559 Y13.862 E35.17306
G1 X36.278 Y18.836 E35.44606
G1 X34.29 Y23.903 E35.71761
G1 X32.607 Y29.03 E35.98683
G1 X31.189 Y34.345 E36.26127
G1 X30.614 Y36.944 E36.39407
G1 X29.871 Y40.893 E36.59455
G1 X29.727 Y41.44 E36.62277
G1 X29.437 Y42.096 E36.65855
G1 X28.473 Y43.831 E36.75757
G1 X28.288 Y44.13 E36.77511
G1 X27.186 Y45.758 E36.87319
G1 X26.994 Y46.019 E36.88936
G1 X25.858 Y47.435 E36.97993
G1 X25.589 Y47.737 E37.0001
G1 X23.585 Y49.774 E37.14267
G1 X23.288 Y50.048 E37.16283
G1 X21.886 Y51.211 E37.25371
G1 X21.631 Y51.405 E37.26969
G1 X20.082 Y52.493 E37.36413
G1 X19.808 Y52.669 E37.38038
G1 X18.219 Y53.602 E37.47231
G1 X17.865 Y53.787 E37.49223
G1 X15.343 Y54.947 E37.63073
G1 X15.027 Y55.077 E37.64778
G1 X7.288 Y57.863 E38.05813
G1 X6.744 Y58.016 E38.08633
G1 X6.374 Y58.075 E38.10502
G1 X5.806 Y58.138 E38.13353
G1 X5.027 Y58.148 E38.1724
G1 X4.332 Y58.089 E38.2072
G1 X3.58 Y57.952 E38.24533
G1 X3.082 Y57.811 E38.27115
G1 X2.587 Y57.635 E38.29736
G1 X-3.989 Y54.797 E38.65469
G1 X-6.475 Y53.859 E38.78725
G1 X-11.621 Y52.168 E39.05749
G1 X-16.927 Y50.75 E39.3315
G1 X-19.501 Y50.179 E39.46304
G1 X-24.881 Y49.221 E39.73567
G1 X-30.263 Y48.573 E40.00612
G1 X-35.761 Y48.225 E40.28096
G1 X-39.718 Y48.049 E40.47857
G1 X-40.28 Y47.984 E40.5068
G1 X-40.96 Y47.792 E40.54205
G1 X-41.584 Y47.555 E40.57535
G1 X-42.097 Y47.318 E40.60355
G1 X-42.359 Y47.16 E40.61881
G1 X-42.973 Y46.757 E40.65545
G1 X-43.622 Y46.225 E40.69732
G1 X-44.064 Y45.778 E40.72868
G1 X-44.582 Y45.133 E40.76995
G1 X-44.91 Y44.624 E40.80016
G1 X-45.182 Y44.128 E40.82838
G1 X-45.323 Y43.781 E40.84707
G1 X-45.672 Y42.786 E40.89968
G1 X-45.82 Y42.241 E40.92785
G1 X-45.895 Y41.602 E40.95995
G1 X-45.926 Y40.715 E41.00423
G1 X-45.905 Y40.15 E41.03244
G1 X-45.863 Y39.859 E41.04711
G1 X-44.486 Y32.287 E41.43107
G1 X-43.863 Y26.914 E41.70093
G1 X-43.543 Y21.489 E41.97205
G1 X-43.53 Y16.034 E42.2442
G1 X-43.637 Y13.351 E42.37817
G1 X-43.934 Y9.025 E42.5945
G1 X-43.932 Y8.459 E42.62274
G1 X-43.841 Y7.851 E42.65341
G1 X-43.079 Y4.55 E42.82243
G1 X-41.953 Y-.857 E43.09797
G1 X-41.526 Y-3.473 E43.23021
G1 X-40.867 Y-8.919 E43.50389
G1 X-40.575 Y-12.401 E43.67822
G1 X-40.488 Y-12.959 E43.7064
G1 X-40.323 Y-13.5 E43.73461
G1 X-40.085 Y-14.01 E43.76269
G1 X-38.897 Y-16.146 E43.88463
G1 X-36.445 Y-21.005 E44.15616
G1 X-34.279 Y-25.976 E44.42669
G1 X-32.386 Y-31.098 E44.69912
G1 X-30.797 Y-36.279 E44.96949
G1 X-29.543 Y-41.19 E45.22236
G1 X-29.47 Y-41.441 E45.2354
G1 X-28.779 Y-43.559 E45.34655
G1 X-28.672 Y-43.847 E45.36188
G1 X-27.955 Y-45.58 E45.45544
G1 X-27.83 Y-45.853 E45.47042
G1 X-26.859 Y-47.777 E45.57794
G1 X-26.713 Y-48.042 E45.59304
G1 X-25.765 Y-49.613 E45.68458
G1 X-25.601 Y-49.862 E45.69945
G1 X-24.343 Y-51.633 E45.80783
G1 X-24.093 Y-51.95 E45.82797
G1 X-21.998 Y-54.346 E45.98676
G1 X-21.768 Y-54.588 E46.00342
G1 X-20.816 Y-55.509 E46.0695
G1 X-20.614 Y-55.691 E46.08307
G1 X-18.906 Y-57.132 E46.19456
G1 X-18.59 Y-57.373 E46.21438
G1 X-16.042 Y-59.121 E46.36854
G1 X-15.787 Y-59.282 E46.38359
G1 X-15.005 Y-59.736 E46.4287
G1 X-14.742 Y-59.877 E46.44359
G1 X-11.973 Y-61.219 E46.5971
G1 X-11.573 Y-61.386 E46.61873
G1 X-9 Y-62.305 E46.75504
G1 X-8.646 Y-62.413 E46.7735
G1 X-6.51 Y-62.959 E46.88349
G1 X-6.118 Y-63.039 E46.90345
G1 X-3.053 Y-63.503 E47.05811
G1 X-2.716 Y-63.539 E47.07502
G1 X-1.283 Y-63.633 E47.14666
G1 X-1.01 Y-63.642 E47.16029
G1 X1.203 Y-63.636 E47.2707
G1 X1.604 Y-63.615 E47.29073
G1 X4.705 Y-63.294 E47.44627
G1 X5.039 Y-63.245 E47.46311
G1 X6.362 Y-62.994 E47.53029
G1 X6.615 Y-62.937 E47.54323
G1 X8.721 Y-62.394 E47.65174
G1 X9.104 Y-62.275 E47.67175
G1 X12.053 Y-61.189 E47.82853
G1 X12.422 Y-61.032 E47.84854
G1 X14.421 Y-60.059 E47.95945
G1 X14.769 Y-59.867 E47.97928
G1 X17.38 Y-58.257 E48.13232
G1 X17.742 Y-58.006 E48.1543
G1 X19.926 Y-56.302 E48.2925
G1 X20.206 Y-56.061 E48.31093
G1 X21.812 Y-54.55 E48.42094
G1 X22.094 Y-54.257 E48.44123
G1 X24.18 Y-51.85 E48.60014
G1 X24.428 Y-51.532 E48.62026
G1 X25.699 Y-49.726 E48.73043
G1 X25.914 Y-49.385 E48.75055
G1 X27.453 Y-46.649 E48.90716
G1 X27.643 Y-46.264 E48.92858
G1 X28.677 Y-43.852 E49.0595
G1 X28.786 Y-43.568 E49.07468
G1 X29.224 Y-42.285 E49.14232
G1 X29.302 Y-42.03 E49.15562
G1 X29.89 Y-39.84 E49.26875
G1 X29.95 Y-39.585 E49.28182
G1 X30.198 Y-38.341 E49.3451
G1 X30.25 Y-38.007 E49.36197
G1 X30.602 Y-34.882 E49.51886
G1 X30.627 Y-34.481 E49.53891
G1 X30.672 Y-30.622 E49.73145
G1 X30.909 Y-25.169 E50.00375
G1 X31.451 Y-19.76 E50.27496
G1 X32.302 Y-14.365 E50.54745
G1 X32.819 Y-11.794 E50.67828
G1 X34.129 Y-6.47 E50.95182
G0 F3000 X33.744 Y-6.361
G1 F1500 X35.349 Y-1.134 E51.22461
G1 X37.224 Y3.933 E51.49416
G1 X39.206 Y8.529 E51.74387
G1 X39.381 Y9.036 E51.77063
G1 X39.496 Y9.779 E51.80814
G1 X39.509 Y10.044 E51.82137
G1 X39.495 Y10.58 E51.84812
G1 X39.402 Y11.108 E51.87487
G1 X39.129 Y11.837 E51.91371
G1 X38.201 Y13.683 E52.01679
G1 X35.909 Y18.68 E52.29106
G1 X33.917 Y23.759 E52.56325
G1 X32.221 Y28.923 E52.83442
G1 X30.8 Y34.248 E53.10938
G1 X30.225 Y36.85 E53.24233
G1 X29.478 Y40.819 E53.44382
