;FLAVOR:Marlin
;TIME:2209
;Filament used: 1.22007m
;Layer height: 0.1
;Generated with Cura_SteamEngine 1.1.0
M190 S60
M104 S230
M109 S230
G28
G1 Z50.00 F400
G92 E0
G1 F200 E3
G92 E0
M132 X Y Z A
M907 X100 Y100 Z50 A100
;LAYER_COUNT:10
;LAYER:0
M107
G0 F3600 X19.579 Y-22.83 Z0.3
;TYPE:SKIRT
G1 F1500 X24.004 Y-19.767 E0.26849
G1 X28.586 Y-16.967 E0.53639
G1 X37.494 Y-12.254 E1.03918
G1 X37.845 Y-12.049 E1.05946
G1 X40.116 Y-10.589 E1.19416
G1 X40.31 Y-10.457 E1.20587
G1 X45.617 Y-6.666 E1.53125
G1 X48.946 Y-4.505 E1.72926
G1 X49.443 Y-4.135 E1.76017
G1 X49.888 Y-3.704 E1.79108
G1 X50.274 Y-3.22 E1.82196
G1 X50.594 Y-2.69 E1.85285
G1 X50.769 Y-2.314 E1.87354
G1 X50.848 Y-2.123 E1.88385
G1 X51.047 Y-1.536 E1.91477
G1 X51.169 Y-.929 E1.94566
G1 X51.212 Y-.311 E1.97657
G1 X51.175 Y0.307 E2.00746
G1 X51.059 Y0.915 E2.03834
G1 X50.865 Y1.504 E2.06928
G1 X50.691 Y1.886 E2.09022
G1 X49.997 Y3.252 E2.16666
G1 X49.798 Y3.606 E2.18692
G1 X48.663 Y5.438 E2.29444
G1 X48.428 Y5.783 E2.31526
G1 X46.888 Y7.844 E2.44362
G1 X46.595 Y8.199 E2.46659
G1 X44.81 Y10.163 E2.59899
G1 X44.472 Y10.5 E2.6228
G1 X42.201 Y12.547 E2.77534
G1 X41.752 Y12.906 E2.80402
G1 X38.837 Y14.96 E2.98193
G1 X38.477 Y15.19 E3.00324
G1 X34.742 Y17.352 E3.21855
G1 X30.191 Y20.285 E3.48866
G1 X25.836 Y23.452 E3.75731
G1 X21.678 Y26.853 E4.02531
G1 X17.696 Y30.504 E4.29484
G1 X13.936 Y34.364 E4.56368
G1 X11.386 Y37.241 E4.75548
G1 X11.185 Y37.454 E4.77009
G1 X9.516 Y39.12 E4.88774
G1 X9.177 Y39.428 E4.91059
G1 X6.792 Y41.393 E5.06476
G1 X6.321 Y41.735 E5.0938
G1 X3.315 Y43.652 E5.27167
G1 X2.967 Y43.854 E5.29175
G1 X2.008 Y44.358 E5.3458
G1 X1.64 Y44.532 E5.3661
G1 X-1.754 Y45.963 E5.54987
G1 X-1.995 Y46.057 E5.56277
G1 X-10.232 Y49.019 E5.99948
G1 X-10.827 Y49.19 E6.03037
G1 X-11.503 Y49.289 E6.06445
G1 X-12.669 Y49.375 E6.12278
G1 X-13.288 Y49.381 E6.15367
G1 X-13.71 Y49.338 E6.17483
G1 X-14.297 Y49.253 E6.20442
G1 X-14.903 Y49.125 E6.23532
G1 X-15.207 Y49.029 E6.25122
G1 X-16.037 Y48.736 E6.29514
G1 X-16.606 Y48.493 E6.32601
G1 X-17.032 Y48.25 E6.35047
G1 X-17.811 Y47.75 E6.39665
G1 X-18.309 Y47.382 E6.42755
G1 X-18.646 Y47.07 E6.45046
G1 X-19.234 Y46.47 E6.49237
G1 X-19.759 Y45.832 E6.53359
G1 X-22.311 Y42.126 E6.75808
G1 X-23.869 Y40.008 E6.88926
G1 X-27.285 Y35.758 E7.16129
G1 X-30.905 Y31.74 E7.43111
G1 X-32.73 Y29.877 E7.56122
G1 X-36.706 Y26.155 E7.83294
G1 X-40.829 Y22.71 E8.10099
G1 X-45.226 Y19.44 E8.37437
G1 X-48.189 Y17.3 E8.55672
G1 X-48.666 Y16.906 E8.58758
G1 X-49.214 Y16.294 E8.62857
G1 X-49.684 Y15.669 E8.66758
G1 X-50.024 Y15.151 E8.69849
G1 X-50.201 Y14.806 E8.71784
G1 X-50.562 Y14.029 E8.76058
G1 X-50.847 Y13.243 E8.8023
G1 X-50.972 Y12.774 E8.82651
G1 X-51.112 Y11.992 E8.86615
G1 X-51.192 Y11.15 E8.90834
G1 X-51.211 Y10.531 E8.93924
G1 X-51.183 Y10.152 E8.9582
G1 X-51.096 Y9.389 E8.99651
G1 X-50.961 Y8.683 E9.03237
G1 X-50.19 Y5.824 E9.1801
G1 X-48.969 Y0.489 E9.45315
G1 X-48.493 Y-2.096 E9.58428
G1 X-47.739 Y-7.443 E9.85369
G1 X-47.151 Y-14.917 E10.22772
G1 X-47.063 Y-15.531 E10.25866
G1 X-46.896 Y-16.127 E10.28954
G1 X-46.654 Y-16.697 E10.32044
G1 X-46.293 Y-17.302 E10.35559
G1 X-45.529 Y-18.388 E10.42183
G1 X-42.116 Y-23.561 E10.73102
G1 X-39.44 Y-28.212 E10.99873
G1 X-37.021 Y-33.027 E11.26756
G1 X-34.866 Y-38.002 E11.53805
G1 X-33.906 Y-40.496 E11.67138
G1 X-33.032 Y-42.989 E11.80317
G1 X-30.911 Y-49.993 E12.16828
G1 X-30.694 Y-50.573 E12.19917
G1 X-30.403 Y-51.12 E12.23008
G1 X-30.045 Y-51.625 E12.26097
G1 X-29.625 Y-52.08 E12.29186
G1 X-29.149 Y-52.477 E12.32278
G1 X-28.627 Y-52.81 E12.35367
G1 X-28.066 Y-53.072 E12.38456
G1 X-27.362 Y-53.287 E12.42129
G1 X-27.075 Y-53.351 E12.43596
G1 X-26.463 Y-53.446 E12.46686
G1 X-25.844 Y-53.462 E12.49775
G1 X-25.23 Y-53.399 E12.52854
G1 X-23.413 Y-53.092 E12.62048
G1 X-23.121 Y-53.033 E12.63534
G1 X-20.455 Y-52.41 E12.77193
G1 X-20.102 Y-52.313 E12.79019
G1 X-17.486 Y-51.487 E12.92706
G1 X-17.143 Y-51.365 E12.94522
G1 X-14.601 Y-50.345 E13.08187
G1 X-14.266 Y-50.195 E13.10018
G1 X-11.814 Y-48.986 E13.23658
G1 X-11.495 Y-48.813 E13.25468
G1 X-9.15 Y-47.427 E13.39058
G1 X-8.804 Y-47.202 E13.41117
G1 X-4.708 Y-44.28 E13.66219
G1 X0.816 Y-40.597 E13.99342
G1 X1.383 Y-40.154 E14.02932
G1 X1.715 Y-39.852 E14.05171
G1 X2.12 Y-39.435 E14.08071
G1 X5.58 Y-35.422 E14.34506
G1 X9.324 Y-31.542 E14.61406
G1 X13.295 Y-27.866 E14.88403
G1 X15.307 Y-26.158 E15.0157
G1 X19.579 Y-22.83 E15.28587
G0 F3600 X19.339 Y-22.509
G1 F1500 X23.793 Y-19.427 E15.5561
G1 X28.382 Y-16.622 E15.82442
G1 X37.307 Y-11.9 E16.32817
G1 X37.628 Y-11.712 E16.34673
G1 X39.899 Y-10.252 E16.48143
G1 X40.078 Y-10.131 E16.49221
G1 X45.373 Y-6.348 E16.81687
G1 X48.729 Y-4.17 E17.01647
G1 X49.203 Y-3.814 E17.04605
G1 X49.625 Y-3.398 E17.07561
G1 X49.988 Y-2.929 E17.1052
G1 X50.399 Y-2.161 E17.14865
G1 X50.478 Y-1.97 E17.15897
G1 X50.667 Y-1.408 E17.18855
G1 X50.779 Y-.825 E17.21817
G1 X50.812 Y-.233 E17.24775
G1 X50.764 Y0.358 E17.27733
G1 X50.638 Y0.937 E17.30689
G1 X50.335 Y1.705 E17.34808
G1 X49.641 Y3.071 E17.42452
G1 X49.458 Y3.395 E17.44309
G1 X48.323 Y5.227 E17.55061
G1 X48.108 Y5.544 E17.56972
G1 X46.568 Y7.605 E17.69807
G1 X46.299 Y7.93 E17.71912
G1 X44.514 Y9.894 E17.85153
G1 X44.204 Y10.203 E17.87336
G1 X41.933 Y12.25 E18.0259
G1 X41.521 Y12.579 E18.0522
G1 X38.606 Y14.633 E18.23011
G1 X38.276 Y14.844 E18.24965
G1 X34.536 Y17.009 E18.46525
G1 X29.961 Y19.957 E18.73678
G1 X25.604 Y23.126 E19.00557
G1 X21.399 Y26.565 E19.27658
G1 X17.43 Y30.204 E19.54522
G1 X13.634 Y34.101 E19.81664
G1 X11.087 Y36.975 E20.00823
G1 X10.902 Y37.171 E20.02167
G1 X9.233 Y38.837 E20.13932
G1 X8.923 Y39.119 E20.16023
G1 X6.538 Y41.084 E20.3144
G1 X6.106 Y41.398 E20.34105
G1 X3.1 Y43.315 E20.51892
G1 X2.781 Y43.5 E20.53732
G1 X1.822 Y44.004 E20.59137
G1 X1.484 Y44.163 E20.61
G1 X-1.91 Y45.594 E20.79376
G1 X-2.13 Y45.68 E20.80555
G1 X-10.367 Y48.642 E21.24226
G1 X-10.937 Y48.805 E21.27183
G1 X-11.532 Y48.89 E21.30182
G1 X-12.698 Y48.976 E21.36015
G1 X-13.291 Y48.98 E21.38974
G1 X-13.653 Y48.943 E21.40789
G1 X-14.24 Y48.858 E21.43748
G1 X-15.074 Y48.652 E21.48034
G1 X-15.904 Y48.359 E21.52425
G1 X-16.448 Y48.124 E21.55382
G1 X-16.816 Y47.913 E21.57498
G1 X-17.595 Y47.413 E21.62116
G1 X-18.071 Y47.06 E21.65073
G1 X-18.361 Y46.79 E21.6705
G1 X-18.949 Y46.19 E21.71241
G1 X-19.43 Y45.606 E21.75015
G1 X-21.998 Y41.877 E21.97604
G1 X-23.561 Y39.752 E22.10765
G1 X-26.975 Y35.503 E22.37958
G1 X-30.616 Y31.462 E22.65095
G1 X-32.453 Y29.588 E22.78187
G1 X-36.432 Y25.863 E23.0538
G1 X-40.587 Y22.39 E23.32397
G1 X-44.992 Y19.115 E23.59782
G1 X-47.954 Y16.976 E23.7801
G1 X-48.411 Y16.597 E23.80972
G1 X-48.895 Y16.053 E23.84605
G1 X-49.365 Y15.428 E23.88506
G1 X-49.688 Y14.932 E23.91459
G1 X-49.838 Y14.638 E23.93106
G1 X-50.199 Y13.861 E23.9738
G1 X-50.461 Y13.14 E24.01207
G1 X-50.586 Y12.671 E24.03629
G1 X-50.714 Y11.954 E24.07263
G1 X-50.794 Y11.112 E24.11482
G1 X-50.81 Y10.519 E24.14442
G1 X-50.786 Y10.198 E24.16048
G1 X-50.699 Y9.435 E24.19879
G1 X-50.575 Y8.787 E24.23171
G1 X-49.8 Y5.915 E24.38012
G1 X-48.574 Y0.554 E24.65448
G1 X-48.101 Y-2.011 E24.78461
G1 X-47.341 Y-7.406 E25.05642
G1 X-46.752 Y-14.886 E25.43076
G1 X-46.666 Y-15.473 E25.46036
G1 X-46.502 Y-16.043 E25.48995
G1 X-46.262 Y-16.585 E25.51952
G1 X-45.966 Y-17.072 E25.54795
G1 X-45.201 Y-18.16 E25.61431
G1 X-41.776 Y-23.351 E25.92458
G1 X-39.087 Y-28.025 E26.1936
G1 X-36.654 Y-32.867 E26.46395
G1 X-34.503 Y-37.83 E26.73381
G1 X-33.52 Y-40.386 E26.87044
G1 X-32.653 Y-42.86 E27.00123
G1 X-30.528 Y-49.877 E27.36701
G1 X-30.318 Y-50.432 E27.39661
G1 X-30.036 Y-50.953 E27.42617
G1 X-29.686 Y-51.432 E27.45576
G1 X-29.275 Y-51.859 E27.48533
G1 X-28.81 Y-52.227 E27.51492
G1 X-28.3 Y-52.53 E27.54451
G1 X-27.754 Y-52.761 E27.57409
G1 X-27.275 Y-52.897 E27.59893
G1 X-26.988 Y-52.961 E27.6136
G1 X-26.402 Y-53.05 E27.64317
G1 X-25.809 Y-53.06 E27.67276
G1 X-25.297 Y-53.005 E27.69845
G1 X-23.48 Y-52.698 E27.79039
G1 X-23.212 Y-52.644 E27.80403
G1 X-20.546 Y-52.021 E27.94062
G1 X-20.222 Y-51.932 E27.95738
G1 X-17.606 Y-51.106 E28.09425
G1 X-17.292 Y-50.994 E28.11088
G1 X-14.75 Y-49.974 E28.24753
G1 X-14.443 Y-49.836 E28.26432
G1 X-11.991 Y-48.627 E28.40071
G1 X-11.698 Y-48.469 E28.41732
G1 X-9.353 Y-47.083 E28.55322
G1 X-9.037 Y-46.877 E28.57204
G1 X-4.927 Y-43.945 E28.82392
G1 X0.594 Y-40.264 E29.15497
G1 X1.114 Y-39.858 E29.18788
G1 X1.446 Y-39.556 E29.21027
G1 X1.817 Y-39.174 E29.23684
G1 X5.288 Y-35.148 E29.50204
G1 X9.038 Y-31.261 E29.7715
G1 X13.035 Y-27.562 E30.0432
G1 X15.06 Y-25.842 E30.17575
G1 X19.339 Y-22.509 E30.44635
G0 F3600 X19.111 Y-22.18
G1 F1500 X23.563 Y-19.099 E30.71647
G1 X28.184 Y-16.275 E30.98665
G1 X37.12 Y-11.547 E31.49103
G1 X37.412 Y-11.376 E31.50791
G1 X39.683 Y-9.916 E31.6426
G1 X39.845 Y-9.806 E31.65237
G1 X45.16 Y-6.009 E31.97825
G1 X48.511 Y-3.834 E32.17756
G1 X48.962 Y-3.494 E32.20574
G1 X49.361 Y-3.093 E32.23396
G1 X49.699 Y-2.64 E32.26216
G1 X50.029 Y-2.008 E32.29773
G1 X50.108 Y-1.817 E32.30804
G1 X50.287 Y-1.28 E32.33628
G1 X50.388 Y-.724 E32.36448
G1 X50.41 Y-.159 E32.39269
G1 X50.352 Y0.403 E32.42087
G1 X50.215 Y0.952 E32.4491
G1 X49.978 Y1.524 E32.47999
G1 X49.284 Y2.89 E32.55643
G1 X49.118 Y3.185 E32.57332
G1 X47.983 Y5.017 E32.68084
G1 X47.787 Y5.304 E32.69818
G1 X46.247 Y7.365 E32.82654
G1 X46.003 Y7.661 E32.84567
G1 X44.218 Y9.625 E32.97808
G1 X43.936 Y9.906 E32.99794
G1 X41.665 Y11.953 E33.15048
G1 X41.291 Y12.252 E33.17436
G1 X38.376 Y14.306 E33.35227
G1 X38.076 Y14.498 E33.37004
G1 X34.316 Y16.675 E33.5868
G1 X29.747 Y19.619 E33.85797
G1 X25.35 Y22.817 E34.12923
G1 X21.14 Y26.26 E34.40056
G1 X17.147 Y29.921 E34.67083
G1 X13.351 Y33.818 E34.94224
G1 X10.788 Y36.71 E35.13503
G1 X10.62 Y36.888 E35.14724
G1 X8.951 Y38.554 E35.26489
G1 X8.669 Y38.81 E35.2839
G1 X6.284 Y40.775 E35.43807
G1 X5.891 Y41.061 E35.46232
G1 X2.885 Y42.978 E35.64019
G1 X2.595 Y43.146 E35.65691
G1 X1.636 Y43.65 E35.71096
G1 X1.329 Y43.795 E35.7279
G1 X-2.065 Y45.226 E35.91166
G1 X-2.265 Y45.304 E35.92237
G1 X-10.502 Y48.266 E36.35908
G1 X-11.047 Y48.419 E36.38732
G1 X-11.562 Y48.491 E36.41326
G1 X-12.728 Y48.577 E36.47159
G1 X-13.293 Y48.579 E36.49978
G1 X-13.595 Y48.547 E36.51493
G1 X-14.182 Y48.462 E36.54452
G1 X-14.941 Y48.275 E36.58352
G1 X-15.771 Y47.982 E36.62743
G1 X-16.289 Y47.756 E36.65563
G1 X-16.6 Y47.576 E36.67356
G1 X-17.379 Y47.076 E36.71974
G1 X-17.832 Y46.738 E36.74794
G1 X-18.075 Y46.51 E36.76456
G1 X-18.663 Y45.91 E36.80647
G1 X-19.1 Y45.379 E36.84078
G1 X-21.658 Y41.664 E37.06581
G1 X-23.244 Y39.509 E37.1993
G1 X-26.673 Y35.241 E37.47244
G1 X-30.317 Y31.197 E37.74403
G1 X-32.177 Y29.299 E37.87661
G1 X-36.175 Y25.556 E38.14984
G1 X-40.329 Y22.084 E38.41994
G1 X-44.76 Y18.79 E38.6954
G1 X-47.72 Y16.652 E38.87756
G1 X-48.154 Y16.289 E38.90579
G1 X-48.575 Y15.813 E38.9375
G1 X-49.045 Y15.188 E38.97651
G1 X-49.476 Y14.469 E39.01833
G1 X-49.837 Y13.692 E39.06108
G1 X-50.074 Y13.037 E39.09583
G1 X-50.199 Y12.568 E39.12004
G1 X-50.316 Y11.916 E39.15309
G1 X-50.396 Y11.074 E39.19529
G1 X-50.388 Y10.243 E39.23675
G1 X-50.301 Y9.48 E39.27506
G1 X-50.189 Y8.892 E39.30492
G1 X-49.412 Y6.011 E39.45379
G1 X-48.185 Y0.646 E39.72837
G1 X-47.705 Y-1.956 E39.86037
G1 X-46.944 Y-7.35 E40.13214
G1 X-46.354 Y-14.855 E40.50772
G1 X-46.27 Y-15.414 E40.53593
G1 X-46.108 Y-15.955 E40.5641
G1 X-45.871 Y-16.469 E40.59234
G1 X-45.638 Y-16.841 E40.61424
G1 X-44.894 Y-17.9 E40.67881
G1 X-41.435 Y-23.141 E40.9921
G1 X-38.732 Y-27.839 E41.2625
G1 X-36.294 Y-32.692 E41.53346
G1 X-34.125 Y-37.697 E41.8056
G1 X-33.16 Y-40.207 E41.93976
G1 X-32.267 Y-42.753 E42.07436
G1 X-30.145 Y-49.761 E42.43967
G1 X-29.944 Y-50.289 E42.46786
G1 X-29.67 Y-50.784 E42.49608
G1 X-29.328 Y-51.235 E42.52432
G1 X-28.927 Y-51.633 E42.55251
G1 X-28.474 Y-51.971 E42.58071
G1 X-27.977 Y-52.241 E42.60893
G1 X-27.188 Y-52.506 E42.65045
G1 X-26.901 Y-52.57 E42.66512
G1 X-26.342 Y-52.654 E42.69332
G1 X-25.776 Y-52.658 E42.72156
G1 X-25.364 Y-52.61 E42.74225
G1 X-23.547 Y-52.303 E42.83419
G1 X-23.303 Y-52.254 E42.84661
G1 X-20.637 Y-51.631 E42.9832
G1 X-20.343 Y-51.55 E42.99841
G1 X-17.727 Y-50.724 E43.13527
G1 X-17.441 Y-50.622 E43.15042
G1 X-14.899 Y-49.602 E43.28707
G1 X-14.62 Y-49.478 E43.30231
G1 X-12.168 Y-48.269 E43.4387
G1 X-11.902 Y-48.125 E43.45379
G1 X-9.557 Y-46.739 E43.58969
G1 X-9.269 Y-46.551 E43.60685
G1 X-5.152 Y-43.614 E43.85915
G1 X0.372 Y-39.931 E44.19039
G1 X0.845 Y-39.562 E44.22031
G1 X1.177 Y-39.26 E44.24271
G1 X1.515 Y-38.913 E44.26687
G1 X4.998 Y-34.873 E44.53299
G1 X8.761 Y-30.973 E44.80337
G1 X12.775 Y-27.257 E45.07627
G1 X14.799 Y-25.539 E45.20872
G1 X19.111 Y-22.18 E45.48141
G0 F3600 X18.863 Y-21.865
G1 F1500 X23.348 Y-18.762 E45.75351
G1 X27.992 Y-15.924 E46.02503
G1 X36.933 Y-11.193 E46.5297
G1 X37.196 Y-11.039 E46.5449
G1 X39.467 Y-9.579 E46.6796
G1 X39.613 Y-9.48 E46.6884
G1 X44.926 Y-5.684 E47.01417
G1 X48.293 Y-3.499 E47.21442
G1 X48.72 Y-3.174 E47.24119
G1 X49.094 Y-2.79 E47.26794
G1 X49.406 Y-2.354 E47.29468
G1 X49.66 Y-1.855 E47.32262
G1 X49.739 Y-1.664 E47.33293
G1 X49.906 Y-1.154 E47.3597
G1 X49.996 Y-.626 E47.38643
G1 X50.007 Y-0.09 E47.41317
G1 X49.937 Y0.442 E47.43994
G1 X49.79 Y0.958 E47.46671
G1 X49.622 Y1.343 E47.48767
G1 X48.928 Y2.709 E47.56411
G1 X48.778 Y2.974 E47.5793
G1 X47.643 Y4.806 E47.68682
G1 X47.467 Y5.065 E47.70244
G1 X45.927 Y7.126 E47.8308
G1 X45.707 Y7.392 E47.84802
G1 X43.922 Y9.356 E47.98043
G1 X43.668 Y9.609 E47.99831
G1 X41.397 Y11.656 E48.15085
G1 X41.061 Y11.925 E48.17232
G1 X38.146 Y13.979 E48.35023
G1 X37.875 Y14.152 E48.36627
G1 X34.117 Y16.327 E48.58289
G1 X29.517 Y19.291 E48.8559
G1 X25.109 Y22.497 E49.12783
G1 X20.89 Y25.948 E49.39977
G1 X16.864 Y29.639 E49.67226
G1 X13.048 Y33.557 E49.94512
G1 X10.488 Y36.445 E50.13766
G1 X10.337 Y36.605 E50.14864
G1 X8.668 Y38.271 E50.26629
G1 X8.414 Y38.501 E50.28339
G1 X6.029 Y40.466 E50.43756
G1 X5.676 Y40.723 E50.45934
G1 X2.67 Y42.64 E50.63721
G1 X2.409 Y42.792 E50.65228
G1 X1.45 Y43.296 E50.70633
G1 X1.174 Y43.426 E50.72155
G1 X-2.22 Y44.857 E50.90531
G1 X-2.401 Y44.928 E50.91501
G1 X-10.638 Y47.89 E51.35172
G1 X-11.155 Y48.033 E51.37848
G1 X-11.591 Y48.092 E51.40043
G1 X-12.757 Y48.178 E51.45876
G1 X-13.538 Y48.151 E51.49775
G1 X-14.125 Y48.066 E51.52734
G1 X-14.807 Y47.898 E51.56238
G1 X-15.637 Y47.605 E51.6063
G1 X-16.128 Y47.389 E51.63306
G1 X-16.384 Y47.24 E51.64784
G1 X-17.163 Y46.74 E51.69402
G1 X-17.591 Y46.417 E51.72077
G1 X-17.789 Y46.23 E51.73436
G1 X-18.377 Y45.63 E51.77627
G1 X-18.771 Y45.152 E51.80717
G1 X-21.335 Y41.429 E52.0327
G1 X-22.935 Y39.253 E52.16745
G1 X-26.357 Y34.996 E52.43995
G1 X-30.04 Y30.908 E52.71446
G1 X-31.9 Y29.009 E52.84708
G1 X-35.9 Y25.265 E53.12042
G1 X-40.088 Y21.765 E53.39272
G1 X-44.544 Y18.452 E53.66974
G1 X-47.486 Y16.327 E53.8508
G1 X-47.896 Y15.982 E53.87753
G1 X-48.255 Y15.573 E53.90468
G1 X-48.725 Y14.948 E53.9437
G1 X-49.113 Y14.301 E53.98134
G1 X-49.474 Y13.524 E54.02408
G1 X-49.688 Y12.934 E54.05539
G1 X-49.813 Y12.465 E54.07961
G1 X-49.918 Y11.879 E54.10931
G1 X-49.998 Y11.037 E54.1515
G1 X-49.991 Y10.288 E54.18887
G1 X-49.904 Y9.525 E54.22719
G1 X-49.803 Y8.996 E54.25406
G1 X-49.022 Y6.101 E54.40365
G1 X-47.789 Y0.711 E54.67951
G1 X-47.313 Y-1.874 E54.81064
G1 X-46.546 Y-7.312 E55.08463
G1 X-45.955 Y-14.823 E55.46051
G1 X-45.873 Y-15.353 E55.48727
G1 X-45.714 Y-15.865 E55.51402
G1 X-45.48 Y-16.348 E55.54079
G1 X-45.311 Y-16.611 E55.55639
G1 X-44.56 Y-17.679 E55.62153
G1 X-41.089 Y-22.939 E55.93593
G1 X-38.386 Y-27.638 E56.20639
G1 X-35.93 Y-32.526 E56.4793
G1 X-33.76 Y-37.535 E56.75165
G1 X-32.77 Y-40.108 E56.88919
