;FLAVOR:Marlin
;TIME:1637
;Filament used: 0.812211m
;Layer height: 0.1
;Generated with Cura_SteamEngine 1.1.0
M190 S60
M104 S230
M109 S230
G28
G1 Z50.00 F400
G92 E0
G1 F200 E3
G92 E0
M132 X Y Z A
M907 X100 Y100 Z50 A100
;LAYER_COUNT:47
;LAYER:0
M107
G0 F3600 X-32.248 Y-5.258 Z0.3
;TYPE:SKIRT
G1 F1500 X-32.198 Y-5.596 E0.01705
G1 X-30.961 Y-12.235 E0.35397
G1 X-30.289 Y-17.572 E0.62233
G1 X-29.947 Y-22.278 E0.85774
G1 X-29.827 Y-23.05 E0.89671
G1 X-29.581 Y-24.075 E0.9493
G1 X-29.398 Y-24.667 E0.98022
G1 X-29.196 Y-25.125 E1.00519
G1 X-28.935 Y-25.64 E1.034
G1 X-28.491 Y-26.352 E1.07586
G1 X-28.075 Y-26.906 E1.11042
G1 X-27.455 Y-27.586 E1.15633
G1 X-26.968 Y-28.026 E1.18908
G1 X-26.482 Y-28.41 E1.21998
G1 X-25.987 Y-28.711 E1.24888
G1 X-24.975 Y-29.244 E1.30595
G1 X-24.409 Y-29.497 E1.33688
G1 X-23.697 Y-29.7 E1.37381
G1 X-22.888 Y-29.865 E1.41501
G1 X-22.26 Y-29.951 E1.44663
G1 X-18.528 Y-30.209 E1.63326
G1 X-13.148 Y-30.832 E1.90347
G1 X-10.51 Y-31.251 E2.03673
G1 X-5.099 Y-32.279 E2.31151
G1 X-4.782 Y-32.328 E2.32751
G1 X-3.079 Y-32.535 E2.4131
G1 X-2.782 Y-32.562 E2.42798
G1 X-1.034 Y-32.665 E2.51534
G1 X-.601 Y-32.671 E2.53694
G1 X2.65 Y-32.569 E2.69922
G1 X3.078 Y-32.536 E2.72063
G1 X4.781 Y-32.329 E2.80622
G1 X5.107 Y-32.278 E2.82268
G1 X9.635 Y-31.409 E3.05271
G1 X14.985 Y-30.59 E3.32273
G1 X22.571 Y-29.923 E3.70266
G1 X23.183 Y-29.829 E3.73355
G1 X23.651 Y-29.7 E3.75777
G1 X24.742 Y-29.341 E3.81507
G1 X25.317 Y-29.11 E3.84599
G1 X26.107 Y-28.633 E3.89203
G1 X27.036 Y-27.942 E3.94979
G1 X27.508 Y-27.541 E3.98069
G1 X27.961 Y-27.036 E4.01453
G1 X28.435 Y-26.426 E4.05308
G1 X28.783 Y-25.914 E4.08396
G1 X29.05 Y-25.387 E4.11343
G1 X29.467 Y-24.423 E4.16584
G1 X29.676 Y-23.84 E4.19673
G1 X29.808 Y-23.234 E4.22768
G1 X29.846 Y-22.911 E4.2439
G1 X30.164 Y-19.046 E4.43738
G1 X30.761 Y-13.64 E4.70873
G1 X31.662 Y-8.267 E4.98053
G1 X32.226 Y-5.418 E5.12542
G1 X32.284 Y-5.049 E5.14406
G1 X32.59 Y-2.456 E5.27432
G1 X32.623 Y-1.929 E5.30067
G1 X32.648 Y1.44 E5.46875
G1 X32.628 Y1.91 E5.49222
G1 X32.447 Y3.902 E5.59201
G1 X32.39 Y4.323 E5.61321
G1 X30.984 Y12.089 E6.00695
G1 X30.299 Y17.472 E6.27768
G1 X29.948 Y22.27 E6.51769
G1 X29.83 Y23.034 E6.55626
G1 X29.583 Y24.069 E6.60934
G1 X29.401 Y24.661 E6.64024
G1 X29.064 Y25.366 E6.67923
G1 X28.58 Y26.199 E6.72729
G1 X28.235 Y26.714 E6.75822
G1 X27.814 Y27.192 E6.79
G1 X27.134 Y27.868 E6.83783
G1 X26.668 Y28.276 E6.86873
G1 X25.985 Y28.712 E6.90916
G1 X24.976 Y29.243 E6.96604
G1 X24.411 Y29.495 E6.99691
G1 X23.841 Y29.667 E7.02661
G1 X23.191 Y29.82 E7.05993
G1 X22.487 Y29.932 E7.09549
G1 X15.829 Y30.484 E7.4288
G1 X10.483 Y31.256 E7.69828
G1 X5.745 Y32.172 E7.93904
G1 X5.471 Y32.217 E7.95289
G1 X3.169 Y32.525 E8.06876
G1 X2.755 Y32.562 E8.0895
G1 X0.309 Y32.676 E8.21166
G1 X-0.055 Y32.679 E8.22982
G1 X-1.896 Y32.625 E8.32171
G1 X-2.249 Y32.602 E8.33936
G1 X-4.493 Y32.37 E8.45191
G1 X-4.901 Y32.31 E8.47248
G1 X-8.483 Y31.625 E8.65443
G1 X-13.873 Y30.733 E8.92699
G1 X-19.241 Y30.154 E9.19636
G1 X-22.484 Y29.93 E9.35854
G1 X-23.097 Y29.847 E9.3894
G1 X-23.656 Y29.7 E9.41824
G1 X-24.745 Y29.341 E9.47544
G1 X-25.319 Y29.109 E9.50633
G1 X-26.108 Y28.632 E9.55233
G1 X-27.039 Y27.939 E9.61023
G1 X-27.511 Y27.538 E9.64113
G1 X-27.974 Y27.02 E9.67579
G1 X-28.456 Y26.395 E9.71517
G1 X-28.802 Y25.881 E9.74608
G1 X-29.065 Y25.359 E9.77524
G1 X-29.472 Y24.412 E9.82667
G1 X-29.679 Y23.829 E9.85753
G1 X-29.81 Y23.223 E9.88846
G1 X-29.846 Y22.91 E9.90418
G1 X-30.165 Y19.029 E10.09846
G1 X-30.762 Y13.62 E10.36995
G1 X-31.667 Y8.226 E10.64282
G1 X-32.375 Y4.429 E10.83552
G1 X-32.441 Y3.925 E10.86088
G1 X-32.662 Y1.109 E11.0018
G1 X-32.676 Y0.66 E11.02421
G1 X-32.642 Y-1.582 E11.13608
G1 X-32.612 Y-2.05 E11.15948
G1 X-32.248 Y-5.258 E11.32055
G0 F3600 X-31.851 Y-5.213
G1 F1500 X-31.805 Y-5.523 E11.33619
G1 X-30.565 Y-12.18 E11.67402
G1 X-29.891 Y-17.531 E11.94309
G1 X-29.548 Y-22.249 E12.17909
G1 X-29.439 Y-22.957 E12.21483
G1 X-29.193 Y-23.982 E12.26742
G1 X-29.016 Y-24.548 E12.29701
G1 X-28.839 Y-24.944 E12.31865
G1 X-28.578 Y-25.459 E12.34745
G1 X-28.171 Y-26.112 E12.38584
G1 X-27.755 Y-26.666 E12.42041
G1 X-27.187 Y-27.289 E12.46247
G1 X-26.7 Y-27.729 E12.49521
G1 X-26.234 Y-28.096 E12.5248
G1 X-25.8 Y-28.357 E12.55007
G1 X-24.788 Y-28.89 E12.60713
G1 X-24.246 Y-29.13 E12.63671
G1 X-23.617 Y-29.308 E12.66932
G1 X-22.808 Y-29.473 E12.71051
G1 X-22.233 Y-29.552 E12.73947
G1 X-18.497 Y-29.81 E12.9263
G1 X-13.086 Y-30.437 E13.19806
G1 X-10.438 Y-30.857 E13.33182
G1 X-5.024 Y-31.886 E13.60677
G1 X-4.734 Y-31.931 E13.62141
G1 X-3.031 Y-32.138 E13.707
G1 X-2.759 Y-32.162 E13.72062
G1 X-1.011 Y-32.265 E13.80798
G1 X-.614 Y-32.271 E13.82779
G1 X2.637 Y-32.169 E13.99006
G1 X3.03 Y-32.139 E14.00972
G1 X4.733 Y-31.932 E14.09531
G1 X5.031 Y-31.885 E14.11036
G1 X9.574 Y-31.013 E14.34115
G1 X14.937 Y-30.192 E14.61183
G1 X22.536 Y-29.524 E14.99241
G1 X23.122 Y-29.433 E15.02199
G1 X23.526 Y-29.321 E15.04291
G1 X24.617 Y-28.962 E15.10021
G1 X25.167 Y-28.739 E15.12982
G1 X25.868 Y-28.312 E15.17077
G1 X26.797 Y-27.621 E15.22853
G1 X27.248 Y-27.236 E15.25812
G1 X27.645 Y-26.791 E15.28787
G1 X28.119 Y-26.181 E15.32641
G1 X28.451 Y-25.689 E15.35602
G1 X28.683 Y-25.228 E15.38177
G1 X29.1 Y-24.264 E15.43417
G1 X29.299 Y-23.705 E15.46377
G1 X29.447 Y-22.878 E15.50569
G1 X29.766 Y-19.005 E15.69957
G1 X30.364 Y-13.584 E15.97166
G1 X31.269 Y-8.188 E16.24463
G1 X31.833 Y-5.34 E16.38948
G1 X31.887 Y-5.002 E16.40655
G1 X32.193 Y-2.409 E16.53682
G1 X32.223 Y-1.926 E16.56096
G1 X32.248 Y1.443 E16.72904
G1 X32.23 Y1.874 E16.75057
G1 X32.049 Y3.866 E16.85036
G1 X31.997 Y4.252 E16.86979
G1 X30.586 Y12.045 E17.2649
G1 X29.901 Y17.428 E17.53563
G1 X29.549 Y22.241 E17.77639
G1 X29.441 Y22.941 E17.81173
G1 X29.194 Y23.976 E17.86481
G1 X29.018 Y24.543 E17.89443
G1 X28.718 Y25.165 E17.92889
G1 X28.234 Y25.998 E17.97695
G1 X27.903 Y26.49 E18.00653
G1 X27.532 Y26.908 E18.03442
G1 X26.852 Y27.584 E18.08225
G1 X26.404 Y27.973 E18.11186
G1 X25.799 Y28.358 E18.14763
G1 X24.79 Y28.889 E18.20452
G1 X24.248 Y29.129 E18.23409
G1 X23.749 Y29.278 E18.26007
G1 X23.099 Y29.431 E18.29339
G1 X22.454 Y29.533 E18.32596
G1 X15.786 Y30.086 E18.65977
G1 X10.416 Y30.862 E18.93047
G1 X5.669 Y31.779 E19.17168
G1 X5.418 Y31.82 E19.18436
G1 X3.116 Y32.128 E19.30023
G1 X2.737 Y32.162 E19.31922
G1 X0.291 Y32.276 E19.44138
G1 X-0.043 Y32.279 E19.45805
G1 X-1.884 Y32.225 E19.54993
G1 X-2.207 Y32.204 E19.56608
G1 X-4.451 Y31.972 E19.67863
G1 X-4.826 Y31.917 E19.69754
G1 X-8.421 Y31.229 E19.88015
G1 X-13.801 Y30.339 E20.15221
G1 X-19.222 Y29.754 E20.42423
G1 X-22.456 Y29.531 E20.58596
G1 X-23.044 Y29.45 E20.61557
G1 X-23.531 Y29.32 E20.64072
G1 X-24.62 Y28.961 E20.69793
G1 X-25.169 Y28.738 E20.72749
G1 X-25.869 Y28.312 E20.76837
G1 X-26.8 Y27.619 E20.82628
G1 X-27.251 Y27.233 E20.85589
G1 X-27.657 Y26.776 E20.88639
G1 X-28.139 Y26.151 E20.92577
G1 X-28.469 Y25.658 E20.95536
G1 X-28.697 Y25.201 E20.98084
G1 X-29.104 Y24.254 E21.03227
G1 X-29.301 Y23.695 E21.06184
G1 X-29.447 Y22.878 E21.10324
G1 X-29.767 Y18.986 E21.29807
G1 X-30.365 Y13.563 E21.57027
G1 X-31.274 Y8.143 E21.84445
G1 X-31.981 Y4.356 E22.03665
G1 X-32.043 Y3.893 E22.05995
G1 X-32.264 Y1.077 E22.20088
G1 X-32.276 Y0.666 E22.22139
G1 X-32.242 Y-1.576 E22.33326
G1 X-32.215 Y-2.005 E22.3547
G1 X-31.851 Y-5.213 E22.51578
G0 F3600 X-31.453 Y-5.168
G1 F1500 X-31.411 Y-5.45 E22.53
G1 X-30.174 Y-12.092 E22.86707
G1 X-29.491 Y-17.509 E23.13946
G1 X-29.149 Y-22.22 E23.37511
G1 X-29.05 Y-22.863 E23.40757
G1 X-28.804 Y-23.888 E23.46016
G1 X-28.633 Y-24.428 E23.48842
G1 X-28.482 Y-24.763 E23.50675
G1 X-28.221 Y-25.278 E23.53556
G1 X-27.852 Y-25.872 E23.57045
G1 X-27.436 Y-26.426 E23.60501
G1 X-26.919 Y-26.992 E23.64325
G1 X-26.432 Y-27.432 E23.676
G1 X-25.986 Y-27.78 E23.70422
G1 X-25.614 Y-28.003 E23.72586
G1 X-24.602 Y-28.536 E23.78292
G1 X-24.084 Y-28.764 E23.81116
G1 X-23.537 Y-28.916 E23.83948
G1 X-22.728 Y-29.081 E23.88068
G1 X-22.205 Y-29.152 E23.90701
G1 X-18.467 Y-29.411 E24.09394
G1 X-13.027 Y-30.04 E24.36715
G1 X-10.399 Y-30.458 E24.49991
G1 X-4.95 Y-31.493 E24.77663
G1 X-4.686 Y-31.534 E24.78996
G1 X-2.983 Y-31.741 E24.87554
G1 X-2.735 Y-31.763 E24.88797
G1 X-.987 Y-31.866 E24.97532
G1 X-.627 Y-31.871 E24.99329
G1 X2.624 Y-31.769 E25.15556
G1 X2.982 Y-31.742 E25.17347
G1 X4.685 Y-31.535 E25.25906
G1 X4.956 Y-31.492 E25.27275
G1 X9.495 Y-30.621 E25.50333
G1 X14.887 Y-29.795 E25.77548
G1 X22.501 Y-29.126 E26.15681
G1 X23.059 Y-29.036 E26.185
G1 X23.401 Y-28.941 E26.20271
G1 X24.492 Y-28.582 E26.26001
G1 X25.015 Y-28.367 E26.28823
G1 X25.629 Y-27.992 E26.32412
G1 X26.558 Y-27.301 E26.38188
G1 X26.987 Y-26.932 E26.41011
G1 X27.33 Y-26.545 E26.43591
G1 X27.804 Y-25.935 E26.47445
G1 X28.118 Y-25.466 E26.50261
G1 X28.316 Y-25.069 E26.52475
G1 X28.733 Y-24.105 E26.57715
G1 X28.92 Y-23.572 E26.60533
G1 X29.048 Y-22.845 E26.64216
G1 X29.364 Y-19.004 E26.83443
G1 X29.969 Y-13.526 E27.10939
G1 X30.876 Y-8.116 E27.38306
G1 X31.441 Y-5.263 E27.52816
G1 X31.489 Y-4.955 E27.54372
G1 X31.795 Y-2.362 E27.67398
G1 X31.823 Y-1.923 E27.69593
G1 X31.848 Y1.446 E27.86401
G1 X31.832 Y1.838 E27.88358
G1 X31.651 Y3.83 E27.98337
G1 X31.603 Y4.181 E28.00105
G1 X30.191 Y11.98 E28.39647
G1 X29.503 Y17.387 E28.6684
G1 X29.15 Y22.212 E28.90976
G1 X29.052 Y22.849 E28.94192
G1 X28.805 Y23.884 E28.995
G1 X28.635 Y24.423 E29.0232
G1 X28.373 Y24.965 E29.05323
G1 X27.889 Y25.798 E29.1013
G1 X27.571 Y26.265 E29.12949
G1 X27.25 Y26.625 E29.15355
G1 X26.57 Y27.301 E29.20139
G1 X26.142 Y27.67 E29.22958
G1 X25.613 Y28.004 E29.26079
G1 X24.604 Y28.535 E29.31768
G1 X24.086 Y28.762 E29.34589
G1 X23.657 Y28.889 E29.36821
G1 X23.007 Y29.042 E29.40153
G1 X22.421 Y29.134 E29.43112
G1 X15.745 Y29.687 E29.76533
G1 X10.345 Y30.468 E30.03754
G1 X5.593 Y31.386 E30.279
G1 X5.364 Y31.424 E30.29058
G1 X3.062 Y31.732 E30.40645
G1 X2.718 Y31.763 E30.42368
G1 X0.272 Y31.877 E30.54585
G1 X-0.031 Y31.879 E30.56097
G1 X-1.872 Y31.825 E30.65285
G1 X-2.166 Y31.806 E30.66755
G1 X-4.41 Y31.574 E30.7801
G1 X-4.751 Y31.524 E30.7973
G1 X-8.36 Y30.834 E30.98061
G1 X-13.747 Y29.943 E31.25302
G1 X-19.178 Y29.356 E31.52555
G1 X-22.428 Y29.132 E31.68808
G1 X-22.988 Y29.053 E31.7163
G1 X-23.405 Y28.94 E31.73785
G1 X-24.494 Y28.581 E31.79506
G1 X-25.017 Y28.366 E31.82327
G1 X-25.63 Y27.991 E31.85912
G1 X-26.561 Y27.298 E31.91702
G1 X-26.99 Y26.929 E31.94525
G1 X-27.34 Y26.532 E31.97166
G1 X-27.822 Y25.907 E32.01103
G1 X-28.135 Y25.436 E32.03925
G1 X-28.33 Y25.043 E32.06114
G1 X-28.737 Y24.096 E32.11256
G1 X-28.923 Y23.563 E32.14073
G1 X-29.049 Y22.845 E32.17709
G1 X-29.37 Y18.945 E32.37232
G1 X-29.969 Y13.507 E32.64527
G1 X-30.887 Y8.038 E32.92193
G1 X-31.588 Y4.283 E33.11251
G1 X-31.644 Y3.862 E33.1337
G1 X-31.865 Y1.046 E33.27462
G1 X-31.877 Y0.672 E33.29329
G1 X-31.843 Y-1.57 E33.40515
G1 X-31.817 Y-1.96 E33.42466
G1 X-31.453 Y-5.168 E33.58573
G0 F3600 X-31.056 Y-5.123
G1 F1500 X-31.018 Y-5.376 E33.59849
G1 X-29.778 Y-12.034 E33.93637
G1 X-29.095 Y-17.449 E34.20867
G1 X-28.751 Y-22.191 E34.44587
G1 X-28.661 Y-22.77 E34.4751
G1 X-28.415 Y-23.795 E34.52769
G1 X-28.251 Y-24.306 E34.55447
G1 X-28.125 Y-24.582 E34.56961
G1 X-27.864 Y-25.097 E34.59841
G1 X-27.532 Y-25.632 E34.62982
G1 X-27.116 Y-26.186 E34.66439
G1 X-26.65 Y-26.695 E34.69882
G1 X-26.163 Y-27.135 E34.73156
G1 X-25.74 Y-27.464 E34.7583
G1 X-25.428 Y-27.649 E34.77639
G1 X-24.416 Y-28.182 E34.83346
G1 X-23.924 Y-28.396 E34.86022
G1 X-23.457 Y-28.524 E34.88438
G1 X-22.648 Y-28.689 E34.92557
G1 X-22.177 Y-28.753 E34.94929
G1 X-18.437 Y-29.012 E35.13632
G1 X-12.965 Y-29.645 E35.41114
G1 X-10.327 Y-30.064 E35.5444
G1 X-4.875 Y-31.1 E35.82127
G1 X-4.637 Y-31.137 E35.83329
G1 X-2.934 Y-31.344 E35.91888
G1 X-2.712 Y-31.364 E35.93
G1 X-.964 Y-31.467 E36.01736
G1 X-.639 Y-31.471 E36.03357
G1 X2.612 Y-31.369 E36.19585
G1 X2.933 Y-31.345 E36.2119
G1 X4.636 Y-31.138 E36.29749
G1 X4.881 Y-31.099 E36.30987
G1 X9.412 Y-30.229 E36.54005
G1 X14.855 Y-29.396 E36.81477
G1 X22.466 Y-28.727 E37.19594
G1 X22.995 Y-28.641 E37.22268
G1 X23.276 Y-28.561 E37.23726
G1 X24.367 Y-28.202 E37.29456
G1 X24.863 Y-27.997 E37.32134
G1 X25.391 Y-27.671 E37.35229
G1 X26.32 Y-26.98 E37.41006
G1 X26.725 Y-26.628 E37.43683
G1 X27.014 Y-26.3 E37.45864
G1 X27.488 Y-25.69 E37.49718
G1 X27.784 Y-25.243 E37.52393
G1 X27.949 Y-24.91 E37.54247
G1 X28.366 Y-23.946 E37.59487
G1 X28.542 Y-23.44 E37.6216
G1 X28.65 Y-22.813 E37.65334
G1 X28.97 Y-18.925 E37.84797
G1 X29.572 Y-13.47 E38.12177
G1 X30.483 Y-8.038 E38.39656
G1 X31.048 Y-5.185 E38.54166
G1 X31.092 Y-4.908 E38.55565
G1 X31.398 Y-2.315 E38.68592
G1 X31.423 Y-1.92 E38.70566
G1 X31.448 Y1.449 E38.87375
G1 X31.433 Y1.802 E38.89137
G1 X31.252 Y3.794 E38.99116
G1 X31.209 Y4.11 E39.00707
G1 X29.795 Y11.918 E39.40295
G1 X29.105 Y17.344 E39.67584
G1 X28.751 Y22.182 E39.91785
G1 X28.663 Y22.756 E39.94682
G1 X28.416 Y23.791 E39.99991
G1 X28.253 Y24.302 E40.02667
G1 X28.027 Y24.764 E40.05233
G1 X27.543 Y25.597 E40.10039
G1 X27.24 Y26.039 E40.12713
G1 X26.968 Y26.341 E40.14741
G1 X26.288 Y27.017 E40.19524
G1 X25.881 Y27.366 E40.22199
G1 X25.427 Y27.65 E40.24871
G1 X24.418 Y28.181 E40.30559
G1 X23.926 Y28.394 E40.33234
G1 X23.566 Y28.499 E40.35105
G1 X22.916 Y28.652 E40.38436
G1 X22.388 Y28.736 E40.41104
G1 X15.689 Y29.291 E40.7464
G1 X10.295 Y30.071 E41.0183
G1 X5.517 Y30.994 E41.26109
G1 X5.311 Y31.027 E41.27149
G1 X3.009 Y31.335 E41.38736
G1 X2.7 Y31.363 E41.40284
G1 X0.254 Y31.477 E41.52501
G1 X-0.02 Y31.479 E41.53868
G1 X-1.861 Y31.425 E41.63057
G1 X-2.125 Y31.408 E41.64376
G1 X-4.369 Y31.176 E41.75631
G1 X-4.675 Y31.131 E41.77174
G1 X-8.259 Y30.445 E41.9538
G1 X-13.708 Y29.544 E42.22934
G1 X-19.158 Y28.956 E42.50282
G1 X-22.401 Y28.732 E42.665
G1 X-22.932 Y28.656 E42.69176
G1 X-23.28 Y28.56 E42.70977
G1 X-24.369 Y28.201 E42.76698
G1 X-24.865 Y27.996 E42.79375
G1 X-25.392 Y27.67 E42.82467
G1 X-26.323 Y26.977 E42.88257
G1 X-26.728 Y26.625 E42.90934
G1 X-27.024 Y26.287 E42.93176
G1 X-27.506 Y25.662 E42.97113
G1 X-27.801 Y25.215 E42.99785
G1 X-27.962 Y24.885 E43.01617
G1 X-28.369 Y23.938 E43.0676
G1 X-28.544 Y23.431 E43.09436
G1 X-28.65 Y22.812 E43.12569
G1 X-28.971 Y18.909 E43.32107
G1 X-29.573 Y13.45 E43.59507
G1 X-30.481 Y8.036 E43.86895
G1 X-31.195 Y4.209 E44.06317
G1 X-31.245 Y3.831 E44.08219
G1 X-31.466 Y1.015 E44.22312
G1 X-31.477 Y0.678 E44.23994
G1 X-31.443 Y-1.564 E44.3518
G1 X-31.42 Y-1.915 E44.36935
G1 X-31.056 Y-5.123 E44.53043
G0 F3600 X-30.659 Y-5.078
G1 F1500 X-30.625 Y-5.303 E44.54178
G1 X-29.381 Y-11.98 E44.88063
G1 X-28.697 Y-17.408 E45.15358
G1 X-28.352 Y-22.162 E45.39138
G1 X-28.272 Y-22.677 E45.41738
G1 X-28.026 Y-23.702 E45.46997
G1 X-27.768 Y-24.402 E45.50719
G1 X-27.507 Y-24.917 E45.53599
G1 X-27.212 Y-25.391 E45.56385
G1 X-26.796 Y-25.945 E45.59841
G1 X-26.382 Y-26.398 E45.62903
G1 X-25.895 Y-26.838 E45.66177
G1 X-25.495 Y-27.147 E45.68699
G1 X-25.241 Y-27.295 E45.70166
G1 X-24.229 Y-27.828 E45.75872
G1 X-23.765 Y-28.028 E45.78393
G1 X-23.377 Y-28.132 E45.80397
G1 X-22.568 Y-28.297 E45.84516
G1 X-22.15 Y-28.354 E45.86621
G1 X-18.406 Y-28.613 E46.05344
G1 X-12.903 Y-29.25 E46.32982
G1 X-10.255 Y-29.671 E46.46359
G1 X-4.8 Y-30.707 E46.74061
G1 X-4.589 Y-30.74 E46.75126
G1 X-2.886 Y-30.947 E46.83685
G1 X-2.688 Y-30.964 E46.84676
G1 X-.94 Y-31.067 E46.93412
G1 X-.652 Y-31.071 E46.94849
G1 X2.599 Y-30.969 E47.11077
G1 X2.885 Y-30.948 E47.12507
G1 X4.588 Y-30.741 E47.21066
G1 X4.805 Y-30.707 E47.22162
G1 X9.38 Y-29.829 E47.45403
G1 X14.79 Y-29.001 E47.72708
G1 X22.431 Y-28.329 E48.10976
G1 X23.151 Y-28.181 E48.14643
G1 X24.242 Y-27.822 E48.20374
