;FLAVOR:Marlin
;TIME:1340
;Filament used: 0.683243m
;Layer height: 0.1
;Generated with Cura_SteamEngine 1.1.0
M190 S60
M104 S230
M109 S230
G28
G1 Z50.00 F400
G92 E0
G1 F200 E3
G92 E0
M132 X Y Z A
M907 X100 Y100 Z50 A100
;LAYER_COUNT:22
;LAYER:0
M107
G0 F3600 X34.033 Y5.928 Z0.3
;TYPE:SKIRT
G1 F1500 X33.999 Y6.132 E0.01032
G1 X33.597 Y8.281 E0.11939
G1 X33.486 Y8.746 E0.14324
G1 X32.915 Y10.698 E0.24471
G1 X32.801 Y11.04 E0.26269
G1 X31.927 Y13.364 E0.38657
G1 X31.686 Y13.902 E0.41598
G1 X29.475 Y18.121 E0.65362
G1 X29.19 Y18.596 E0.68125
G1 X27.979 Y20.373 E0.78854
G1 X27.762 Y20.666 E0.80673
G1 X26.248 Y22.561 E0.92774
G1 X25.897 Y22.955 E0.95406
G1 X23.259 Y25.6 E1.14044
G1 X23.017 Y25.826 E1.15696
G1 X21.93 Y26.775 E1.22895
G1 X21.646 Y27.004 E1.24715
G1 X19.736 Y28.431 E1.3661
G1 X19.459 Y28.623 E1.38291
G1 X17.907 Y29.621 E1.47497
G1 X17.489 Y29.862 E1.49904
G1 X13.873 Y31.703 E1.70148
G1 X13.455 Y31.891 E1.72434
G1 X11.897 Y32.505 E1.80789
G1 X11.567 Y32.621 E1.82534
G1 X9.083 Y33.396 E1.95516
G1 X8.651 Y33.509 E1.97744
G1 X6.948 Y33.871 E2.0643
G1 X6.672 Y33.921 E2.07829
G1 X3.077 Y34.468 E2.25971
G1 X2.546 Y34.519 E2.28633
G1 X0.31 Y34.608 E2.39797
G1 X-0.03 Y34.61 E2.41493
G1 X-2.13 Y34.545 E2.51975
G1 X-2.666 Y34.498 E2.5466
G1 X-6.39 Y33.961 E2.73431
G1 X-6.747 Y33.896 E2.75241
G1 X-9.374 Y33.312 E2.88667
G1 X-9.876 Y33.171 E2.91269
G1 X-12.355 Y32.329 E3.04331
G1 X-12.773 Y32.165 E3.06571
G1 X-14.271 Y31.494 E3.1476
G1 X-14.487 Y31.39 E3.15956
G1 X-17.496 Y29.858 E3.32801
G1 X-17.906 Y29.623 E3.35159
G1 X-19.338 Y28.706 E3.43643
G1 X-19.616 Y28.514 E3.45328
G1 X-21.667 Y26.987 E3.58085
G1 X-22.038 Y26.681 E3.60485
G1 X-23.513 Y25.334 E3.7045
G1 X-23.678 Y25.176 E3.7159
G1 X-25.963 Y22.88 E3.87751
G1 X-26.322 Y22.476 E3.90447
G1 X-27.819 Y20.588 E4.02468
G1 X-28.025 Y20.308 E4.04202
G1 X-29.184 Y18.606 E4.14475
G1 X-29.49 Y18.091 E4.17464
G1 X-31.92 Y13.344 E4.4407
G1 X-32.164 Y12.782 E4.47126
G1 X-32.922 Y10.675 E4.58298
G1 X-33.033 Y10.323 E4.60139
G1 X-33.686 Y7.948 E4.72428
G1 X-33.8 Y7.422 E4.75113
G1 X-34.405 Y3.582 E4.94507
G1 X-34.446 Y3.244 E4.96206
G1 X-34.555 Y1.97 E5.02585
G1 X-34.572 Y1.626 E5.04303
G1 X-34.604 Y-.741 E5.16113
G1 X-34.596 Y-1.081 E5.1781
G1 X-34.49 Y-2.925 E5.27025
G1 X-34.438 Y-3.409 E5.29453
G1 X-34.022 Y-6.008 E5.42585
G1 X-34.021 Y-6.008 E5.4259
G1 X-33.805 Y-7.391 E5.49573
G1 X-33.691 Y-7.923 E5.52288
G1 X-33.012 Y-10.389 E5.65049
G1 X-32.902 Y-10.737 E5.66869
G1 X-32.205 Y-12.678 E5.77159
G1 X-31.964 Y-13.235 E5.80186
G1 X-29.5 Y-18.072 E6.07269
G1 X-29.19 Y-18.596 E6.10306
G1 X-27.979 Y-20.373 E6.21035
G1 X-27.762 Y-20.666 E6.22854
G1 X-26.248 Y-22.561 E6.34955
G1 X-25.897 Y-22.955 E6.37588
G1 X-23.259 Y-25.6 E6.56225
G1 X-23.017 Y-25.826 E6.57877
G1 X-21.93 Y-26.775 E6.65076
G1 X-21.646 Y-27.004 E6.66896
G1 X-19.736 Y-28.431 E6.78791
G1 X-19.456 Y-28.625 E6.8049
G1 X-17.892 Y-29.629 E6.89762
G1 X-17.477 Y-29.867 E6.92149
G1 X-13.873 Y-31.702 E7.12326
G1 X-13.455 Y-31.891 E7.14615
G1 X-11.897 Y-32.505 E7.22969
G1 X-11.492 Y-32.644 E7.25106
G1 X-8.005 Y-33.67 E7.4324
G1 X-7.398 Y-33.806 E7.46343
G1 X-3.387 Y-34.439 E7.66602
G1 X-2.924 Y-34.49 E7.68926
G1 X-1.228 Y-34.591 E7.77402
G1 X-.808 Y-34.597 E7.79498
G1 X2.773 Y-34.496 E7.9737
G1 X3.388 Y-34.439 E8.00452
G1 X7.409 Y-33.803 E8.20762
G1 X7.934 Y-33.69 E8.23441
G1 X10.392 Y-33.013 E8.36161
G1 X10.74 Y-32.902 E8.37983
G1 X12.68 Y-32.205 E8.48268
G1 X13.187 Y-31.989 E8.51017
G1 X17.466 Y-29.87 E8.74839
G1 X17.981 Y-29.575 E8.778
G1 X20.068 Y-28.197 E8.90277
G1 X20.364 Y-27.984 E8.92097
G1 X22.047 Y-26.679 E9.02722
G1 X22.491 Y-26.289 E9.0567
G1 X26.182 Y-22.617 E9.31645
G1 X26.587 Y-22.159 E9.34695
G1 X28.023 Y-20.311 E9.46371
G1 X28.244 Y-20.003 E9.48263
G1 X29.59 Y-17.956 E9.60485
G1 X29.856 Y-17.498 E9.63128
G1 X31.701 Y-13.877 E9.83403
G1 X31.892 Y-13.453 E9.85723
G1 X32.505 Y-11.892 E9.9409
G1 X32.619 Y-11.568 E9.95803
G1 X33.395 Y-9.084 E10.08787
G1 X33.507 Y-8.658 E10.10984
G1 X33.86 Y-7.009 E10.19397
G1 X33.911 Y-6.725 E10.20837
G1 X34.472 Y-3.034 E10.39463
G1 X34.523 Y-2.497 E10.42154
G1 X34.609 Y-.255 E10.53348
G1 X34.611 Y0.081 E10.55024
G1 X34.546 Y2.134 E10.65272
G1 X34.5 Y2.661 E10.67911
G1 X34.033 Y5.928 E10.84376
G0 F3600 X33.637 Y5.872
G1 F1500 X33.606 Y6.058 E10.85316
G1 X33.204 Y8.207 E10.96224
G1 X33.102 Y8.633 E10.98409
G1 X32.531 Y10.585 E11.08556
G1 X32.426 Y10.899 E11.10208
G1 X31.552 Y13.223 E11.22595
G1 X31.331 Y13.716 E11.2529
G1 X29.12 Y17.935 E11.49054
G1 X28.859 Y18.371 E11.51589
G1 X27.648 Y20.148 E11.62318
G1 X27.45 Y20.416 E11.6398
G1 X25.936 Y22.311 E11.76081
G1 X25.613 Y22.672 E11.78498
G1 X22.975 Y25.317 E11.97135
G1 X22.754 Y25.525 E11.98649
G1 X21.667 Y26.474 E12.05848
G1 X21.406 Y26.684 E12.0752
G1 X19.496 Y28.111 E12.19414
G1 X19.243 Y28.287 E12.20952
G1 X17.691 Y29.285 E12.30158
G1 X17.307 Y29.505 E12.32366
G1 X13.691 Y31.346 E12.52609
G1 X13.308 Y31.519 E12.54706
G1 X11.75 Y32.133 E12.63061
G1 X11.447 Y32.239 E12.64662
G1 X8.963 Y33.014 E12.77644
G1 X8.568 Y33.118 E12.79682
G1 X6.865 Y33.48 E12.88368
G1 X6.612 Y33.526 E12.89651
G1 X3.017 Y34.073 E13.07793
G1 X2.53 Y34.12 E13.10234
G1 X0.294 Y34.209 E13.21398
G1 X-0.017 Y34.21 E13.2295
G1 X-2.117 Y34.145 E13.33432
G1 X-2.609 Y34.102 E13.35896
G1 X-6.333 Y33.565 E13.54667
G1 X-6.66 Y33.505 E13.56326
G1 X-9.287 Y32.921 E13.69752
G1 X-9.747 Y32.792 E13.72135
G1 X-12.226 Y31.95 E13.85197
G1 X-12.61 Y31.8 E13.87254
G1 X-14.108 Y31.129 E13.95443
G1 X-14.305 Y31.034 E13.96534
G1 X-17.314 Y29.502 E14.1338
G1 X-17.691 Y29.286 E14.15547
G1 X-19.123 Y28.369 E14.24031
G1 X-19.378 Y28.193 E14.25577
G1 X-21.429 Y26.666 E14.38334
G1 X-21.768 Y26.386 E14.40527
G1 X-23.243 Y25.039 E14.50493
G1 X-23.395 Y24.894 E14.51541
G1 X-25.68 Y22.598 E14.67702
G1 X-26.009 Y22.228 E14.70172
G1 X-27.506 Y20.34 E14.82193
G1 X-27.695 Y20.083 E14.83784
G1 X-28.854 Y18.381 E14.94057
G1 X-29.134 Y17.909 E14.96795
G1 X-31.564 Y13.162 E15.23401
G1 X-31.787 Y12.646 E15.26205
G1 X-32.545 Y10.539 E15.37377
G1 X-32.648 Y10.216 E15.39068
G1 X-33.301 Y7.841 E15.51357
G1 X-33.404 Y7.36 E15.53811
G1 X-34.009 Y3.52 E15.73205
G1 X-34.047 Y3.21 E15.74763
G1 X-34.156 Y1.936 E15.81143
G1 X-34.172 Y1.62 E15.82721
G1 X-34.204 Y-.747 E15.94531
G1 X-34.197 Y-1.059 E15.96088
G1 X-34.091 Y-2.903 E16.05303
G1 X-34.043 Y-3.345 E16.07521
G1 X-33.627 Y-5.944 E16.20653
G1 X-33.41 Y-7.329 E16.27647
G1 X-33.305 Y-7.817 E16.30137
G1 X-32.626 Y-10.283 E16.42898
G1 X-32.525 Y-10.602 E16.44567
G1 X-31.828 Y-12.543 E16.54856
G1 X-31.608 Y-13.053 E16.57627
G1 X-29.144 Y-17.89 E16.8471
G1 X-28.859 Y-18.371 E16.87499
G1 X-27.648 Y-20.148 E16.98228
G1 X-27.45 Y-20.416 E16.9989
G1 X-25.936 Y-22.311 E17.11991
G1 X-25.613 Y-22.672 E17.14408
G1 X-22.975 Y-25.317 E17.33045
G1 X-22.754 Y-25.525 E17.34559
G1 X-21.667 Y-26.474 E17.41758
G1 X-21.406 Y-26.684 E17.4343
G1 X-19.496 Y-28.111 E17.55324
G1 X-19.24 Y-28.289 E17.5688
G1 X-17.676 Y-29.293 E17.66152
G1 X-17.295 Y-29.511 E17.68342
G1 X-13.691 Y-31.346 E17.88519
G1 X-13.308 Y-31.519 E17.90616
G1 X-11.75 Y-32.133 E17.9897
G1 X-11.379 Y-32.26 E18.00927
G1 X-7.892 Y-33.286 E18.19061
G1 X-7.336 Y-33.411 E18.21904
G1 X-3.325 Y-34.044 E18.42163
G1 X-2.901 Y-34.09 E18.44291
G1 X-1.205 Y-34.191 E18.52767
G1 X-.819 Y-34.197 E18.54693
G1 X2.762 Y-34.096 E18.72566
G1 X3.325 Y-34.044 E18.75386
G1 X7.346 Y-33.408 E18.95697
G1 X7.827 Y-33.304 E18.98152
G1 X10.285 Y-32.627 E19.10871
G1 X10.605 Y-32.526 E19.12546
G1 X12.545 Y-31.829 E19.2283
G1 X13.01 Y-31.631 E19.25351
G1 X17.289 Y-29.512 E19.49174
G1 X17.76 Y-29.241 E19.51885
G1 X19.847 Y-27.863 E19.64362
G1 X20.119 Y-27.668 E19.66031
G1 X21.802 Y-26.363 E19.76656
G1 X22.209 Y-26.005 E19.79361
G1 X25.9 Y-22.333 E20.05336
G1 X26.271 Y-21.914 E20.08128
G1 X27.707 Y-20.066 E20.19804
G1 X27.909 Y-19.783 E20.21539
G1 X29.255 Y-17.736 E20.33761
G1 X29.499 Y-17.317 E20.3618
G1 X31.344 Y-13.696 E20.56455
G1 X31.52 Y-13.306 E20.5859
G1 X32.133 Y-11.745 E20.66957
G1 X32.237 Y-11.449 E20.68522
G1 X33.013 Y-8.965 E20.81505
G1 X33.116 Y-8.574 E20.83523
G1 X33.469 Y-6.925 E20.91936
G1 X33.516 Y-6.665 E20.93254
G1 X34.077 Y-2.974 E21.1188
G1 X34.124 Y-2.482 E21.14346
G1 X34.21 Y-.24 E21.25539
G1 X34.211 Y0.068 E21.27076
G1 X34.146 Y2.121 E21.37324
G1 X34.104 Y2.605 E21.39747
G1 X33.637 Y5.872 E21.56212
G0 F3600 X33.241 Y5.815
G1 F1500 X33.213 Y5.984 E21.57067
G1 X32.811 Y8.133 E21.67974
G1 X32.718 Y8.521 E21.69965
G1 X32.147 Y10.473 E21.80111
G1 X32.052 Y10.758 E21.8161
G1 X31.178 Y13.082 E21.93997
G1 X30.977 Y13.531 E21.96452
G1 X28.766 Y17.75 E22.20216
G1 X28.528 Y18.146 E22.22521
G1 X27.317 Y19.923 E22.33249
G1 X27.137 Y20.167 E22.34762
G1 X25.623 Y22.062 E22.46863
G1 X25.33 Y22.39 E22.49057
G1 X22.692 Y25.035 E22.67694
G1 X22.491 Y25.223 E22.69067
G1 X21.404 Y26.172 E22.76266
G1 X21.167 Y26.363 E22.77785
G1 X19.257 Y27.79 E22.8968
G1 X19.026 Y27.95 E22.91082
G1 X17.474 Y28.948 E23.00287
G1 X17.126 Y29.149 E23.02292
G1 X13.51 Y30.99 E23.22536
G1 X13.162 Y31.146 E23.24439
G1 X11.604 Y31.76 E23.32794
G1 X11.328 Y31.857 E23.34253
G1 X8.844 Y32.632 E23.47235
G1 X8.485 Y32.727 E23.49088
G1 X6.782 Y33.089 E23.57774
G1 X6.552 Y33.13 E23.58939
G1 X2.957 Y33.677 E23.77081
G1 X2.514 Y33.72 E23.79302
G1 X0.278 Y33.809 E23.90466
G1 X-0.005 Y33.81 E23.91878
G1 X-2.105 Y33.745 E24.0236
G1 X-2.552 Y33.706 E24.04599
G1 X-6.276 Y33.169 E24.2337
G1 X-6.573 Y33.115 E24.24876
G1 X-9.2 Y32.531 E24.38302
G1 X-9.618 Y32.413 E24.40469
G1 X-12.097 Y31.571 E24.53531
G1 X-12.446 Y31.435 E24.55399
G1 X-13.944 Y30.764 E24.63588
G1 X-14.124 Y30.678 E24.64584
G1 X-17.133 Y29.146 E24.81429
G1 X-17.475 Y28.95 E24.83396
G1 X-18.907 Y28.033 E24.91879
G1 X-19.139 Y27.872 E24.93288
G1 X-21.19 Y26.345 E25.06045
G1 X-21.498 Y26.091 E25.08037
G1 X-22.973 Y24.744 E25.18003
G1 X-23.111 Y24.612 E25.18955
G1 X-25.396 Y22.316 E25.35116
G1 X-25.695 Y21.979 E25.37364
G1 X-27.192 Y20.091 E25.49385
G1 X-27.364 Y19.857 E25.50834
G1 X-28.523 Y18.155 E25.61107
G1 X-28.778 Y17.727 E25.63592
G1 X-31.208 Y12.98 E25.90198
G1 X-31.411 Y12.511 E25.92747
G1 X-32.169 Y10.404 E26.03919
G1 X-32.262 Y10.11 E26.05457
G1 X-32.915 Y7.735 E26.17746
G1 X-33.009 Y7.298 E26.19976
G1 X-33.614 Y3.458 E26.3937
G1 X-33.648 Y3.176 E26.40787
G1 X-33.757 Y1.902 E26.47166
G1 X-33.772 Y1.615 E26.486
G1 X-33.804 Y-.752 E26.6041
G1 X-33.797 Y-1.036 E26.61828
G1 X-33.691 Y-2.88 E26.71043
G1 X-33.648 Y-3.282 E26.7306
G1 X-33.232 Y-5.881 E26.86191
G1 X-33.015 Y-7.267 E26.9319
G1 X-32.919 Y-7.711 E26.95456
G1 X-32.24 Y-10.177 E27.08217
G1 X-32.149 Y-10.467 E27.09734
G1 X-31.452 Y-12.408 E27.20023
G1 X-31.251 Y-12.872 E27.22545
G1 X-28.787 Y-17.709 E27.49628
G1 X-28.528 Y-18.146 E27.52162
G1 X-27.317 Y-19.923 E27.62891
G1 X-27.137 Y-20.167 E27.64404
G1 X-25.623 Y-22.062 E27.76505
G1 X-25.33 Y-22.39 E27.78699
G1 X-22.692 Y-25.035 E27.97336
G1 X-22.491 Y-25.223 E27.98709
G1 X-21.404 Y-26.172 E28.05908
G1 X-21.167 Y-26.363 E28.07427
G1 X-19.257 Y-27.79 E28.19322
G1 X-19.024 Y-27.952 E28.20737
G1 X-17.46 Y-28.956 E28.3001
G1 X-17.114 Y-29.155 E28.32001
G1 X-13.51 Y-30.99 E28.52178
G1 X-13.162 Y-31.146 E28.5408
G1 X-11.604 Y-31.76 E28.62435
G1 X-11.266 Y-31.876 E28.64218
G1 X-7.779 Y-32.902 E28.82352
G1 X-7.274 Y-33.016 E28.84935
G1 X-3.263 Y-33.649 E29.05194
G1 X-2.877 Y-33.691 E29.07131
G1 X-1.181 Y-33.792 E29.15607
G1 X-.83 Y-33.797 E29.17358
G1 X2.751 Y-33.696 E29.35231
G1 X3.263 Y-33.649 E29.37796
G1 X7.284 Y-33.013 E29.58107
G1 X7.721 Y-32.918 E29.60338
G1 X10.179 Y-32.241 E29.73057
G1 X10.469 Y-32.149 E29.74575
G1 X12.409 Y-31.452 E29.8486
G1 X12.832 Y-31.273 E29.87151
G1 X17.111 Y-29.154 E30.10973
G1 X17.54 Y-28.907 E30.13443
G1 X19.627 Y-27.529 E30.2592
G1 X19.874 Y-27.352 E30.27436
G1 X21.557 Y-26.047 E30.38061
G1 X21.927 Y-25.722 E30.40518
G1 X25.618 Y-22.05 E30.66493
G1 X25.956 Y-21.668 E30.69038
G1 X27.392 Y-19.82 E30.80714
G1 X27.575 Y-19.564 E30.82284
G1 X28.921 Y-17.517 E30.94506
G1 X29.143 Y-17.135 E30.96711
G1 X30.988 Y-13.514 E31.16986
G1 X31.147 Y-13.16 E31.18922
G1 X31.76 Y-11.599 E31.27289
G1 X31.855 Y-11.33 E31.28712
G1 X32.631 Y-8.846 E31.41695
G1 X32.724 Y-8.49 E31.43531
G1 X33.077 Y-6.841 E31.51944
G1 X33.121 Y-6.605 E31.53142
G1 X33.682 Y-2.914 E31.71768
G1 X33.724 Y-2.466 E31.74013
G1 X33.81 Y-.224 E31.85206
G1 X33.811 Y0.056 E31.86603
G1 X33.746 Y2.109 E31.96851
G1 X33.708 Y2.548 E31.99049
G1 X33.241 Y5.815 E32.15514
G0 F3600 X32.845 Y5.758
G1 F1500 X32.82 Y5.911 E32.16288
G1 X32.418 Y8.06 E32.27195
G1 X32.334 Y8.409 E32.28986
G1 X31.763 Y10.361 E32.39132
G1 X31.678 Y10.617 E32.40478
G1 X30.804 Y12.941 E32.52866
G1 X30.623 Y13.345 E32.55074
G1 X28.412 Y17.564 E32.78838
G1 X28.198 Y17.92 E32.8091
G1 X26.987 Y19.697 E32.91639
G1 X26.825 Y19.917 E32.93002
G1 X25.311 Y21.812 E33.05103
G1 X25.047 Y22.107 E33.07078
G1 X22.409 Y24.752 E33.25715
G1 X22.228 Y24.922 E33.26954
G1 X21.141 Y25.871 E33.34153
G1 X20.928 Y26.043 E33.35519
G1 X19.018 Y27.47 E33.47414
G1 X18.81 Y27.614 E33.48676
G1 X17.258 Y28.612 E33.57882
G1 X16.944 Y28.792 E33.59687
G1 X13.328 Y30.633 E33.79931
G1 X13.015 Y30.774 E33.81644
G1 X11.457 Y31.388 E33.89998
G1 X11.209 Y31.476 E33.91311
G1 X8.725 Y32.251 E34.04293
G1 X8.402 Y32.335 E34.05958
G1 X6.699 Y32.697 E34.14644
G1 X6.492 Y32.735 E34.15694
G1 X2.897 Y33.282 E34.33836
G1 X2.498 Y33.32 E34.35836
G1 X0.262 Y33.409 E34.47
G1 X0.008 Y33.41 E34.48267
G1 X-2.092 Y33.345 E34.58749
G1 X-2.495 Y33.31 E34.60768
G1 X-6.219 Y32.773 E34.79539
G1 X-6.486 Y32.724 E34.80893
G1 X-9.113 Y32.14 E34.94319
G1 X-9.49 Y32.035 E34.96272
G1 X-11.969 Y31.193 E35.09333
G1 X-12.283 Y31.069 E35.11018
G1 X-13.781 Y30.398 E35.19207
G1 X-13.942 Y30.321 E35.20097
G1 X-16.951 Y28.789 E35.36943
G1 X-17.259 Y28.613 E35.38713
G1 X-18.691 Y27.696 E35.47196
G1 X-18.9 Y27.552 E35.48462
G1 X-20.951 Y26.025 E35.61219
G1 X-21.229 Y25.795 E35.6302
G1 X-22.704 Y24.448 E35.72985
G1 X-22.828 Y24.329 E35.73843
G1 X-25.113 Y22.033 E35.90003
G1 X-25.382 Y21.731 E35.92021
G1 X-26.879 Y19.843 E36.04042
G1 X-27.034 Y19.632 E36.05348
G1 X-28.193 Y17.93 E36.15621
G1 X-28.422 Y17.544 E36.1786
G1 X-30.852 Y12.797 E36.44466
G1 X-31.034 Y12.376 E36.46754
G1 X-31.792 Y10.269 E36.57926
G1 X-31.876 Y10.004 E36.59312
G1 X-32.529 Y7.629 E36.71601
G1 X-32.614 Y7.235 E36.73612
G1 X-33.219 Y3.395 E36.93006
G1 X-33.25 Y3.142 E36.94278
G1 X-33.359 Y1.868 E37.00657
G1 X-33.372 Y1.61 E37.01946
G1 X-33.404 Y-.757 E37.13756
G1 X-33.398 Y-1.013 E37.15034
G1 X-33.292 Y-2.857 E37.24248
G1 X-33.253 Y-3.219 E37.26065
G1 X-32.837 Y-5.818 E37.39196
G1 X-32.62 Y-7.205 E37.462
G1 X-32.534 Y-7.605 E37.48242
G1 X-31.855 Y-10.071 E37.61002
G1 X-31.772 Y-10.332 E37.62369
G1 X-31.075 Y-12.273 E37.72658
G1 X-30.895 Y-12.69 E37.74924
G1 X-28.431 Y-17.527 E38.02006
G1 X-28.198 Y-17.92 E38.04286
G1 X-26.987 Y-19.697 E38.15014
G1 X-26.825 Y-19.917 E38.16377
G1 X-25.311 Y-21.812 E38.28478
G1 X-25.047 Y-22.107 E38.30453
G1 X-22.409 Y-24.752 E38.49091
G1 X-22.228 Y-24.922 E38.50329
G1 X-21.141 Y-25.871 E38.57528
G1 X-20.928 Y-26.043 E38.58894
G1 X-19.018 Y-27.47 E38.70789
G1 X-18.808 Y-27.616 E38.72065
G1 X-17.244 Y-28.62 E38.81337
G1 X-16.932 Y-28.798 E38.83129
G1 X-13.328 Y-30.633 E39.03306
G1 X-13.015 Y-30.774 E39.05019
G1 X-11.457 Y-31.388 E39.13374
G1 X-11.153 Y-31.493 E39.14978
G1 X-7.666 Y-32.519 E39.33113
G1 X-7.211 Y-32.621 E39.35439
G1 X-3.2 Y-33.254 E39.55697
G1 X-2.853 Y-33.292 E39.57439
G1 X-1.157 Y-33.393 E39.65915
G1 X-.842 Y-33.398 E39.67487
G1 X2.739 Y-33.297 E39.8536
G1 X3.2 Y-33.254 E39.8767
G1 X7.221 Y-32.618 E40.0798
G1 X7.615 Y-32.533 E40.09991
G1 X10.073 Y-31.856 E40.22711
