;FLAVOR:Marlin
;TIME:487
;Filament used: 0.388436m
;Layer height: 0.2
;Generated with Cura_SteamEngine 1.1.0
M190 S60
M104 S230
M109 S230
G28
G1 Z50.00 F400
G92 E0
G1 F200 E3
G92 E0
M132 X Y Z A
M907 X100 Y100 Z50 A100
;LAYER_COUNT:10
;LAYER:0
M107
G0 F3000 X26.281 Y-13.577 Z0.3
;TYPE:SKIRT
G1 F1500 X27.476 Y-11.087 E0.13779
G1 X27.719 Y-10.479 E0.17046
G1 X28.624 Y-7.663 E0.31803
G1 X28.791 Y-6.967 E0.35374
G1 X29.517 Y-2.52 E0.57853
G1 X29.579 Y-1.848 E0.6122
G1 X29.63 Y0.571 E0.73291
G1 X29.623 Y0.947 E0.75168
G1 X29.535 Y2.483 E0.82843
G1 X29.475 Y3.01 E0.85489
G1 X28.823 Y6.856 E1.04951
G1 X28.684 Y7.448 E1.07985
G1 X27.997 Y9.712 E1.19789
G1 X27.879 Y10.055 E1.21598
G1 X27.337 Y11.451 E1.29069
G1 X27.102 Y11.963 E1.3188
G1 X25.114 Y15.711 E1.53046
G1 X24.8 Y16.223 E1.56043
G1 X23.641 Y17.871 E1.66094
G1 X23.435 Y18.143 E1.67797
G1 X22.521 Y19.264 E1.75013
G1 X22.142 Y19.677 E1.77809
G1 X18.987 Y22.736 E1.99734
G1 X18.458 Y23.18 E2.03179
G1 X16.203 Y24.81 E2.17061
G1 X15.695 Y25.131 E2.20059
G1 X13.813 Y26.161 E2.30762
G1 X13.592 Y26.275 E2.32003
G1 X11.142 Y27.455 E2.4557
G1 X10.476 Y27.716 E2.49139
G1 X6.981 Y28.796 E2.67389
G1 X6.32 Y28.95 E2.70775
G1 X3.392 Y29.417 E2.85567
G1 X3.109 Y29.454 E2.86991
G1 X1.876 Y29.576 E2.93173
G1 X1.474 Y29.598 E2.95181
G1 X-.617 Y29.629 E3.05614
G1 X-.971 Y29.622 E3.07381
G1 X-2.513 Y29.531 E3.15087
G1 X-2.982 Y29.48 E3.17441
G1 X-6.286 Y28.956 E3.34131
G1 X-6.95 Y28.801 E3.37533
G1 X-10.518 Y27.699 E3.56163
G1 X-11.221 Y27.42 E3.59936
G1 X-14.82 Y25.649 E3.79948
G1 X-15.389 Y25.319 E3.8323
G1 X-17.814 Y23.68 E3.97832
G1 X-18.162 Y23.421 E3.99997
G1 X-19.269 Y22.517 E4.07127
G1 X-19.679 Y22.14 E4.09906
G1 X-22.736 Y18.987 E4.31816
G1 X-23.183 Y18.454 E4.35286
G1 X-24.838 Y16.16 E4.49399
G1 X-25.161 Y15.647 E4.52423
G1 X-26.17 Y13.794 E4.62949
G1 X-26.281 Y13.577 E4.64165
G1 X-27.476 Y11.088 E4.7794
G1 X-27.719 Y10.479 E4.81211
G1 X-28.624 Y7.663 E4.95968
G1 X-28.791 Y6.967 E4.99539
G1 X-29.517 Y2.52 E5.22019
G1 X-29.579 Y1.847 E5.25391
G1 X-29.63 Y-.589 E5.37547
G1 X-29.623 Y-.972 E5.39458
G1 X-29.532 Y-2.513 E5.47159
G1 X-29.48 Y-2.984 E5.49523
G1 X-28.954 Y-6.292 E5.66234
G1 X-28.874 Y-6.688 E5.6825
G1 X-28.683 Y-7.462 E5.72227
G1 X-28.586 Y-7.801 E5.73986
G1 X-27.676 Y-10.589 E5.88618
G1 X-27.447 Y-11.164 E5.91706
G1 X-26.529 Y-13.092 E6.02359
G1 X-26.414 Y-13.318 E6.03625
G1 X-25.093 Y-15.752 E6.17441
G1 X-24.8 Y-16.223 E6.20208
G1 X-23.641 Y-17.871 E6.3026
G1 X-23.437 Y-18.141 E6.31948
G1 X-22.528 Y-19.257 E6.39129
G1 X-22.147 Y-19.672 E6.4194
G1 X-18.987 Y-22.736 E6.63899
G1 X-18.458 Y-23.18 E6.67345
G1 X-16.203 Y-24.81 E6.81227
G1 X-15.635 Y-25.163 E6.84563
G1 X-11.997 Y-27.087 E7.05095
G1 X-11.437 Y-27.339 E7.08159
G1 X-9.317 Y-28.133 E7.19453
G1 X-8.91 Y-28.265 E7.21587
G1 X-6.827 Y-28.84 E7.32368
G1 X-6.3 Y-28.954 E7.35058
G1 X-2.958 Y-29.483 E7.51939
G1 X-2.496 Y-29.533 E7.54258
G1 X-1.084 Y-29.618 E7.61315
G1 X-.656 Y-29.625 E7.6345
G1 X2.369 Y-29.537 E7.78549
G1 X2.977 Y-29.48 E7.81595
G1 X4.334 Y-29.266 E7.88449
G1 X4.451 Y-29.246 E7.89041
G1 X7.165 Y-28.749 E8.02807
G1 X7.79 Y-28.591 E8.06023
G1 X10.592 Y-27.676 E8.20728
G1 X11.221 Y-27.42 E8.24117
G1 X14.82 Y-25.649 E8.44128
G1 X15.389 Y-25.319 E8.4741
G1 X17.814 Y-23.68 E8.62012
G1 X18.161 Y-23.421 E8.64173
G1 X19.266 Y-22.519 E8.71289
G1 X19.677 Y-22.142 E8.74071
G1 X22.736 Y-18.987 E8.95996
G1 X23.183 Y-18.454 E8.99466
G1 X24.838 Y-16.16 E9.13578
G1 X25.16 Y-15.648 E9.16596
G1 X26.169 Y-13.796 E9.27118
G1 X26.281 Y-13.577 E9.28345
G0 F3000 X25.921 Y-13.404
G1 F1500 X27.116 Y-10.914 E9.42124
G1 X27.338 Y-10.356 E9.4512
G1 X28.243 Y-7.54 E9.59877
G1 X28.397 Y-6.903 E9.63147
G1 X29.123 Y-2.456 E9.85627
G1 X29.179 Y-1.84 E9.88713
G1 X29.23 Y0.579 E10.00784
G1 X29.224 Y0.924 E10.02505
G1 X29.136 Y2.46 E10.10181
G1 X29.081 Y2.943 E10.12606
G1 X28.429 Y6.789 E10.32068
G1 X28.301 Y7.332 E10.34851
G1 X27.614 Y9.596 E10.46655
G1 X27.506 Y9.91 E10.48311
G1 X26.964 Y11.306 E10.55783
G1 X26.749 Y11.776 E10.58361
G1 X24.761 Y15.524 E10.79527
G1 X24.473 Y15.993 E10.82273
G1 X23.314 Y17.641 E10.92325
G1 X23.125 Y17.89 E10.93884
G1 X22.211 Y19.011 E11.011
G1 X21.864 Y19.39 E11.03664
G1 X18.709 Y22.449 E11.25588
G1 X18.224 Y22.856 E11.28747
G1 X15.969 Y24.486 E11.42629
G1 X15.503 Y24.78 E11.45378
G1 X13.621 Y25.81 E11.56081
G1 X13.418 Y25.914 E11.57219
G1 X10.968 Y27.094 E11.70786
G1 X10.358 Y27.334 E11.74056
G1 X6.863 Y28.414 E11.92307
G1 X6.257 Y28.555 E11.95411
G1 X3.329 Y29.022 E12.10203
G1 X3.069 Y29.056 E12.11511
G1 X1.836 Y29.178 E12.17693
G1 X1.468 Y29.199 E12.19532
G1 X-.623 Y29.23 E12.29965
G1 X-.947 Y29.222 E12.31582
G1 X-2.489 Y29.131 E12.39288
G1 X-2.919 Y29.085 E12.41446
G1 X-6.223 Y28.561 E12.58136
G1 X-6.832 Y28.419 E12.61255
G1 X-10.4 Y27.317 E12.79886
G1 X-11.045 Y27.061 E12.83348
G1 X-14.644 Y25.29 E13.0336
G1 X-15.165 Y24.987 E13.06367
G1 X-17.59 Y23.348 E13.20969
G1 X-17.909 Y23.111 E13.22952
G1 X-19.016 Y22.207 E13.30082
G1 X-19.392 Y21.862 E13.32628
G1 X-22.449 Y18.709 E13.54538
G1 X-22.858 Y18.22 E13.57719
G1 X-24.513 Y15.926 E13.71831
G1 X-24.809 Y15.456 E13.74602
G1 X-25.818 Y13.603 E13.85128
G1 X-25.921 Y13.403 E13.86251
G1 X-27.116 Y10.914 E14.00026
G1 X-27.338 Y10.356 E14.03022
G1 X-28.243 Y7.54 E14.17778
G1 X-28.397 Y6.903 E14.21048
G1 X-29.123 Y2.456 E14.43528
G1 X-29.179 Y1.839 E14.46619
G1 X-29.23 Y-.597 E14.58775
G1 X-29.223 Y-.948 E14.60526
G1 X-29.132 Y-2.489 E14.68228
G1 X-29.085 Y-2.921 E14.70396
G1 X-28.559 Y-6.229 E14.87107
G1 X-28.486 Y-6.592 E14.88954
G1 X-28.295 Y-7.366 E14.92931
G1 X-28.206 Y-7.677 E14.94545
G1 X-27.296 Y-10.465 E15.09177
G1 X-27.086 Y-10.992 E15.12007
G1 X-26.168 Y-12.92 E15.2266
G1 X-26.062 Y-13.127 E15.23821
G1 X-24.741 Y-15.561 E15.37637
G1 X-24.473 Y-15.993 E15.40173
G1 X-23.314 Y-17.641 E15.50225
G1 X-23.127 Y-17.889 E15.51775
G1 X-22.218 Y-19.005 E15.58956
G1 X-21.869 Y-19.385 E15.6153
G1 X-18.709 Y-22.449 E15.83489
G1 X-18.224 Y-22.856 E15.86648
G1 X-15.969 Y-24.486 E16.00529
G1 X-15.448 Y-24.81 E16.0359
G1 X-11.81 Y-26.734 E16.24122
G1 X-11.296 Y-26.964 E16.26932
G1 X-9.176 Y-27.758 E16.38226
G1 X-8.804 Y-27.879 E16.40178
G1 X-6.721 Y-28.454 E16.50958
G1 X-6.238 Y-28.559 E16.53424
G1 X-2.896 Y-29.088 E16.70305
G1 X-2.472 Y-29.134 E16.72433
G1 X-1.06 Y-29.219 E16.7949
G1 X-.668 Y-29.225 E16.81446
G1 X2.357 Y-29.137 E16.96544
G1 X2.914 Y-29.085 E16.99335
G1 X4.271 Y-28.871 E17.06189
G1 X4.379 Y-28.853 E17.06735
G1 X7.093 Y-28.356 E17.20501
G1 X7.666 Y-28.211 E17.2345
G1 X10.468 Y-27.296 E17.38155
G1 X11.045 Y-27.061 E17.41263
G1 X14.644 Y-25.29 E17.61275
G1 X15.165 Y-24.987 E17.64282
G1 X17.59 Y-23.348 E17.78885
G1 X17.908 Y-23.112 E17.8086
G1 X19.013 Y-22.21 E17.87977
G1 X19.39 Y-21.864 E17.9053
G1 X22.449 Y-18.709 E18.12454
G1 X22.858 Y-18.22 E18.15634
G1 X24.513 Y-15.926 E18.29747
G1 X24.809 Y-15.457 E18.32513
G1 X25.818 Y-13.605 E18.43035
G1 X25.921 Y-13.404 E18.44162
G0 F3000 X25.56 Y-13.231
G1 F1500 X26.755 Y-10.741 E18.57941
G1 X26.957 Y-10.234 E18.60664
G1 X27.862 Y-7.418 E18.75421
G1 X28.002 Y-6.838 E18.78398
G1 X28.728 Y-2.391 E19.00878
G1 X28.779 Y-1.831 E19.03683
G1 X28.83 Y0.588 E19.15754
G1 X28.824 Y0.901 E19.17316
G1 X28.736 Y2.437 E19.24992
G1 X28.687 Y2.877 E19.272
G1 X28.035 Y6.723 E19.46662
G1 X27.919 Y7.215 E19.49184
G1 X27.232 Y9.479 E19.60988
G1 X27.133 Y9.766 E19.62502
G1 X26.591 Y11.162 E19.69973
G1 X26.396 Y11.588 E19.72311
G1 X24.408 Y15.336 E19.93477
G1 X24.146 Y15.763 E19.95977
G1 X22.987 Y17.411 E20.06028
G1 X22.815 Y17.638 E20.07449
G1 X21.901 Y18.759 E20.14665
G1 X21.585 Y19.103 E20.16996
G1 X18.43 Y22.162 E20.3892
G1 X17.989 Y22.532 E20.41792
G1 X15.734 Y24.162 E20.55673
G1 X15.311 Y24.429 E20.58169
G1 X13.429 Y25.459 E20.68872
G1 X13.245 Y25.554 E20.69906
G1 X10.795 Y26.734 E20.83472
G1 X10.24 Y26.952 E20.86447
G1 X6.745 Y28.032 E21.04697
G1 X6.194 Y28.16 E21.0752
G1 X3.266 Y28.627 E21.22312
G1 X3.03 Y28.658 E21.235
G1 X1.797 Y28.78 E21.29681
G1 X1.462 Y28.799 E21.31355
G1 X-.629 Y28.83 E21.41788
G1 X-.924 Y28.823 E21.43261
G1 X-2.466 Y28.732 E21.50967
G1 X-2.857 Y28.69 E21.52929
G1 X-6.161 Y28.166 E21.69619
G1 X-6.714 Y28.037 E21.72452
G1 X-10.282 Y26.935 E21.91082
G1 X-10.868 Y26.702 E21.94228
G1 X-14.467 Y24.931 E22.1424
G1 X-14.941 Y24.656 E22.16974
G1 X-17.366 Y23.017 E22.31577
G1 X-17.656 Y22.801 E22.33381
G1 X-18.763 Y21.897 E22.40511
G1 X-19.105 Y21.583 E22.42827
G1 X-22.162 Y18.43 E22.64737
G1 X-22.534 Y17.986 E22.67627
G1 X-24.189 Y15.692 E22.8174
G1 X-24.458 Y15.265 E22.84257
G1 X-25.467 Y13.412 E22.94784
G1 X-25.56 Y13.23 E22.95803
G1 X-26.755 Y10.741 E23.09578
G1 X-26.957 Y10.234 E23.12301
G1 X-27.862 Y7.418 E23.27058
G1 X-28.002 Y6.838 E23.30034
G1 X-28.728 Y2.391 E23.52514
G1 X-28.779 Y1.831 E23.5532
G1 X-28.83 Y-.605 E23.67476
G1 X-28.824 Y-.925 E23.69072
G1 X-28.733 Y-2.466 E23.76774
G1 X-28.69 Y-2.858 E23.78741
G1 X-28.164 Y-6.166 E23.95452
G1 X-28.098 Y-6.496 E23.97131
G1 X-27.907 Y-7.27 E24.01109
G1 X-27.826 Y-7.553 E24.02577
G1 X-26.916 Y-10.341 E24.17209
G1 X-26.725 Y-10.82 E24.19782
G1 X-25.807 Y-12.748 E24.30435
G1 X-25.711 Y-12.936 E24.31488
G1 X-24.39 Y-15.37 E24.45305
G1 X-24.146 Y-15.763 E24.47612
G1 X-22.987 Y-17.411 E24.57664
G1 X-22.816 Y-17.636 E24.59074
G1 X-21.907 Y-18.752 E24.66255
G1 X-21.59 Y-19.098 E24.68596
G1 X-18.43 Y-22.162 E24.90556
G1 X-17.989 Y-22.532 E24.93427
G1 X-15.734 Y-24.162 E25.07309
G1 X-15.261 Y-24.456 E25.10088
G1 X-11.623 Y-26.38 E25.3062
G1 X-11.156 Y-26.59 E25.33174
G1 X-9.036 Y-27.384 E25.44468
G1 X-8.697 Y-27.494 E25.46246
G1 X-6.614 Y-28.069 E25.57027
G1 X-6.175 Y-28.164 E25.59268
G1 X-2.833 Y-28.693 E25.76149
G1 X-2.448 Y-28.735 E25.78081
G1 X-1.036 Y-28.82 E25.85138
G1 X-.68 Y-28.825 E25.86915
G1 X2.345 Y-28.737 E26.02013
G1 X2.852 Y-28.69 E26.04553
G1 X4.209 Y-28.476 E26.11407
G1 X4.307 Y-28.46 E26.11902
G1 X7.021 Y-27.963 E26.25668
G1 X7.542 Y-27.83 E26.2835
G1 X10.344 Y-26.915 E26.43056
G1 X10.868 Y-26.702 E26.45878
G1 X14.467 Y-24.931 E26.6589
G1 X14.941 Y-24.656 E26.68624
G1 X17.366 Y-23.017 E26.83226
G1 X17.655 Y-22.802 E26.85023
G1 X18.76 Y-21.9 E26.9214
G1 X19.103 Y-21.585 E26.94463
G1 X22.162 Y-18.43 E27.16387
G1 X22.534 Y-17.986 E27.19277
G1 X24.189 Y-15.692 E27.33389
G1 X24.458 Y-15.266 E27.35903
G1 X25.467 Y-13.414 E27.46425
G1 X25.56 Y-13.231 E27.47449
G0 F3000 X25.115 Y-13.222
G1 F1500 X25.2 Y-13.058 E27.48371
G1 X26.395 Y-10.568 E27.6215
G1 X26.576 Y-10.111 E27.64602
G1 X27.481 Y-7.295 E27.79359
G1 X27.607 Y-6.774 E27.82033
G1 X28.333 Y-2.327 E28.04513
G1 X28.379 Y-1.823 E28.07038
G1 X28.43 Y0.596 E28.19109
G1 X28.425 Y0.878 E28.20516
G1 X28.337 Y2.414 E28.28192
G1 X28.292 Y2.81 E28.3018
G1 X27.64 Y6.656 E28.49642
G1 X27.536 Y7.099 E28.51912
G1 X26.849 Y9.363 E28.63716
G1 X26.76 Y9.621 E28.65077
G1 X26.218 Y11.017 E28.72548
G1 X26.042 Y11.401 E28.74656
G1 X24.054 Y15.149 E28.95822
G1 X23.819 Y15.533 E28.98068
G1 X22.66 Y17.181 E29.0812
G1 X22.505 Y17.385 E29.09398
G1 X21.591 Y18.506 E29.16614
G1 X21.307 Y18.816 E29.18712
G1 X18.152 Y21.875 E29.40636
G1 X17.755 Y22.208 E29.43221
G1 X15.5 Y23.838 E29.57103
G1 X15.119 Y24.078 E29.59349
G1 X13.237 Y25.108 E29.70053
G1 X13.071 Y25.193 E29.70983
G1 X10.621 Y26.373 E29.8455
G1 X10.122 Y26.57 E29.87227
G1 X6.627 Y27.65 E30.05477
G1 X6.131 Y27.765 E30.08017
G1 X3.203 Y28.232 E30.22809
G1 X2.99 Y28.26 E30.23881
G1 X1.757 Y28.382 E30.30063
G1 X1.456 Y28.399 E30.31567
G1 X-.635 Y28.43 E30.42
G1 X-.9 Y28.424 E30.43322
G1 X-2.442 Y28.333 E30.51029
G1 X-2.794 Y28.295 E30.52795
G1 X-6.098 Y27.771 E30.69485
G1 X-6.596 Y27.655 E30.72036
G1 X-10.164 Y26.553 E30.90667
G1 X-10.691 Y26.343 E30.93497
G1 X-14.29 Y24.572 E31.13508
G1 X-14.717 Y24.325 E31.15969
G1 X-17.142 Y22.686 E31.30572
G1 X-17.403 Y22.491 E31.32197
G1 X-18.51 Y21.587 E31.39328
G1 X-18.818 Y21.305 E31.41411
G1 X-21.875 Y18.152 E31.63321
G1 X-22.21 Y17.752 E31.65924
G1 X-23.865 Y15.458 E31.80037
G1 X-24.107 Y15.074 E31.82301
G1 X-25.116 Y13.221 E31.92828
G1 X-25.199 Y13.057 E31.93745
G1 X-26.394 Y10.568 E32.07519
G1 X-26.576 Y10.111 E32.09973
G1 X-27.481 Y7.295 E32.2473
G1 X-27.607 Y6.774 E32.27404
G1 X-28.333 Y2.327 E32.49884
G1 X-28.379 Y1.822 E32.52414
G1 X-28.43 Y-.614 E32.6457
G1 X-28.425 Y-.901 E32.66002
G1 X-28.334 Y-2.442 E32.73704
G1 X-28.295 Y-2.795 E32.75475
G1 X-27.769 Y-6.103 E32.92186
G1 X-27.709 Y-6.4 E32.93698
G1 X-27.518 Y-7.174 E32.97676
G1 X-27.445 Y-7.429 E32.98999
G1 X-26.535 Y-10.217 E33.1363
G1 X-26.363 Y-10.648 E33.15946
G1 X-25.445 Y-12.576 E33.26599
G1 X-25.359 Y-12.745 E33.27545
G1 X-24.038 Y-15.179 E33.41362
G1 X-23.819 Y-15.533 E33.43438
G1 X-22.66 Y-17.181 E33.5349
G1 X-22.506 Y-17.384 E33.54761
G1 X-21.597 Y-18.5 E33.61942
G1 X-21.312 Y-18.811 E33.64047
G1 X-18.152 Y-21.875 E33.86006
G1 X-17.755 Y-22.208 E33.88591
G1 X-15.5 Y-23.838 E34.02473
G1 X-15.074 Y-24.102 E34.04973
G1 X-11.436 Y-26.026 E34.25505
G1 X-11.016 Y-26.215 E34.27803
G1 X-8.896 Y-27.009 E34.39097
G1 X-8.591 Y-27.108 E34.40697
G1 X-6.508 Y-27.683 E34.51478
G1 X-6.113 Y-27.769 E34.53495
G1 X-2.771 Y-28.298 E34.70375
G1 X-2.424 Y-28.335 E34.72116
G1 X-1.012 Y-28.42 E34.79174
G1 X-.691 Y-28.425 E34.80775
G1 X2.334 Y-28.337 E34.95874
G1 X2.79 Y-28.295 E34.98158
G1 X4.147 Y-28.081 E35.05012
G1 X4.234 Y-28.066 E35.05452
G1 X6.948 Y-27.569 E35.19218
G1 X7.418 Y-27.45 E35.21637
G1 X10.22 Y-26.535 E35.36342
G1 X10.691 Y-26.343 E35.3888
G1 X14.29 Y-24.572 E35.58892
G1 X14.717 Y-24.325 E35.61353
G1 X17.142 Y-22.686 E35.75955
G1 X17.402 Y-22.492 E35.77574
G1 X18.507 Y-21.59 E35.8469
G1 X18.816 Y-21.307 E35.8678
G1 X21.875 Y-18.152 E36.08705
G1 X22.21 Y-17.752 E36.11308
G1 X23.865 Y-15.458 E36.2542
G1 X24.106 Y-15.074 E36.27682
G1 X25.115 Y-13.222 E36.38204
G0 F3000 X24.764 Y-13.031
G1 F1500 X24.839 Y-12.885 E36.39023
G1 X26.034 Y-10.395 E36.52802
G1 X26.196 Y-9.989 E36.54983
G1 X27.101 Y-7.173 E36.69739
G1 X27.212 Y-6.71 E36.72115
G1 X27.938 Y-2.263 E36.94595
G1 X27.979 Y-1.814 E36.96844
G1 X28.03 Y0.605 E37.08915
G1 X28.026 Y0.855 E37.10163
G1 X27.938 Y2.391 E37.17838
G1 X27.898 Y2.743 E37.19606
G1 X27.246 Y6.589 E37.39067
G1 X27.153 Y6.983 E37.41087
G1 X26.466 Y9.247 E37.52891
G1 X26.387 Y9.476 E37.54099
G1 X25.845 Y10.872 E37.6157
G1 X25.689 Y11.213 E37.63441
G1 X23.701 Y14.961 E37.84608
G1 X23.492 Y15.303 E37.86607
G1 X22.333 Y16.951 E37.96659
G1 X22.195 Y17.132 E37.97794
G1 X21.281 Y18.253 E38.05011
G1 X21.029 Y18.528 E38.06871
G1 X17.874 Y21.587 E38.28796
G1 X17.521 Y21.883 E38.31094
G1 X15.266 Y23.513 E38.44976
G1 X14.927 Y23.727 E38.46976
G1 X13.045 Y24.757 E38.57679
G1 X12.898 Y24.833 E38.58505
G1 X10.448 Y26.013 E38.72072
G1 X10.004 Y26.187 E38.74451
G1 X6.509 Y27.267 E38.92701
G1 X6.068 Y27.37 E38.9496
G1 X3.14 Y27.837 E39.09753
G1 X2.951 Y27.861 E39.10703
G1 X1.718 Y27.983 E39.16885
G1 X1.45 Y27.999 E39.18224
G1 X-.641 Y28.03 E39.28657
G1 X-.877 Y28.024 E39.29835
G1 X-2.419 Y27.933 E39.37542
G1 X-2.731 Y27.899 E39.39107
G1 X-6.035 Y27.375 E39.55797
G1 X-6.478 Y27.272 E39.58066
G1 X-10.046 Y26.17 E39.76697
G1 X-10.515 Y25.984 E39.79214
G1 X-14.114 Y24.213 E39.99226
G1 X-14.493 Y23.993 E40.01412
G1 X-16.918 Y22.354 E40.16014
G1 X-17.15 Y22.182 E40.17455
G1 X-18.257 Y21.278 E40.24586
G1 X-18.53 Y21.026 E40.26439
G1 X-21.587 Y17.873 E40.48349
G1 X-21.885 Y17.518 E40.50662
G1 X-23.54 Y15.224 E40.64774
G1 X-23.755 Y14.882 E40.6679
G1 X-24.764 Y13.029 E40.77316
G1 X-24.839 Y12.884 E40.7813
G1 X-26.034 Y10.395 E40.91905
G1 X-26.196 Y9.989 E40.94086
G1 X-27.101 Y7.173 E41.08843
G1 X-27.212 Y6.71 E41.11218
G1 X-27.938 Y2.263 E41.33698
G1 X-27.979 Y1.814 E41.35947
G1 X-28.03 Y-.622 E41.48103
