;FLAVOR:Marlin
;TIME:1323
;Filament used: 1.22447m
;Layer height: 0.2
;Generated with Cura_SteamEngine 1.1.0
M190 S60
M104 S230
M109 S230
G28
G1 Z50.00 F400
G92 E0
G1 F200 E3
G92 E0
M132 X Y Z A
M907 X100 Y100 Z50 A100
;LAYER_COUNT:20
;LAYER:0
M107
G0 F3000 X36.051 Y2.835 Z0.3
;TYPE:SKIRT
G1 F1500 X35.986 Y8.212 E0.26828
G1 X36.322 Y14.919 E0.60331
G1 X36.328 Y15.096 E0.61215
G1 X36.361 Y17.612 E0.73768
G1 X36.338 Y18.143 E0.7642
G1 X36.072 Y20.857 E0.90025
G1 X36.011 Y21.282 E0.92167
G1 X35.493 Y24.02 E1.06069
G1 X34.664 Y29.426 E1.33355
G1 X34.035 Y35.857 E1.65593
G1 X33.935 Y36.469 E1.68686
G1 X33.687 Y37.24 E1.72727
G1 X33.256 Y38.272 E1.78307
G1 X32.981 Y38.827 E1.81397
G1 X32.637 Y39.342 E1.84487
G1 X32.268 Y39.769 E1.87302
G1 X31.524 Y40.534 E1.92626
G1 X31.064 Y40.949 E1.95717
G1 X30.555 Y41.301 E1.98805
G1 X30.127 Y41.53 E2.01226
G1 X29.158 Y41.986 E2.06569
G1 X28.582 Y42.213 E2.09658
G1 X27.981 Y42.364 E2.1275
G1 X27.552 Y42.423 E2.1491
G1 X24.232 Y42.727 E2.31543
G1 X18.788 Y43.383 E2.589
G1 X12.662 Y44.462 E2.89933
G1 X12.266 Y44.515 E2.91926
G1 X9.518 Y44.766 E3.05693
G1 X8.951 Y44.784 E3.08523
G1 X6.226 Y44.71 E3.22123
G1 X5.933 Y44.693 E3.23587
G1 X-0.02 Y44.166 E3.53403
G1 X-5.416 Y43.993 E3.80338
G1 X-10.81 Y44.126 E4.07257
G1 X-16.17 Y44.561 E4.34086
G1 X-21.485 Y45.299 E4.60857
G1 X-26.785 Y46.341 E4.87805
G1 X-29.404 Y46.972 E5.01245
G1 X-33.36 Y48.073 E5.21732
G1 X-33.558 Y48.124 E5.22752
G1 X-35.773 Y48.64 E5.34098
G1 X-36.214 Y48.721 E5.36335
G1 X-37.896 Y48.95 E5.44804
G1 X-38.514 Y48.994 E5.47895
G1 X-39.133 Y48.958 E5.50989
G1 X-39.741 Y48.842 E5.54077
G1 X-40.33 Y48.65 E5.57167
G1 X-40.888 Y48.382 E5.60256
G1 X-41.408 Y48.046 E5.63345
G1 X-42.04 Y47.483 E5.67567
G1 X-42.151 Y47.365 E5.68375
G1 X-42.546 Y46.887 E5.71469
G1 X-42.875 Y46.363 E5.74556
G1 X-43.135 Y45.8 E5.7765
G1 X-43.319 Y45.209 E5.80738
G1 X-43.442 Y44.434 E5.84653
G1 X-43.621 Y42.038 E5.9664
G1 X-44.212 Y36.661 E6.23627
G1 X-45.104 Y31.347 E6.5051
G1 X-46.621 Y24.77 E6.84184
G1 X-46.738 Y23.926 E6.88435
G1 X-46.786 Y22.947 E6.93325
G1 X-46.758 Y22.144 E6.97334
G1 X-45.878 Y14.753 E7.34468
G1 X-45.593 Y9.402 E7.61202
G1 X-45.612 Y4.006 E7.88123
G1 X-45.935 Y-1.38 E8.15042
G1 X-46.21 Y-4.044 E8.28404
G1 X-46.767 Y-8.272 E8.4968
G1 X-46.8 Y-9.169 E8.54158
G1 X-46.394 Y-16.393 E8.90255
G1 X-46.42 Y-21.775 E9.17107
G1 X-46.751 Y-27.144 E9.43943
G1 X-47.386 Y-32.495 E9.70827
G1 X-48.734 Y-40.073 E10.09227
G1 X-48.803 Y-40.689 E10.1232
G1 X-48.792 Y-41.308 E10.15408
G1 X-48.753 Y-41.641 E10.17081
G1 X-48.588 Y-42.718 E10.22517
G1 X-48.455 Y-43.323 E10.25607
G1 X-48.127 Y-44.156 E10.30074
G1 X-47.703 Y-44.995 E10.34764
G1 X-47.389 Y-45.529 E10.37854
G1 X-46.921 Y-46.113 E10.41588
G1 X-46.276 Y-46.801 E10.46293
G1 X-45.824 Y-47.224 E10.49382
G1 X-45.116 Y-47.708 E10.5366
G1 X-44.202 Y-48.219 E10.58884
G1 X-43.643 Y-48.485 E10.61973
G1 X-43.055 Y-48.678 E10.6506
G1 X-42.738 Y-48.748 E10.6668
G1 X-41.69 Y-48.943 E10.71998
G1 X-41.075 Y-49.017 E10.75089
G1 X-40.456 Y-49.011 E10.78177
G1 X-40.067 Y-48.966 E10.80131
G1 X-38.921 Y-48.786 E10.85918
G1 X-38.136 Y-48.594 E10.8995
G1 X-32.757 Y-46.785 E11.18263
G1 X-27.58 Y-45.371 E11.45037
G1 X-22.255 Y-44.233 E11.72204
G1 X-19.709 Y-43.803 E11.85086
G1 X-8.586 Y-42.469 E12.40976
G1 X-3.217 Y-42.093 E12.67828
G1 X2.179 Y-42.021 E12.94751
G1 X7.556 Y-42.253 E13.21602
G1 X14.689 Y-42.998 E13.57382
G1 X15.308 Y-43.022 E13.60473
G1 X15.921 Y-42.968 E13.63543
G1 X17.041 Y-42.795 E13.69197
G1 X17.645 Y-42.661 E13.72283
G1 X17.991 Y-42.546 E13.74102
G1 X26.797 Y-39.248 E14.21016
G1 X27.391 Y-38.978 E14.24271
G1 X29.651 Y-37.76 E14.37079
G1 X30.048 Y-37.521 E14.39391
G1 X31.671 Y-36.432 E14.49142
G1 X32.001 Y-36.19 E14.51184
G1 X33.554 Y-34.944 E14.61117
G1 X33.818 Y-34.716 E14.62858
G1 X34.965 Y-33.65 E14.7067
G1 X35.274 Y-33.335 E14.72871
G1 X36.895 Y-31.524 E14.84997
G1 X37.137 Y-31.231 E14.86893
G1 X38.006 Y-30.09 E14.94048
G1 X38.216 Y-29.791 E14.95871
G1 X39.344 Y-28.049 E15.06225
G1 X39.531 Y-27.734 E15.08053
G1 X40.185 Y-26.532 E15.1488
G1 X40.446 Y-25.97 E15.17971
G1 X40.631 Y-25.379 E15.21061
G1 X40.755 Y-24.606 E15.24967
G1 X40.774 Y-24.359 E15.26203
G1 X40.781 Y-23.74 E15.29291
G1 X40.709 Y-23.125 E15.3238
G1 X40.609 Y-22.691 E15.34602
G1 X38.663 Y-15.773 E15.70456
G1 X37.532 Y-10.478 E15.97468
G1 X37.097 Y-7.906 E16.10482
G1 X36.423 Y-2.548 E16.37424
G1 X36.051 Y2.835 E16.64344
G0 F3000 X35.651 Y2.821
G1 F1500 X35.586 Y8.227 E16.91317
G1 X35.922 Y14.939 E17.24845
G1 X35.928 Y15.101 E17.25654
G1 X35.961 Y17.617 E17.38207
G1 X35.94 Y18.104 E17.40639
G1 X35.674 Y20.818 E17.54244
G1 X35.618 Y21.207 E17.56205
G1 X35.096 Y23.965 E17.70209
G1 X34.268 Y29.365 E17.97465
G1 X33.637 Y35.818 E18.29812
G1 X33.54 Y36.403 E18.32771
G1 X33.318 Y37.086 E18.36354
G1 X32.887 Y38.118 E18.41933
G1 X32.622 Y38.648 E18.4489
G1 X32.288 Y39.138 E18.47848
G1 X31.981 Y39.49 E18.50178
G1 X31.237 Y40.255 E18.55502
G1 X30.796 Y40.651 E18.58459
G1 X30.306 Y40.984 E18.61415
G1 X29.957 Y41.168 E18.63383
G1 X28.988 Y41.624 E18.68726
G1 X28.435 Y41.84 E18.71688
G1 X27.859 Y41.979 E18.74644
G1 X27.516 Y42.025 E18.76371
G1 X24.145 Y42.334 E18.93259
G1 X18.742 Y42.984 E19.20409
G1 X12.592 Y44.068 E19.51565
G1 X12.229 Y44.117 E19.53392
G1 X9.481 Y44.368 E19.67159
G1 X8.962 Y44.384 E19.6975
G1 X6.237 Y44.31 E19.8335
G1 X5.968 Y44.295 E19.84694
G1 X-0.007 Y43.766 E20.1462
G1 X-5.413 Y43.593 E20.41604
G1 X-10.818 Y43.726 E20.68578
G1 X-16.222 Y44.165 E20.95628
G1 X-21.563 Y44.906 E21.22529
G1 X-26.864 Y45.949 E21.49483
G1 X-29.488 Y46.58 E21.62947
G1 X-33.467 Y47.688 E21.83554
G1 X-33.649 Y47.734 E21.84491
G1 X-35.864 Y48.25 E21.95837
G1 X-36.268 Y48.325 E21.97887
G1 X-37.95 Y48.554 E22.06356
G1 X-38.542 Y48.594 E22.09316
G1 X-39.134 Y48.554 E22.12277
G1 X-39.715 Y48.435 E22.15235
G1 X-40.274 Y48.24 E22.18189
G1 X-40.802 Y47.97 E22.21148
G1 X-41.29 Y47.632 E22.24109
G1 X-41.749 Y47.209 E22.27223
G1 X-41.86 Y47.091 E22.28032
G1 X-42.236 Y46.632 E22.30992
G1 X-42.547 Y46.128 E22.33946
G1 X-42.788 Y45.586 E22.36906
G1 X-42.953 Y45.016 E22.39866
G1 X-43.043 Y44.404 E22.42952
G1 X-43.221 Y42.024 E22.54859
G1 X-43.819 Y36.586 E22.82153
G1 X-44.71 Y31.272 E23.09035
G1 X-46.231 Y24.68 E23.42787
G1 X-46.339 Y23.906 E23.46686
G1 X-46.387 Y22.927 E23.51576
G1 X-46.361 Y22.192 E23.55245
G1 X-45.48 Y14.792 E23.92424
G1 X-45.193 Y9.405 E24.19338
G1 X-45.212 Y3.999 E24.46309
G1 X-45.537 Y-1.422 E24.73403
G1 X-45.813 Y-4.101 E24.8684
G1 X-46.37 Y-8.324 E25.08091
G1 X-46.401 Y-9.146 E25.12195
G1 X-45.994 Y-16.389 E25.48387
G1 X-46.02 Y-21.783 E25.75298
G1 X-46.354 Y-27.199 E26.0237
G1 X-46.988 Y-32.544 E26.29223
G1 X-48.34 Y-40.143 E26.6773
G1 X-48.404 Y-40.733 E26.70691
G1 X-48.357 Y-41.58 E26.74923
G1 X-48.192 Y-42.657 E26.80359
G1 X-48.063 Y-43.236 E26.83319
G1 X-47.77 Y-43.976 E26.87289
G1 X-47.346 Y-44.815 E26.91979
G1 X-47.044 Y-45.325 E26.94936
G1 X-46.629 Y-45.839 E26.98232
G1 X-45.984 Y-46.527 E27.02937
G1 X-45.55 Y-46.932 E27.05899
G1 X-44.921 Y-47.359 E27.09691
G1 X-44.007 Y-47.87 E27.14916
G1 X-43.471 Y-48.123 E27.17873
G1 X-42.665 Y-48.355 E27.22057
G1 X-41.617 Y-48.55 E27.27375
G1 X-41.028 Y-48.619 E27.30334
G1 X-40.435 Y-48.608 E27.33293
G1 X-40.129 Y-48.571 E27.34831
G1 X-38.983 Y-48.391 E27.40618
G1 X-38.264 Y-48.215 E27.44311
G1 X-32.874 Y-46.403 E27.72681
G1 X-27.68 Y-44.983 E27.99545
G1 X-22.336 Y-43.841 E28.26808
G1 X-19.76 Y-43.406 E28.39842
G1 X-8.619 Y-42.071 E28.95822
G1 X-3.233 Y-41.693 E29.22759
G1 X2.191 Y-41.621 E29.49822
G1 X7.583 Y-41.853 E29.76748
G1 X14.731 Y-42.6 E30.12603
G1 X15.323 Y-42.622 E30.15559
G1 X15.86 Y-42.572 E30.1825
G1 X16.98 Y-42.399 E30.23904
G1 X17.558 Y-42.27 E30.26858
G1 X17.851 Y-42.172 E30.284
G1 X26.657 Y-38.874 E30.75313
G1 X27.201 Y-38.626 E30.78296
G1 X29.461 Y-37.408 E30.91104
G1 X29.826 Y-37.189 E30.93228
G1 X31.449 Y-36.1 E31.02979
G1 X31.751 Y-35.878 E31.04849
G1 X33.304 Y-34.632 E31.14782
G1 X33.545 Y-34.423 E31.16374
G1 X34.692 Y-33.357 E31.24186
G1 X34.975 Y-33.069 E31.262
G1 X36.596 Y-31.258 E31.38326
G1 X36.818 Y-30.989 E31.40066
G1 X37.687 Y-29.848 E31.47222
G1 X37.88 Y-29.574 E31.48894
G1 X39.008 Y-27.832 E31.59247
G1 X39.18 Y-27.543 E31.60925
G1 X39.834 Y-26.341 E31.67752
G1 X40.082 Y-25.802 E31.70712
G1 X40.255 Y-25.235 E31.7367
G1 X40.356 Y-24.575 E31.77001
G1 X40.375 Y-24.328 E31.78237
G1 X40.381 Y-23.736 E31.81191
G1 X40.306 Y-23.147 E31.84153
G1 X40.224 Y-22.799 E31.85937
G1 X38.274 Y-15.868 E32.21858
G1 X37.141 Y-10.563 E32.48922
G1 X36.7 Y-7.949 E32.62147
G1 X36.025 Y-2.591 E32.8909
G1 X35.651 Y2.821 E33.16155
G0 F3000 X35.252 Y2.806
G1 F1500 X35.185 Y8.226 E33.43197
G1 X35.523 Y14.959 E33.76831
G1 X35.528 Y15.107 E33.77569
G1 X35.561 Y17.623 E33.90123
G1 X35.542 Y18.065 E33.9233
G1 X35.276 Y20.779 E34.05935
G1 X35.225 Y21.133 E34.07719
G1 X34.704 Y23.887 E34.21703
G1 X33.871 Y29.319 E34.4912
G1 X33.239 Y35.779 E34.81503
G1 X33.144 Y36.337 E34.84327
G1 X32.949 Y36.932 E34.87451
G1 X32.518 Y37.964 E34.9303
G1 X32.264 Y38.468 E34.95846
G1 X31.941 Y38.933 E34.98671
G1 X31.695 Y39.211 E35.00523
G1 X30.951 Y39.976 E35.05847
G1 X30.529 Y40.352 E35.08667
G1 X30.058 Y40.665 E35.11488
G1 X29.786 Y40.806 E35.13016
G1 X28.817 Y41.262 E35.18359
G1 X28.29 Y41.466 E35.21179
G1 X27.479 Y41.626 E35.25303
G1 X24.132 Y41.933 E35.42071
G1 X18.682 Y42.589 E35.69457
G1 X12.523 Y43.674 E36.00658
G1 X12.193 Y43.718 E36.02319
G1 X9.445 Y43.969 E36.16086
G1 X8.972 Y43.985 E36.18447
G1 X6.247 Y43.911 E36.32047
G1 X6.003 Y43.896 E36.33267
G1 X0.022 Y43.367 E36.63223
G1 X-5.41 Y43.193 E36.90337
G1 X-10.842 Y43.326 E37.17445
G1 X-16.255 Y43.766 E37.4454
G1 X-21.626 Y44.511 E37.71592
G1 X-26.966 Y45.561 E37.98744
G1 X-29.598 Y46.195 E38.12251
G1 X-33.574 Y47.302 E38.32842
G1 X-33.739 Y47.345 E38.33692
G1 X-35.954 Y47.861 E38.45039
G1 X-36.322 Y47.928 E38.46905
G1 X-38.004 Y48.157 E38.55374
G1 X-38.569 Y48.194 E38.58199
G1 X-39.132 Y48.151 E38.61016
G1 X-39.684 Y48.028 E38.63837
G1 X-40.213 Y47.829 E38.66657
G1 X-40.709 Y47.557 E38.69479
G1 X-41.162 Y47.219 E38.72299
G1 X-41.458 Y46.935 E38.74345
G1 X-41.569 Y46.817 E38.75154
G1 X-41.926 Y46.379 E38.77973
G1 X-42.218 Y45.894 E38.80797
G1 X-42.439 Y45.374 E38.83616
G1 X-42.584 Y44.828 E38.86434
G1 X-42.644 Y44.374 E38.88719
G1 X-42.823 Y41.979 E39.00701
G1 X-43.42 Y36.548 E39.2796
G1 X-44.318 Y31.198 E39.55024
G1 X-45.842 Y24.59 E39.88857
G1 X-45.939 Y23.887 E39.92398
G1 X-45.987 Y22.908 E39.97288
G1 X-45.964 Y22.239 E40.00628
G1 X-45.08 Y14.814 E40.37933
G1 X-44.793 Y9.425 E40.64857
G1 X-44.812 Y3.991 E40.91967
G1 X-45.139 Y-1.463 E41.19226
G1 X-45.413 Y-4.123 E41.32567
G1 X-45.974 Y-8.376 E41.53969
G1 X-46.002 Y-9.124 E41.57704
G1 X-45.594 Y-16.385 E41.93986
G1 X-45.62 Y-21.81 E42.21052
G1 X-45.954 Y-27.217 E42.48079
G1 X-46.593 Y-32.609 E42.75168
G1 X-47.946 Y-40.213 E43.137
G1 X-48.006 Y-40.776 E43.16525
G1 X-47.962 Y-41.52 E43.20243
G1 X-47.797 Y-42.597 E43.25679
G1 X-47.672 Y-43.148 E43.28498
G1 X-47.413 Y-43.795 E43.31975
G1 X-46.989 Y-44.634 E43.36665
G1 X-46.699 Y-45.119 E43.39484
G1 X-46.337 Y-45.566 E43.42354
G1 X-45.692 Y-46.254 E43.47059
G1 X-45.277 Y-46.638 E43.49879
G1 X-44.726 Y-47.009 E43.53193
G1 X-43.812 Y-47.52 E43.58418
G1 X-43.3 Y-47.761 E43.61241
G1 X-42.592 Y-47.962 E43.64913
G1 X-41.544 Y-48.157 E43.70231
G1 X-40.982 Y-48.22 E43.73052
G1 X-40.191 Y-48.176 E43.77005
G1 X-39.045 Y-47.996 E43.82792
G1 X-38.391 Y-47.835 E43.86153
G1 X-33.013 Y-46.027 E44.14459
G1 X-27.765 Y-44.592 E44.41603
G1 X-22.394 Y-43.445 E44.69003
G1 X-19.833 Y-43.012 E44.81961
G1 X-8.655 Y-41.672 E45.38128
G1 X-3.248 Y-41.294 E45.65169
G1 X2.203 Y-41.22 E45.92367
G1 X7.609 Y-41.454 E46.19363
G1 X14.772 Y-42.202 E46.55293
G1 X15.337 Y-42.221 E46.58114
G1 X15.799 Y-42.177 E46.60429
G1 X16.919 Y-42.004 E46.66083
G1 X17.711 Y-41.797 E46.70167
G1 X26.517 Y-38.499 E47.1708
G1 X27.012 Y-38.274 E47.19793
G1 X29.272 Y-37.056 E47.32602
G1 X29.603 Y-36.857 E47.34528
G1 X31.226 Y-35.768 E47.44279
G1 X31.5 Y-35.566 E47.45978
G1 X33.053 Y-34.32 E47.55911
G1 X33.273 Y-34.13 E47.57361
G1 X34.42 Y-33.064 E47.65174
G1 X34.677 Y-32.802 E47.67005
G1 X36.298 Y-30.991 E47.7913
G1 X36.5 Y-30.747 E47.80711
G1 X37.369 Y-29.606 E47.87866
G1 X37.545 Y-29.356 E47.89392
G1 X38.673 Y-27.614 E47.99745
G1 X38.829 Y-27.352 E48.01267
G1 X39.483 Y-26.15 E48.08094
G1 X39.717 Y-25.635 E48.10916
G1 X39.877 Y-25.093 E48.13735
G1 X39.957 Y-24.545 E48.16498
G1 X39.976 Y-24.298 E48.17734
G1 X39.98 Y-23.732 E48.20558
G1 X39.839 Y-22.908 E48.24729
G1 X37.886 Y-15.968 E48.60697
G1 X36.745 Y-10.621 E48.87974
G1 X36.309 Y-8.042 E49.01023
G1 X35.625 Y-2.615 E49.28313
G1 X35.252 Y2.806 E49.55422
G0 F3000 X34.852 Y2.774
G1 F1500 X34.785 Y8.241 E49.827
G1 X35.123 Y14.979 E50.16358
G1 X35.128 Y15.112 E50.17022
G1 X35.161 Y17.628 E50.29575
G1 X35.144 Y18.026 E50.31563
G1 X34.878 Y20.74 E50.45168
G1 X34.832 Y21.059 E50.46776
G1 X34.305 Y23.845 E50.60922
G1 X33.475 Y29.255 E50.88228
G1 X32.841 Y35.74 E51.20736
G1 X32.749 Y36.269 E51.23415
G1 X32.58 Y36.777 E51.26086
G1 X32.149 Y37.809 E51.31666
G1 X31.906 Y38.287 E51.34341
G1 X31.595 Y38.724 E51.37017
G1 X31.408 Y38.932 E51.38412
G1 X30.664 Y39.697 E51.43736
G1 X30.262 Y40.052 E51.46412
G1 X29.616 Y40.444 E51.50182
G1 X28.647 Y40.9 E51.55524
G1 X28.146 Y41.092 E51.58201
G1 X27.443 Y41.228 E51.61774
G1 X24.08 Y41.536 E51.78622
G1 X18.621 Y42.193 E52.06053
G1 X12.454 Y43.28 E52.37295
G1 X12.156 Y43.32 E52.38795
G1 X9.408 Y43.571 E52.52562
G1 X8.983 Y43.585 E52.54683
G1 X6.258 Y43.511 E52.68284
G1 X6.039 Y43.498 E52.69378
G1 X0.036 Y42.967 E52.99444
G1 X-5.407 Y42.792 E53.26613
G1 X-10.866 Y42.927 E53.53857
G1 X-16.29 Y43.367 E53.81006
G1 X-21.704 Y44.118 E54.08275
G1 X-27.039 Y45.168 E54.35402
G1 X-29.696 Y45.807 E54.49036
G1 X-33.682 Y46.917 E54.69679
G1 X-33.83 Y46.955 E54.70441
G1 X-36.045 Y47.471 E54.81788
G1 X-36.376 Y47.532 E54.83467
G1 X-38.058 Y47.761 E54.91936
G1 X-38.594 Y47.794 E54.94615
G1 X-39.128 Y47.746 E54.9729
G1 X-39.649 Y47.62 E54.99964
G1 X-40.146 Y47.418 E55.02641
G1 X-40.607 Y47.144 E55.05316
G1 X-41.166 Y46.661 E55.09002
G1 X-41.277 Y46.543 E55.0981
G1 X-41.615 Y46.126 E55.12488
G1 X-41.886 Y45.663 E55.15165
G1 X-42.086 Y45.166 E55.17838
G1 X-42.21 Y44.644 E55.20514
G1 X-42.245 Y44.345 E55.22016
G1 X-42.426 Y41.931 E55.34093
G1 X-43.023 Y36.492 E55.61392
G1 X-43.924 Y31.123 E55.88552
G1 X-45.452 Y24.5 E56.22463
G1 X-45.54 Y23.867 E56.25651
G1 X-45.588 Y22.888 E56.30541
G1 X-45.567 Y22.286 E56.33546
G1 X-44.682 Y14.852 E56.70897
G1 X-44.393 Y9.427 E56.98
G1 X-44.412 Y3.983 E57.25161
G1 X-44.741 Y-1.505 E57.5259
G1 X-45.017 Y-4.18 E57.66006
G1 X-45.577 Y-8.428 E57.87383
G1 X-45.602 Y-9.101 E57.90743
G1 X-45.194 Y-16.364 E58.27035
G1 X-45.221 Y-21.819 E58.54251
G1 X-45.556 Y-27.253 E58.81412
G1 X-46.198 Y-32.675 E59.08652
G1 X-47.552 Y-40.283 E59.47205
G1 X-47.607 Y-40.817 E59.49883
G1 X-47.566 Y-41.459 E59.53092
G1 X-47.401 Y-42.536 E59.58528
G1 X-47.281 Y-43.059 E59.61205
G1 X-47.056 Y-43.615 E59.64198
G1 X-46.632 Y-44.454 E59.68888
G1 X-46.355 Y-44.913 E59.71562
G1 X-46.045 Y-45.292 E59.74005
G1 X-45.4 Y-45.98 E59.7871
G1 X-45.005 Y-46.343 E59.81387
G1 X-44.531 Y-46.66 E59.84232
G1 X-43.617 Y-47.171 E59.89456
G1 X-43.13 Y-47.397 E59.92134
G1 X-42.519 Y-47.568 E59.953
G1 X-41.471 Y-47.763 E60.00618
G1 X-40.937 Y-47.822 E60.03298
G1 X-40.253 Y-47.78 E60.06717
G1 X-39.107 Y-47.6 E60.12505
G1 X-38.519 Y-47.456 E60.15525
G1 X-33.129 Y-45.644 E60.43895
G1 X-27.844 Y-44.199 E60.71229
G1 X-22.502 Y-43.058 E60.98482
G1 X-19.861 Y-42.612 E61.11844
G1 X-8.711 Y-41.275 E61.67871
