;FLAVOR:Marlin
;TIME:3182
;Filament used: 0.673281m
;Layer height: 0.05
;Generated with Cura_SteamEngine 1.1.0
M190 S60
M104 S230
M109 S230
G28
G1 Z50.00 F400
G92 E0
G1 F200 E3
G92 E0
M132 X Y Z A
M907 X100 Y100 Z50 A100
;LAYER_COUNT:43
;LAYER:0
M107
G0 F3630 X-36.275 Y-4.663 Z0.3
;TYPE:SKIRT
G1 F1320 X-35.751 Y-7.908 E0.16399
G1 X-35.611 Y-8.566 E0.19755
G1 X-35.217 Y-10.053 E0.2743
G1 X-35.049 Y-10.596 E0.30266
G1 X-33.837 Y-13.993 E0.4826
G1 X-33.491 Y-14.794 E0.52613
G1 X-31.649 Y-18.411 E0.72863
G1 X-31.32 Y-18.987 E0.76173
G1 X-30.408 Y-20.414 E0.84622
G1 X-30.065 Y-20.902 E0.87598
G1 X-27.875 Y-23.745 E1.05502
G1 X-27.296 Y-24.403 E1.09875
G1 X-24.416 Y-27.283 E1.30195
G1 X-23.932 Y-27.723 E1.33458
G1 X-22.614 Y-28.809 E1.41978
G1 X-22.128 Y-29.174 E1.4501
G1 X-19.158 Y-31.205 E1.62961
G1 X-18.407 Y-31.651 E1.67319
G1 X-14.808 Y-33.485 E1.87471
G1 X-14.023 Y-33.825 E1.91739
G1 X-10.723 Y-35.012 E2.09236
G1 X-10.147 Y-35.19 E2.12243
G1 X-8.379 Y-35.654 E2.21363
G1 X-7.709 Y-35.794 E2.24777
G1 X-3.805 Y-36.408 E2.44494
G1 X-3.088 Y-36.483 E2.48091
G1 X-.406 Y-36.617 E2.61488
G1 X0.153 Y-36.621 E2.64277
G1 X2.196 Y-36.555 E2.74475
G1 X2.959 Y-36.488 E2.78296
G1 X7.642 Y-35.804 E3.01907
G1 X8.373 Y-35.656 E3.05628
G1 X10.028 Y-35.225 E3.14161
G1 X10.496 Y-35.085 E3.16598
G1 X12.967 Y-34.248 E3.29614
G1 X13.562 Y-34.014 E3.32803
G1 X15.118 Y-33.318 E3.41308
G1 X15.434 Y-33.167 E3.43055
G1 X18.463 Y-31.62 E3.60023
G1 X19.123 Y-31.235 E3.63835
G1 X21.181 Y-29.873 E3.76148
G1 X21.592 Y-29.578 E3.78672
G1 X23.26 Y-28.286 E3.89198
G1 X23.85 Y-27.773 E3.93098
G1 X27.061 Y-24.634 E4.15501
G1 X27.437 Y-24.234 E4.1824
G1 X28.294 Y-23.249 E4.24754
G1 X28.61 Y-22.858 E4.27262
G1 X30.045 Y-20.939 E4.39217
G1 X30.434 Y-20.359 E4.42701
G1 X31.815 Y-18.051 E4.56119
G1 X32.04 Y-17.644 E4.5844
G1 X33.512 Y-14.752 E4.74629
G1 X33.784 Y-14.146 E4.77943
G1 X34.383 Y-12.616 E4.86141
G1 X34.574 Y-12.059 E4.89078
G1 X35.593 Y-8.6 E5.07069
G1 X35.789 Y-7.727 E5.11532
G1 X36.332 Y-4.249 E5.29094
G1 X36.386 Y-3.805 E5.31326
G1 X36.583 Y-1.6 E5.4237
G1 X36.607 Y-.81 E5.46314
G1 X36.508 Y2.825 E5.64455
G1 X36.427 Y3.703 E5.68854
G1 X35.791 Y7.722 E5.89155
G1 X35.67 Y8.314 E5.92169
G1 X35.407 Y9.362 E5.9756
G1 X35.326 Y9.658 E5.99091
G1 X34.823 Y11.337 E6.07835
G1 X34.695 Y11.722 E6.0986
G1 X34.074 Y13.42 E6.1888
G1 X33.748 Y14.168 E6.2295
G1 X31.307 Y18.965 E6.49803
G1 X30.826 Y19.769 E6.54477
G1 X29.214 Y22.082 E6.68543
G1 X28.935 Y22.454 E6.70863
G1 X28.21 Y23.356 E6.76636
G1 X27.773 Y23.85 E6.79927
G1 X24.634 Y27.061 E7.0233
G1 X24.234 Y27.437 E7.05069
G1 X23.249 Y28.294 E7.11582
G1 X22.858 Y28.61 E7.1409
G1 X20.939 Y30.045 E7.26045
G1 X20.356 Y30.435 E7.29545
G1 X18.036 Y31.822 E7.4303
G1 X17.631 Y32.046 E7.45339
G1 X14.75 Y33.512 E7.61466
G1 X14.149 Y33.783 E7.64755
G1 X12.619 Y34.383 E7.72954
G1 X12.159 Y34.544 E7.75386
G1 X9.653 Y35.325 E7.88481
G1 X9.061 Y35.481 E7.91536
G1 X7.5 Y35.817 E7.99502
G1 X6.999 Y35.905 E8.0204
G1 X2.579 Y36.515 E8.243
G1 X1.82 Y36.577 E8.28099
G1 X-0.006 Y36.623 E8.37212
G1 X-.484 Y36.618 E8.39597
G1 X-2.833 Y36.512 E8.51328
G1 X-3.59 Y36.435 E8.55125
G1 X-7.884 Y35.755 E8.76814
G1 X-8.652 Y35.588 E8.80735
G1 X-10.972 Y34.939 E8.92754
G1 X-11.445 Y34.788 E8.95231
G1 X-13.391 Y34.087 E9.05551
G1 X-14.172 Y33.748 E9.09798
G1 X-18.967 Y31.306 E9.36644
G1 X-19.713 Y30.864 E9.4097
G1 X-21.51 Y29.638 E9.51824
G1 X-21.926 Y29.331 E9.54403
G1 X-23.845 Y27.796 E9.66663
G1 X-24.406 Y27.293 E9.70422
G1 X-27.284 Y24.414 E9.90731
G1 X-27.721 Y23.934 E9.9397
G1 X-28.808 Y22.616 E10.02493
G1 X-29.176 Y22.127 E10.05547
G1 X-31.207 Y19.156 E10.23501
G1 X-31.652 Y18.405 E10.27856
G1 X-33.494 Y14.79 E10.48098
G1 X-33.811 Y14.067 E10.52037
G1 X-34.788 Y11.432 E10.66057
G1 X-34.968 Y10.873 E10.68987
G1 X-35.626 Y8.483 E10.81355
G1 X-35.789 Y7.727 E10.85213
G1 X-36.332 Y4.249 E11.02775
G1 X-36.386 Y3.805 E11.05006
G1 X-36.583 Y1.6 E11.16051
G1 X-36.61 Y0.916 E11.19466
G1 X-36.579 Y-1.742 E11.32728
G1 X-36.536 Y-2.428 E11.36157
G1 X-36.319 Y-4.344 E11.45777
G1 X-36.275 Y-4.663 E11.47384
G0 F3630 X-35.88 Y-4.599
G1 F1320 X-35.356 Y-7.844 E11.63783
G1 X-35.225 Y-8.463 E11.66939
G1 X-34.831 Y-9.95 E11.74614
G1 X-34.672 Y-10.462 E11.77289
G1 X-33.46 Y-13.859 E11.95283
G1 X-33.135 Y-14.612 E11.99375
G1 X-31.293 Y-18.229 E12.19625
G1 X-30.983 Y-18.772 E12.22744
G1 X-30.071 Y-20.199 E12.31194
G1 X-29.748 Y-20.658 E12.33994
G1 X-27.558 Y-23.501 E12.51898
G1 X-27.013 Y-24.12 E12.56012
G1 X-24.133 Y-27 E12.76332
G1 X-23.678 Y-27.414 E12.79401
G1 X-22.36 Y-28.5 E12.87922
G1 X-21.903 Y-28.844 E12.90775
G1 X-18.933 Y-30.875 E13.08726
G1 X-18.226 Y-31.294 E13.12826
G1 X-14.627 Y-33.128 E13.32979
G1 X-13.887 Y-33.448 E13.37001
G1 X-10.587 Y-34.635 E13.54497
G1 X-10.046 Y-34.803 E13.57323
G1 X-8.278 Y-35.267 E13.66443
G1 X-7.647 Y-35.399 E13.69659
G1 X-3.743 Y-36.013 E13.89376
G1 X-3.068 Y-36.083 E13.92761
G1 X-.386 Y-36.217 E14.06158
G1 X0.14 Y-36.222 E14.08783
G1 X2.183 Y-36.156 E14.18981
G1 X2.901 Y-36.092 E14.22577
G1 X7.584 Y-35.408 E14.46188
G1 X8.272 Y-35.268 E14.49691
G1 X9.927 Y-34.837 E14.58223
G1 X10.367 Y-34.706 E14.60514
G1 X12.838 Y-33.869 E14.7353
G1 X13.398 Y-33.649 E14.76531
G1 X14.954 Y-32.953 E14.85036
G1 X15.252 Y-32.811 E14.86682
G1 X18.281 Y-31.264 E15.03651
G1 X18.902 Y-30.901 E15.0724
G1 X20.96 Y-29.539 E15.19552
G1 X21.347 Y-29.262 E15.21926
G1 X23.015 Y-27.97 E15.32452
G1 X23.57 Y-27.487 E15.36123
G1 X26.781 Y-24.348 E15.58526
G1 X27.135 Y-23.972 E15.61102
G1 X27.992 Y-22.987 E15.67616
G1 X28.289 Y-22.619 E15.69975
G1 X29.724 Y-20.7 E15.8193
G1 X30.091 Y-20.153 E15.85216
G1 X31.472 Y-17.845 E15.98635
G1 X31.684 Y-17.462 E16.00819
G1 X33.156 Y-14.57 E16.17009
G1 X33.412 Y-14 E16.20126
G1 X34.011 Y-12.47 E16.28323
G1 X34.19 Y-11.946 E16.31086
G1 X35.209 Y-8.487 E16.49076
G1 X35.393 Y-7.665 E16.53279
G1 X35.936 Y-4.187 E16.70841
G1 X35.988 Y-3.77 E16.72937
G1 X36.185 Y-1.565 E16.83982
G1 X36.208 Y-.821 E16.87695
G1 X36.109 Y2.814 E17.05837
G1 X36.032 Y3.64 E17.09976
G1 X35.396 Y7.659 E17.30276
G1 X35.283 Y8.217 E17.33117
G1 X35.02 Y9.265 E17.38507
G1 X34.943 Y9.544 E17.39951
G1 X34.44 Y11.223 E17.48696
G1 X34.32 Y11.584 E17.50594
G1 X33.699 Y13.282 E17.59614
G1 X33.392 Y13.987 E17.6345
G1 X30.951 Y18.784 E17.90303
G1 X30.498 Y19.54 E17.947
G1 X28.886 Y21.853 E18.08765
G1 X28.623 Y22.204 E18.10954
G1 X27.898 Y23.106 E18.16727
G1 X27.487 Y23.57 E18.1982
G1 X24.348 Y26.781 E18.42222
G1 X23.972 Y27.135 E18.44799
G1 X22.987 Y27.992 E18.51313
G1 X22.619 Y28.289 E18.53672
G1 X20.7 Y29.724 E18.65627
G1 X20.151 Y30.092 E18.68924
G1 X17.831 Y31.479 E18.82409
G1 X17.449 Y31.69 E18.84586
G1 X14.568 Y33.156 E19.00714
G1 X14.003 Y33.41 E19.03804
G1 X12.473 Y34.01 E19.12003
G1 X12.04 Y34.162 E19.14293
G1 X9.534 Y34.943 E19.27388
G1 X8.977 Y35.09 E19.30262
G1 X7.416 Y35.426 E19.38229
G1 X6.944 Y35.509 E19.4062
G1 X2.524 Y36.119 E19.6288
G1 X1.81 Y36.177 E19.66454
G1 X-0.016 Y36.223 E19.75567
G1 X-.466 Y36.218 E19.77812
G1 X-2.815 Y36.112 E19.89543
G1 X-3.527 Y36.04 E19.93114
G1 X-7.821 Y35.36 E20.14803
G1 X-8.544 Y35.202 E20.18496
G1 X-10.864 Y34.553 E20.30514
G1 X-11.309 Y34.411 E20.32845
G1 X-13.255 Y33.71 E20.43164
G1 X-13.99 Y33.392 E20.4716
G1 X-18.785 Y30.95 E20.74006
G1 X-19.488 Y30.534 E20.78081
G1 X-21.285 Y29.308 E20.88934
G1 X-21.676 Y29.019 E20.9136
G1 X-23.595 Y27.484 E21.0362
G1 X-24.123 Y27.011 E21.07156
G1 X-27.001 Y24.132 E21.27466
G1 X-27.412 Y23.679 E21.30517
G1 X-28.499 Y22.361 E21.39041
G1 X-28.845 Y21.901 E21.41912
G1 X-30.876 Y18.93 E21.59867
G1 X-31.295 Y18.224 E21.63963
G1 X-33.137 Y14.609 E21.84205
G1 X-33.436 Y13.928 E21.87915
G1 X-34.413 Y11.293 E22.01936
G1 X-34.582 Y10.767 E22.04692
G1 X-35.24 Y8.377 E22.17059
G1 X-35.393 Y7.665 E22.20693
G1 X-35.936 Y4.187 E22.38255
G1 X-35.988 Y3.77 E22.40351
G1 X-36.185 Y1.565 E22.51396
G1 X-36.21 Y0.92 E22.54616
G1 X-36.179 Y-1.738 E22.67878
G1 X-36.138 Y-2.383 E22.71102
G1 X-35.921 Y-4.299 E22.80722
G1 X-35.88 Y-4.599 E22.82233
G0 F3630 X-35.485 Y-4.535
G1 F1320 X-34.961 Y-7.78 E22.98632
G1 X-34.838 Y-8.361 E23.01595
G1 X-34.444 Y-9.848 E23.0927
G1 X-34.295 Y-10.327 E23.11772
G1 X-33.083 Y-13.724 E23.29766
G1 X-32.779 Y-14.431 E23.33606
G1 X-30.937 Y-18.048 E23.53857
G1 X-30.646 Y-18.556 E23.56777
G1 X-29.734 Y-19.983 E23.65226
G1 X-29.431 Y-20.413 E23.67851
G1 X-27.241 Y-23.256 E23.85755
G1 X-26.731 Y-23.838 E23.89616
G1 X-23.851 Y-26.718 E24.09936
G1 X-23.423 Y-27.106 E24.12818
G1 X-22.105 Y-28.192 E24.21338
G1 X-21.677 Y-28.514 E24.2401
G1 X-18.707 Y-30.545 E24.41961
G1 X-18.044 Y-30.938 E24.45806
G1 X-14.445 Y-32.772 E24.65958
G1 X-13.752 Y-33.072 E24.69726
G1 X-10.452 Y-34.259 E24.87222
G1 X-9.944 Y-34.416 E24.89875
G1 X-8.176 Y-34.88 E24.98994
G1 X-7.585 Y-35.004 E25.02007
G1 X-3.681 Y-35.618 E25.21723
G1 X-3.048 Y-35.684 E25.24898
G1 X-.366 Y-35.818 E25.38296
G1 X0.127 Y-35.822 E25.40755
G1 X2.17 Y-35.756 E25.50953
G1 X2.843 Y-35.696 E25.54324
G1 X7.526 Y-35.012 E25.77936
G1 X8.171 Y-34.881 E25.81219
G1 X9.826 Y-34.45 E25.89752
G1 X10.239 Y-34.327 E25.91901
G1 X12.71 Y-33.49 E26.04917
G1 X13.235 Y-33.284 E26.07731
G1 X14.791 Y-32.588 E26.16235
G1 X15.07 Y-32.454 E26.17779
G1 X18.099 Y-30.907 E26.34748
G1 X18.681 Y-30.567 E26.38111
G1 X20.739 Y-29.205 E26.50423
G1 X21.102 Y-28.945 E26.52651
G1 X22.77 Y-27.653 E26.63177
G1 X23.29 Y-27.2 E26.66617
G1 X26.501 Y-24.061 E26.8902
G1 X26.834 Y-23.709 E26.91438
G1 X27.691 Y-22.724 E26.97951
G1 X27.969 Y-22.379 E27.00162
G1 X29.404 Y-20.46 E27.12117
G1 X29.748 Y-19.948 E27.15194
G1 X31.129 Y-17.64 E27.28612
G1 X31.327 Y-17.281 E27.30658
G1 X32.799 Y-14.389 E27.46848
G1 X33.039 Y-13.854 E27.49773
G1 X33.638 Y-12.324 E27.5797
G1 X33.806 Y-11.833 E27.60559
G1 X34.825 Y-8.374 E27.7855
G1 X34.998 Y-7.604 E27.82487
G1 X35.541 Y-4.126 E28.00049
G1 X35.589 Y-3.734 E28.02019
G1 X35.786 Y-1.529 E28.13064
G1 X35.808 Y-.832 E28.16543
G1 X35.709 Y2.803 E28.34685
G1 X35.637 Y3.578 E28.38568
G1 X35.001 Y7.597 E28.58868
G1 X34.895 Y8.119 E28.61526
G1 X34.632 Y9.167 E28.66916
G1 X34.56 Y9.429 E28.68272
G1 X34.057 Y11.108 E28.77016
G1 X33.944 Y11.447 E28.78799
G1 X33.323 Y13.145 E28.87819
G1 X33.035 Y13.805 E28.91412
G1 X30.594 Y18.602 E29.18264
G1 X30.169 Y19.312 E29.22393
G1 X28.557 Y21.625 E29.36458
G1 X28.312 Y21.953 E29.38501
G1 X27.587 Y22.855 E29.44274
G1 X27.2 Y23.29 E29.47179
G1 X24.061 Y26.501 E29.69582
G1 X23.709 Y26.834 E29.71999
G1 X22.724 Y27.691 E29.78513
G1 X22.379 Y27.969 E29.80724
G1 X20.46 Y29.404 E29.92678
G1 X19.946 Y29.749 E29.95767
G1 X17.626 Y31.136 E30.09252
G1 X17.268 Y31.333 E30.11291
G1 X14.387 Y32.799 E30.27418
G1 X13.857 Y33.038 E30.30318
G1 X12.327 Y33.638 E30.38518
G1 X11.921 Y33.78 E30.40664
G1 X9.415 Y34.561 E30.53759
G1 X8.893 Y34.699 E30.56453
G1 X7.332 Y35.035 E30.64419
G1 X6.889 Y35.113 E30.66663
G1 X2.469 Y35.723 E30.88924
G1 X1.8 Y35.777 E30.92272
G1 X-0.026 Y35.823 E31.01385
G1 X-.447 Y35.819 E31.03485
G1 X-2.796 Y35.713 E31.15217
G1 X-3.464 Y35.645 E31.18567
G1 X-7.758 Y34.965 E31.40256
G1 X-8.436 Y34.817 E31.43719
G1 X-10.756 Y34.168 E31.55737
G1 X-11.173 Y34.035 E31.57921
G1 X-13.119 Y33.334 E31.6824
G1 X-13.809 Y33.036 E31.7199
G1 X-18.604 Y30.594 E31.98836
G1 X-19.262 Y30.203 E32.02655
G1 X-21.059 Y28.977 E32.13508
G1 X-21.426 Y28.706 E32.15784
G1 X-23.345 Y27.171 E32.28044
G1 X-23.84 Y26.728 E32.31358
G1 X-26.718 Y23.849 E32.51667
G1 X-27.104 Y23.425 E32.54528
G1 X-28.191 Y22.107 E32.63051
G1 X-28.515 Y21.675 E32.65745
G1 X-30.546 Y18.704 E32.837
G1 X-30.939 Y18.042 E32.87541
G1 X-32.781 Y14.427 E33.07783
G1 X-33.061 Y13.789 E33.11259
G1 X-34.038 Y11.154 E33.25279
G1 X-34.197 Y10.661 E33.27864
G1 X-34.855 Y8.271 E33.40231
G1 X-34.998 Y7.604 E33.43634
G1 X-35.541 Y4.126 E33.61196
G1 X-35.589 Y3.734 E33.63167
G1 X-35.786 Y1.529 E33.74211
G1 X-35.81 Y0.925 E33.77227
G1 X-35.779 Y-1.733 E33.90489
G1 X-35.741 Y-2.338 E33.93513
G1 X-35.524 Y-4.254 E34.03133
G1 X-35.485 Y-4.535 E34.04549
G0 F3630 X-35.09 Y-4.472
G1 F1320 X-34.566 Y-7.717 E34.20948
G1 X-34.451 Y-8.258 E34.23707
G1 X-34.057 Y-9.745 E34.31382
G1 X-33.918 Y-10.193 E34.33722
G1 X-32.706 Y-13.59 E34.51716
G1 X-32.422 Y-14.249 E34.55296
G1 X-30.58 Y-17.866 E34.75547
G1 X-30.309 Y-18.341 E34.78275
G1 X-29.397 Y-19.768 E34.86724
G1 X-29.114 Y-20.169 E34.89173
G1 X-26.924 Y-23.012 E35.07077
G1 X-26.448 Y-23.555 E35.10679
G1 X-23.568 Y-26.435 E35.30999
G1 X-23.169 Y-26.797 E35.33687
G1 X-21.851 Y-27.883 E35.42207
G1 X-21.451 Y-28.184 E35.44705
G1 X-18.481 Y-30.215 E35.62655
G1 X-17.863 Y-30.582 E35.66241
G1 X-14.264 Y-32.416 E35.86394
G1 X-13.616 Y-32.695 E35.89914
G1 X-10.316 Y-33.882 E36.0741
G1 X-9.843 Y-34.03 E36.09883
G1 X-8.075 Y-34.494 E36.19002
G1 X-7.523 Y-34.609 E36.21815
G1 X-3.619 Y-35.223 E36.41531
G1 X-3.028 Y-35.284 E36.44496
G1 X-.346 Y-35.418 E36.57893
G1 X0.114 Y-35.422 E36.60188
G1 X2.157 Y-35.356 E36.70386
G1 X2.785 Y-35.3 E36.73531
G1 X7.468 Y-34.616 E36.97143
G1 X8.07 Y-34.494 E37.00207
G1 X9.725 Y-34.063 E37.0874
G1 X10.111 Y-33.948 E37.10749
G1 X12.582 Y-33.111 E37.23765
G1 X13.072 Y-32.919 E37.2639
G1 X14.628 Y-32.223 E37.34895
G1 X14.888 Y-32.098 E37.36334
G1 X17.917 Y-30.551 E37.53302
G1 X18.461 Y-30.234 E37.56444
G1 X20.519 Y-28.872 E37.68756
G1 X20.857 Y-28.629 E37.70833
G1 X22.525 Y-27.337 E37.81359
G1 X23.011 Y-26.914 E37.84573
G1 X26.222 Y-23.775 E38.06976
G1 X26.532 Y-23.447 E38.09228
G1 X27.389 Y-22.462 E38.15741
G1 X27.649 Y-22.14 E38.17806
G1 X29.084 Y-20.221 E38.29761
G1 X29.404 Y-19.742 E38.32635
G1 X30.785 Y-17.434 E38.46053
G1 X30.971 Y-17.099 E38.47965
G1 X32.443 Y-14.207 E38.64155
G1 X32.667 Y-13.709 E38.66879
G1 X33.266 Y-12.179 E38.75076
G1 X33.423 Y-11.719 E38.77501
G1 X34.442 Y-8.26 E38.95492
G1 X34.603 Y-7.542 E38.99163
G1 X35.146 Y-4.064 E39.16725
G1 X35.191 Y-3.698 E39.18564
G1 X35.388 Y-1.493 E39.29609
G1 X35.408 Y-.843 E39.32853
G1 X35.309 Y2.792 E39.50995
G1 X35.242 Y3.515 E39.54618
G1 X34.606 Y7.534 E39.74918
G1 X34.507 Y8.022 E39.77402
G1 X34.244 Y9.07 E39.82793
G1 X34.176 Y9.314 E39.84057
G1 X33.673 Y10.993 E39.92801
G1 X33.568 Y11.309 E39.94462
G1 X32.947 Y13.007 E40.03483
G1 X32.679 Y13.624 E40.06839
G1 X30.238 Y18.421 E40.33691
G1 X29.841 Y19.083 E40.37542
G1 X28.229 Y21.396 E40.51608
G1 X28 Y21.702 E40.53515
G1 X27.275 Y22.604 E40.59288
G1 X26.914 Y23.011 E40.62003
G1 X23.775 Y26.222 E40.84405
G1 X23.447 Y26.532 E40.86657
G1 X22.462 Y27.389 E40.93171
G1 X22.14 Y27.649 E40.95235
G1 X20.221 Y29.084 E41.0719
G1 X19.741 Y29.406 E41.10074
G1 X17.421 Y30.793 E41.23559
G1 X17.087 Y30.977 E41.25462
G1 X14.206 Y32.443 E41.41589
G1 X13.71 Y32.665 E41.443
G1 X12.18 Y33.265 E41.52499
G1 X11.802 Y33.398 E41.54498
G1 X9.296 Y34.179 E41.67594
G1 X8.808 Y34.308 E41.70112
G1 X7.247 Y34.644 E41.78078
G1 X6.835 Y34.716 E41.80165
G1 X2.415 Y35.326 E42.02425
G1 X1.79 Y35.377 E42.05554
G1 X-0.036 Y35.423 E42.14667
G1 X-.429 Y35.419 E42.16628
G1 X-2.778 Y35.313 E42.28359
G1 X-3.402 Y35.25 E42.31488
G1 X-7.696 Y34.57 E42.53177
G1 X-8.329 Y34.432 E42.5641
G1 X-10.649 Y33.783 E42.68429
G1 X-11.038 Y33.659 E42.70466
G1 X-12.984 Y32.958 E42.80785
G1 X-13.627 Y32.679 E42.84282
G1 X-18.422 Y30.237 E43.11128
G1 X-19.037 Y29.873 E43.14693
G1 X-20.834 Y28.647 E43.25546
G1 X-21.176 Y28.394 E43.27669
G1 X-23.095 Y26.859 E43.39929
G1 X-23.557 Y26.445 E43.43024
G1 X-26.435 Y23.566 E43.63333
G1 X-26.795 Y23.17 E43.66003
G1 X-27.882 Y21.852 E43.74526
G1 X-28.185 Y21.449 E43.77042
G1 X-30.216 Y18.478 E43.94997
G1 X-30.583 Y17.86 E43.98582
G1 X-32.425 Y14.245 E44.18824
G1 X-32.686 Y13.65 E44.22066
G1 X-33.663 Y11.015 E44.36086
G1 X-33.811 Y10.554 E44.38502
