(1001)
(T1  D=3.175 CR=0. - ZMIN=-7.65 - FLAT END MILL)
G0 G90 G94 G17
G21
G53 G0 Z0.

(ADAPTIVE5)
M5
M9
T1
S16500 M3
G4 P4.
G55
G0 X-1.257 Y-12.695
Z15.
Z5.
Z2.5
G3 X-3.823 Y-11.109 Z2.335 I-1.283 J0.793 F1016.
X-1.257 Y-12.695 Z2.169 I1.283 J-0.793
X-3.823 Y-11.109 Z2.004 I-1.283 J0.793
X-1.257 Y-12.695 Z1.838 I1.283 J-0.793
X-3.823 Y-11.109 Z1.673 I-1.283 J0.793
X-1.257 Y-12.695 Z1.507 I1.283 J-0.793
X-3.823 Y-11.109 Z1.342 I-1.283 J0.793
X-1.257 Y-12.695 Z1.176 I1.283 J-0.793
X-3.823 Y-11.109 Z1.011 I-1.283 J0.793
X-1.257 Y-12.695 Z0.845 I1.283 J-0.793
X-3.823 Y-11.109 Z0.68 I-1.283 J0.793
X-1.257 Y-12.695 Z0.515 I1.283 J-0.793
X-3.823 Y-11.109 Z0.349 I-1.283 J0.793
X-1.257 Y-12.695 Z0.184 I1.283 J-0.793
X-3.823 Y-11.109 Z0.018 I-1.283 J0.793
X-1.257 Y-12.695 Z-0.147 I1.283 J-0.793
X-3.823 Y-11.109 Z-0.313 I-1.283 J0.793
X-1.257 Y-12.695 Z-0.478 I1.283 J-0.793
X-3.823 Y-11.109 Z-0.644 I-1.283 J0.793
X-1.257 Y-12.695 Z-0.809 I1.283 J-0.793
X-3.823 Y-11.109 Z-0.974 I-1.283 J0.793
X-1.257 Y-12.695 Z-1.14 I1.283 J-0.793
X-3.823 Y-11.109 Z-1.305 I-1.283 J0.793
X-1.257 Y-12.695 Z-1.471 I1.283 J-0.793
X-1.032 Y-11.902 Z-1.5 I-1.283 J0.793
X-4.048 I-1.508 J0.
X-1.032 I1.508 J0.
G1 X-1.013 Y-11.165
X-0.991 Y-11.075
X-0.975 Y-10.926
X-0.988 Y-10.777
X-1.023 Y-10.631
X-1.078 Y-10.491
X-1.15 Y-10.359
X-1.236 Y-10.236
X-1.334 Y-10.123
X-1.442 Y-10.019
X-1.56 Y-9.927
X-1.686 Y-9.845
X-1.818 Y-9.774
X-1.956 Y-9.713
X-2.103 Y-9.663
X-2.257 Y-9.623
X-2.417 Y-9.596
X-2.582 Y-9.581
X-2.751 Y-9.58
X-2.922 Y-9.592
X-3.094 Y-9.618
X-3.265 Y-9.658
X-3.435 Y-9.713
X-3.601 Y-9.782
X-3.763 Y-9.864
X-3.918 Y-9.961
X-4.067 Y-10.07
X-4.207 Y-10.191
X-4.338 Y-10.324
X-4.458 Y-10.468
X-4.567 Y-10.622
X-4.663 Y-10.784
X-4.747 Y-10.954
X-4.816 Y-11.131
X-4.872 Y-11.314
X-4.912 Y-11.5
X-4.938 Y-11.69
X-4.948 Y-11.881
X-4.943 Y-12.073
X-4.922 Y-12.264
X-4.887 Y-12.454
X-4.836 Y-12.639
X-4.77 Y-12.821
X-4.69 Y-12.996
X-4.596 Y-13.165
X-4.488 Y-13.325
X-4.368 Y-13.477
X-4.237 Y-13.619
X-4.094 Y-13.749
X-3.941 Y-13.868
X-3.779 Y-13.974
X-3.609 Y-14.067
X-3.432 Y-14.146
X-3.249 Y-14.21
X-3.062 Y-14.26
X-2.871 Y-14.294
X-2.679 Y-14.313
X-2.485 Y-14.316
X-2.291 Y-14.304
X-2.099 Y-14.276
X-1.91 Y-14.234
X-1.725 Y-14.176
X-1.546 Y-14.103
X-1.372 Y-14.016
X-1.206 Y-13.916
X-1.049 Y-13.802
X-0.901 Y-13.676
X-0.764 Y-13.539
X-0.639 Y-13.391
X-0.525 Y-13.234
X-0.421 Y-13.061
X-0.31 Y-12.839
X-0.163 Y-12.474
X-0.056 Y-12.131
X0.008 Y-11.849
X0.045 Y-11.593
X0.06 Y-11.356
X0.056 Y-11.133
X0.034 Y-10.92
X-0.003 Y-10.713
X-0.057 Y-10.51
X-0.126 Y-10.313
X-0.212 Y-10.123
X-0.312 Y-9.94
X-0.426 Y-9.765
X-0.556 Y-9.599
X-0.7 Y-9.441
X-0.858 Y-9.294
X-1.03 Y-9.159
X-1.214 Y-9.036
X-1.411 Y-8.926
X-1.619 Y-8.832
X-1.836 Y-8.753
X-2.063 Y-8.691
X-2.297 Y-8.647
X-2.537 Y-8.621
X-2.781 Y-8.615
X-3.027 Y-8.628
X-3.274 Y-8.662
X-3.52 Y-8.715
X-3.763 Y-8.789
X-4. Y-8.883
X-4.231 Y-8.997
X-4.454 Y-9.129
X-4.667 Y-9.28
X-4.868 Y-9.448
X-5.056 Y-9.633
X-5.229 Y-9.833
X-5.386 Y-10.048
X-5.526 Y-10.275
X-5.648 Y-10.514
X-5.75 Y-10.762
X-5.833 Y-11.019
X-5.895 Y-11.282
X-5.935 Y-11.55
X-5.954 Y-11.821
X-5.952 Y-12.092
X-5.927 Y-12.363
X-5.881 Y-12.632
X-5.813 Y-12.897
X-5.724 Y-13.155
X-5.614 Y-13.406
X-5.485 Y-13.647
X-5.336 Y-13.877
X-5.17 Y-14.095
X-4.986 Y-14.298
X-4.787 Y-14.487
X-4.573 Y-14.659
X-4.346 Y-14.813
X-4.107 Y-14.949
X-3.858 Y-15.065
X-3.6 Y-15.16
X-3.336 Y-15.235
X-3.066 Y-15.288
X-2.793 Y-15.32
X-2.518 Y-15.329
X-2.243 Y-15.316
X-1.97 Y-15.281
X-1.701 Y-15.225
X-1.437 Y-15.147
X-1.18 Y-15.048
X-0.932 Y-14.929
X-0.694 Y-14.79
X-0.469 Y-14.633
X-0.255 Y-14.457
X-0.049 Y-14.257
X0.165 Y-14.013
X0.367 Y-13.743
X0.554 Y-13.446
X0.718 Y-13.129
X0.856 Y-12.804
X0.964 Y-12.478
X1.043 Y-12.154
X1.094 Y-11.834
X1.119 Y-11.518
X1.118 Y-11.205
X1.093 Y-10.898
X1.043 Y-10.596
X0.97 Y-10.302
X0.875 Y-10.017
X0.757 Y-9.741
X0.617 Y-9.475
X0.456 Y-9.221
X0.275 Y-8.981
X0.075 Y-8.754
X-0.145 Y-8.544
X-0.382 Y-8.35
X-0.636 Y-8.174
X-0.906 Y-8.018
X-1.189 Y-7.883
X-1.485 Y-7.771
X-1.792 Y-7.681
X-2.108 Y-7.616
X-2.431 Y-7.576
X-2.758 Y-7.563
X-3.088 Y-7.575
X-3.417 Y-7.614
X-3.745 Y-7.68
X-4.069 Y-7.773
X-4.386 Y-7.892
X-4.694 Y-8.037
X-4.992 Y-8.208
X-5.276 Y-8.402
X-5.545 Y-8.62
X-5.797 Y-8.86
X-6.029 Y-9.12
X-6.241 Y-9.4
X-6.431 Y-9.696
X-6.596 Y-10.008
X-6.736 Y-10.332
X-6.851 Y-10.668
X-6.938 Y-11.013
X-6.997 Y-11.365
X-7.028 Y-11.72
X-7.03 Y-12.078
X-7.003 Y-12.435
X-6.948 Y-12.789
X-6.865 Y-13.139
X-6.753 Y-13.48
X-6.615 Y-13.812
X-6.45 Y-14.132
X-6.26 Y-14.438
X-6.045 Y-14.728
X-5.808 Y-15.
X-5.55 Y-15.252
X-5.273 Y-15.483
X-4.977 Y-15.691
X-4.666 Y-15.874
X-4.341 Y-16.032
X-4.004 Y-16.163
X-3.658 Y-16.267
X-3.304 Y-16.343
X-2.946 Y-16.39
X-2.585 Y-16.408
X-2.223 Y-16.398
X-1.864 Y-16.358
X-1.508 Y-16.289
X-1.16 Y-16.192
X-0.82 Y-16.068
X-0.491 Y-15.916
X-0.173 Y-15.738
X0.14 Y-15.528
X0.443 Y-15.286
X0.735 Y-15.012
X1.012 Y-14.708
X1.267 Y-14.376
X1.497 Y-14.023
X1.699 Y-13.651
X1.868 Y-13.267
X2.006 Y-12.874
X2.11 Y-12.474
X2.181 Y-12.071
X2.22 Y-11.667
X2.226 Y-11.265
X2.199 Y-10.867
X2.142 Y-10.474
X2.053 Y-10.09
X1.934 Y-9.715
X1.786 Y-9.352
X1.609 Y-9.002
X1.405 Y-8.668
X1.175 Y-8.35
X0.918 Y-8.051
X0.638 Y-7.773
X0.335 Y-7.517
X0.011 Y-7.285
X-0.333 Y-7.079
X-0.694 Y-6.899
X-1.071 Y-6.749
X-1.461 Y-6.628
X-1.862 Y-6.539
X-2.272 Y-6.481
X-2.687 Y-6.457
X-3.105 Y-6.466
X-3.523 Y-6.509
X-3.939 Y-6.586
X-4.349 Y-6.696
X-4.752 Y-6.84
X-5.143 Y-7.016
X-5.521 Y-7.224
X-5.882 Y-7.463
X-6.224 Y-7.731
X-6.545 Y-8.027
X-6.842 Y-8.348
X-7.114 Y-8.694
X-7.357 Y-9.061
X-7.571 Y-9.448
X-7.753 Y-9.852
X-7.903 Y-10.27
X-8.019 Y-10.7
X-8.1 Y-11.138
X-8.146 Y-11.582
X-8.156 Y-12.029
X-8.13 Y-12.476
X-8.069 Y-12.92
X-7.971 Y-13.359
X-7.839 Y-13.788
X-7.673 Y-14.206
X-7.473 Y-14.609
X-7.242 Y-14.996
X-6.98 Y-15.363
X-6.689 Y-15.707
X-6.372 Y-16.028
X-6.029 Y-16.322
X-5.664 Y-16.588
X-5.279 Y-16.823
X-4.876 Y-17.027
X-4.458 Y-17.198
X-4.027 Y-17.335
X-3.587 Y-17.437
X-3.14 Y-17.504
X-2.689 Y-17.534
X-2.236 Y-17.528
X-1.786 Y-17.486
X-1.341 Y-17.407
X-0.902 Y-17.293
X-0.472 Y-17.144
X-0.052 Y-16.958
X0.358 Y-16.737
X0.753 Y-16.48
X1.134 Y-16.187
X1.498 Y-15.858
X1.838 Y-15.495
X2.152 Y-15.102
X2.434 Y-14.683
X2.683 Y-14.242
X2.895 Y-13.782
X3.069 Y-13.309
X3.204 Y-12.825
X3.299 Y-12.334
X3.354 Y-11.84
X3.37 Y-11.346
X3.345 Y-10.855
X3.282 Y-10.37
X3.18 Y-9.893
X3.041 Y-9.427
X2.865 Y-8.974
X2.654 Y-8.538
X2.408 Y-8.12
X2.129 Y-7.722
X1.819 Y-7.348
X1.478 Y-6.999
X1.11 Y-6.677
X0.715 Y-6.385
X0.297 Y-6.124
X-0.143 Y-5.897
X-0.602 Y-5.705
X-1.077 Y-5.549
X-1.566 Y-5.432
X-2.064 Y-5.354
X-2.57 Y-5.315
X-3.079 Y-5.318
X-3.59 Y-5.362
X-4.097 Y-5.447
X-4.598 Y-5.573
X-5.089 Y-5.739
X-5.567 Y-5.945
X-6.029 Y-6.19
X-6.472 Y-6.472
X-6.891 Y-6.79
X-7.286 Y-7.141
X-7.651 Y-7.524
X-7.986 Y-7.937
X-8.287 Y-8.376
X-8.553 Y-8.839
X-8.782 Y-9.323
X-8.971 Y-9.824
X-9.119 Y-10.34
X-9.226 Y-10.868
X-9.29 Y-11.402
X-9.311 Y-11.942
X-9.289 Y-12.481
X-9.223 Y-13.018
X-9.115 Y-13.548
X-8.964 Y-14.069
X-8.772 Y-14.576
X-8.539 Y-15.066
X-8.268 Y-15.536
X-7.959 Y-15.984
X-7.616 Y-16.405
X-7.24 Y-16.797
X-6.833 Y-17.159
X-6.398 Y-17.486
X-5.939 Y-17.778
X-5.457 Y-18.032
X-4.956 Y-18.246
X-4.44 Y-18.42
X-3.911 Y-18.551
X-3.374 Y-18.64
X-2.831 Y-18.686
X-2.286 Y-18.687
X-1.742 Y-18.645
X-1.203 Y-18.559
X-0.67 Y-18.43
X-0.146 Y-18.258
X0.366 Y-18.042
X0.864 Y-17.783
X1.345 Y-17.482
X1.807 Y-17.138
X2.245 Y-16.755
X2.654 Y-16.333
X3.03 Y-15.877
X3.371 Y-15.39
X3.671 Y-14.876
X3.93 Y-14.339
X4.144 Y-13.784
X4.313 Y-13.215
X4.436 Y-12.635
X4.511 Y-12.05
X4.539 Y-11.463
X4.519 Y-10.877
X4.453 Y-10.297
X4.341 Y-9.725
X4.184 Y-9.166
X3.982 Y-8.621
X3.738 Y-8.095
X3.452 Y-7.59
X3.127 Y-7.11
X2.763 Y-6.656
X2.364 Y-6.233
X1.931 Y-5.842
X1.466 Y-5.485
X0.973 Y-5.167
X0.454 Y-4.888
X-0.088 Y-4.65
X-0.649 Y-4.456
X-1.226 Y-4.308
X-1.816 Y-4.205
X-2.414 Y-4.15
X-3.017 Y-4.143
X-3.621 Y-4.185
X-4.222 Y-4.276
X-4.817 Y-4.415
X-5.4 Y-4.601
X-5.968 Y-4.835
X-6.517 Y-5.115
X-7.044 Y-5.439
X-7.545 Y-5.805
X-8.016 Y-6.211
X-8.454 Y-6.655
X-8.856 Y-7.134
X-9.219 Y-7.645
X-9.54 Y-8.184
X-9.818 Y-8.748
X-10.05 Y-9.334
X-10.234 Y-9.938
X-10.37 Y-10.556
X-10.456 Y-11.183
X-10.491 Y-11.816
X-10.475 Y-12.45
X-10.409 Y-13.082
X-10.291 Y-13.707
X-10.124 Y-14.321
X-9.908 Y-14.92
X-9.645 Y-15.5
X-9.335 Y-16.058
X-8.982 Y-16.589
X-8.586 Y-17.09
X-8.152 Y-17.558
X-7.682 Y-17.99
X-7.178 Y-18.383
X-6.644 Y-18.735
X-6.083 Y-19.042
X-5.5 Y-19.303
X-4.897 Y-19.517
X-4.279 Y-19.682
X-3.649 Y-19.797
X-3.012 Y-19.861
X-2.372 Y-19.873
X-1.732 Y-19.834
X-1.096 Y-19.744
X-0.466 Y-19.602
X0.153 Y-19.409
X0.76 Y-19.165
X1.349 Y-18.871
X1.918 Y-18.528
X2.462 Y-18.137
X2.976 Y-17.701
X3.457 Y-17.221
X3.901 Y-16.701
X4.303 Y-16.145
X4.66 Y-15.557
X4.97 Y-14.941
X5.229 Y-14.302
X5.435 Y-13.646
X5.588 Y-12.976
X5.687 Y-12.297
X5.73 Y-11.615
X5.719 Y-10.933
X5.653 Y-10.256
X5.534 Y-9.588
X5.361 Y-8.932
X5.136 Y-8.293
X4.861 Y-7.675
X4.538 Y-7.08
X4.167 Y-6.514
X3.752 Y-5.978
X3.295 Y-5.477
X2.798 Y-5.013
X2.264 Y-4.589
X1.696 Y-4.209
X1.098 Y-3.875
X0.474 Y-3.589
X-0.174 Y-3.353
X-0.841 Y-3.169
X-1.523 Y-3.039
X-2.215 Y-2.964
X-2.913 Y-2.945
X-3.613 Y-2.982
X-4.31 Y-3.075
X-5. Y-3.224
X-5.677 Y-3.429
X-6.338 Y-3.689
X-6.978 Y-4.001
X-7.592 Y-4.365
X-8.177 Y-4.778
X-8.728 Y-5.238
X-9.241 Y-5.742
X-9.714 Y-6.286
X-10.142 Y-6.868
X-10.523 Y-7.483
X-10.854 Y-8.129
X-11.132 Y-8.799
X-11.356 Y-9.491
X-11.524 Y-10.2
X-11.635 Y-10.921
X-11.687 Y-11.649
X-11.681 Y-12.38
X-11.616 Y-13.108
X-11.493 Y-13.83
X-11.313 Y-14.54
X-11.075 Y-15.233
X-10.783 Y-15.906
X-10.437 Y-16.554
X-10.04 Y-17.172
X-9.595 Y-17.756
X-9.104 Y-18.303
X-8.571 Y-18.809
X-7.999 Y-19.27
X-7.391 Y-19.685
X-6.752 Y-20.049
X-6.085 Y-20.361
X-5.396 Y-20.618
X-4.688 Y-20.82
X-3.966 Y-20.963
X-3.234 Y-21.049
X-2.498 Y-21.075
X-1.761 Y-21.043
X-1.028 Y-20.951
X-0.306 Y-20.801
X0.402 Y-20.594
X1.092 Y-20.331
X1.758 Y-20.015
X2.398 Y-19.647
X3.007 Y-19.231
X3.582 Y-18.769
X4.12 Y-18.264
X4.619 Y-17.72
X5.074 Y-17.139
X5.484 Y-16.526
X5.847 Y-15.884
X6.161 Y-15.216
X6.424 Y-14.526
X6.634 Y-13.819
X6.79 Y-13.098
X6.891 Y-12.367
X6.936 Y-11.631
X6.925 Y-10.893
X6.857 Y-10.158
X6.732 Y-9.431
X6.553 Y-8.715
X6.319 Y-8.016
X6.032 Y-7.336
X5.694 Y-6.68
X5.308 Y-6.052
X4.874 Y-5.455
X4.396 Y-4.893
X3.876 Y-4.369
X3.319 Y-3.886
X2.726 Y-3.446
X2.102 Y-3.053
X1.449 Y-2.708
X0.773 Y-2.414
X0.076 Y-2.17
X-0.636 Y-1.98
X-1.362 Y-1.844
X-2.095 Y-1.763
X-2.832 Y-1.738
X-3.569 Y-1.769
X-4.302 Y-1.854
X-5.027 Y-1.993
X-5.739 Y-2.185
X-6.436 Y-2.428
X-7.113 Y-2.721
X-7.767 Y-3.063
X-8.394 Y-3.451
X-8.992 Y-3.884
X-9.557 Y-4.359
X-10.084 Y-4.875
X-10.572 Y-5.428
X-11.018 Y-6.016
X-11.421 Y-6.634
X-11.779 Y-7.279
X-12.09 Y-7.948
X-12.352 Y-8.638
X-12.565 Y-9.344
X-12.727 Y-10.064
X-12.837 Y-10.794
X-12.892 Y-11.529
X-12.893 Y-12.267
X-12.842 Y-13.003
X-12.739 Y-13.734
X-12.584 Y-14.455
X-12.379 Y-15.164
X-12.124 Y-15.857
X-11.822 Y-16.53
X-11.472 Y-17.179
X-11.074 Y-17.801
X-10.633 Y-18.392
X-10.151 Y-18.95
X-9.631 Y-19.474
X-9.075 Y-19.959
X-8.486 Y-20.404
X-7.868 Y-20.806
X-7.223 Y-21.165
X-6.554 Y-21.475
X-5.864 Y-21.736
X-5.156 Y-21.946
X-4.436 Y-22.105
X-3.706 Y-22.214
X-2.971 Y-22.271
X-2.233 Y-22.276
X-1.496 Y-22.23
X-0.765 Y-22.132
X-0.043 Y-21.981
X0.667 Y-21.778
X1.36 Y-21.526
X2.034 Y-21.226
X2.686 Y-20.88
X3.312 Y-20.491
X3.911 Y-20.06
X4.48 Y-19.59
X5.015 Y-19.082
X5.513 Y-18.538
X5.973 Y-17.96
X6.392 Y-17.353
X6.77 Y-16.72
X7.105 Y-16.063
X7.396 Y-15.384
X7.642 Y-14.689
X7.841 Y-13.978
X7.993 Y-13.256
X8.093 Y-12.525
X8.143 Y-11.789
X8.142 Y-11.051
X8.091 Y-10.315
X7.99 Y-9.584
X7.841 Y-8.862
X7.644 Y-8.151
X7.399 Y-7.455
X7.108 Y-6.777
X6.77 Y-6.121
X6.387 Y-5.49
X5.962 Y-4.887
X5.498 Y-4.314
X4.996 Y-3.773
X4.459 Y-3.267
X3.889 Y-2.798
X3.29 Y-2.368
X2.663 Y-1.978
X2.011 Y-1.634
X1.336 Y-1.334
X0.643 Y-1.081
X-0.065 Y-0.875
X-0.785 Y-0.716
X-1.515 Y-0.605
X-2.25 Y-0.543
X-2.988 Y-0.53
X-3.725 Y-0.565
X-4.458 Y-0.651
X-5.183 Y-0.785
X-5.898 Y-0.968
X-6.599 Y-1.197
X-7.285 Y-1.47
X-7.951 Y-1.787
X-8.596 Y-2.146
X-9.216 Y-2.545
X-9.81 Y-2.983
X-10.372 Y-3.46
X-10.901 Y-3.975
X-11.395 Y-4.523
X-11.852 Y-5.102
X-12.271 Y-5.71
X-12.651 Y-6.342
X-12.99 Y-6.998
X-13.287 Y-7.673
X-13.541 Y-8.366
X-13.75 Y-9.073
X-13.912 Y-9.793
X-14.026 Y-10.522
X-14.091 Y-11.257
X-14.11 Y-11.994
X-14.081 Y-12.732
X-14.006 Y-13.466
X-13.885 Y-14.194
X-13.718 Y-14.912
X-13.508 Y-15.619
X-13.252 Y-16.312
X-12.951 Y-16.985
X-12.607 Y-17.638
X-12.221 Y-18.267
X-11.795 Y-18.869
X-11.333 Y-19.444
X-10.835 Y-19.989
X-10.304 Y-20.501
X-9.742 Y-20.98
X-9.152 Y-21.422
X-8.534 Y-21.825
X-7.891 Y-22.186
X-7.225 Y-22.505
X-6.541 Y-22.781
X-5.84 Y-23.012
X-5.127 Y-23.199
X-4.402 Y-23.341
X-3.671 Y-23.437
X-2.935 Y-23.488
X-2.197 Y-23.492
X-1.461 Y-23.447
X-0.729 Y-23.355
X-0.004 Y-23.217
X0.71 Y-23.032
X1.412 Y-22.803
X2.098 Y-22.531
X2.765 Y-22.217
X3.413 Y-21.863
X4.037 Y-21.47
X4.636 Y-21.039
X5.206 Y-20.571
X5.747 Y-20.068
X6.255 Y-19.533
X6.729 Y-18.968
X7.168 Y-18.375
X7.571 Y-17.757
X7.937 Y-17.117
X8.264 Y-16.455
X8.551 Y-15.776
X8.797 Y-15.08
X8.999 Y-14.37
X9.156 Y-13.649
X9.27 Y-12.92
X9.338 Y-12.186
X9.361 Y-11.448
X9.34 Y-10.711
X9.274 Y-9.976
X9.165 Y-9.246
X9.012 Y-8.524
X8.814 Y-7.814
X8.573 Y-7.116
X8.288 Y-6.436
X7.962 Y-5.774
X7.596 Y-5.133
X7.192 Y-4.516
X6.751 Y-3.924
X6.276 Y-3.36
X5.767 Y-2.825
X5.228 Y-2.322
X4.659 Y-1.853
X4.061 Y-1.419
X3.438 Y-1.024
X2.793 Y-0.667
X2.126 Y-0.351
X1.442 Y-0.075
X0.743 Y0.16
X0.03 Y0.353
X-0.692 Y0.503
X-1.422 Y0.61
X-2.157 Y0.672
X-2.895 Y0.689
X-3.632 Y0.661
X-4.366 Y0.589
X-5.095 Y0.472
X-5.815 Y0.313
X-6.525 Y0.111
X-7.222 Y-0.131
X-7.904 Y-0.413
X-8.568 Y-0.734
X-9.213 Y-1.093
X-9.834 Y-1.49
X-10.431 Y-1.924
X-11.001 Y-2.393
X-11.542 Y-2.895
X-12.052 Y-3.428
X-12.53 Y-3.99
X-12.974 Y-4.579
X-13.385 Y-5.192
X-13.76 Y-5.828
X-14.097 Y-6.484
X-14.395 Y-7.159
X-14.654 Y-7.85
X-14.871 Y-8.555
X-15.047 Y-9.271
X-15.18 Y-9.997
X-15.27 Y-10.729
X-15.318 Y-11.466
X-15.324 Y-12.203
X-15.287 Y-12.94
X-15.209 Y-13.674
X-15.088 Y-14.402
X-14.925 Y-15.121
X-14.721 Y-15.83
X-14.476 Y-16.526
X-14.19 Y-17.207
X-13.866 Y-17.869
X-13.503 Y-18.512
X-13.104 Y-19.133
X-12.671 Y-19.73
X-12.204 Y-20.301
X-11.706 Y-20.845
X-11.176 Y-21.359
X-10.618 Y-21.841
X-10.032 Y-22.29
X-9.422 Y-22.705
X-8.788 Y-23.083
X-8.134 Y-23.424
X-7.461 Y-23.727
X-6.772 Y-23.991
X-6.069 Y-24.215
X-5.355 Y-24.399
X-4.631 Y-24.541
X-3.9 Y-24.64
X-3.164 Y-24.698
X-2.427 Y-24.713
X-1.689 Y-24.685
X-0.955 Y-24.615
X-0.226 Y-24.503
X0.496 Y-24.349
X1.208 Y-24.155
X1.907 Y-23.921
X2.593 Y-23.647
X3.261 Y-23.335
X3.911 Y-22.985
X4.54 Y-22.599
X5.146 Y-22.179
X5.728 Y-21.725
X6.283 Y-21.239
X6.811 Y-20.724
X7.309 Y-20.179
X7.777 Y-19.609
X8.213 Y-19.013
X8.615 Y-18.395
X8.982 Y-17.755
X9.314 Y-17.096
X9.609 Y-16.42
X9.866 Y-15.728
X10.085 Y-15.024
X10.265 Y-14.308
X10.405 Y-13.584
X10.504 Y-12.853
X10.564 Y-12.117
X10.583 Y-11.38
X10.561 Y-10.642
X10.497 Y-9.907
X10.393 Y-9.177
X10.248 Y-8.453
X10.064 Y-7.739
X9.84 Y-7.036
X9.577 Y-6.346
X9.276 Y-5.673
X8.938 Y-5.017
X8.565 Y-4.38
X8.158 Y-3.765
X7.717 Y-3.174
X7.243 Y-2.608
X6.739 Y-2.069
X6.206 Y-1.559
X5.645 Y-1.079
X5.059 Y-0.631
X4.449 Y-0.216
X3.817 Y0.164
X3.165 Y0.51
X2.495 Y0.82
X1.81 Y1.092
X1.11 Y1.327
X0.399 Y1.522
X-0.322 Y1.678
X-1.051 Y1.794
X-1.785 Y1.87
X-2.522 Y1.905
X-3.26 Y1.9
X-3.996 Y1.855
X-4.729 Y1.77
X-5.456 Y1.646
X-6.176 Y1.483
X-6.886 Y1.281
X-7.583 Y1.041
X-8.267 Y0.764
X-8.935 Y0.451
X-9.586 Y0.102
X-10.216 Y-0.28
X-10.825 Y-0.697
X-11.411 Y-1.145
X-11.972 Y-1.624
X-12.507 Y-2.133
X-13.013 Y-2.669
X-13.491 Y-3.232
X-13.937 Y-3.82
X-14.351 Y-4.43
X-14.732 Y-5.062
X-15.08 Y-5.713
X-15.392 Y-6.381
X-15.669 Y-7.065
X-15.909 Y-7.763
X-16.112 Y-8.472
X-16.277 Y-9.191
X-16.404 Y-9.918
X-16.492 Y-10.651
X-16.54 Y-11.387
X-16.549 Y-12.125
X-16.519 Y-12.862
X-16.451 Y-13.597
X-16.344 Y-14.327
X-16.199 Y-15.05
X-16.015 Y-15.765
X-15.795 Y-16.469
X-15.538 Y-17.16
X-15.245 Y-17.837
X-14.917 Y-18.498
X-14.554 Y-19.141
X-14.157 Y-19.763
X-13.727 Y-20.363
X-13.267 Y-20.939
X-12.777 Y-21.491
X-12.259 Y-22.016
X-11.714 Y-22.514
X-11.144 Y-22.982
X-10.55 Y-23.42
X-9.934 Y-23.826
X-9.298 Y-24.199
X-8.643 Y-24.538
X-7.97 Y-24.842
X-7.282 Y-25.109
X-6.581 Y-25.339
X-5.869 Y-25.533
X-5.148 Y-25.689
X-4.42 Y-25.807
X-3.686 Y-25.887
X-2.95 Y-25.928
X-2.212 Y-25.931
X-1.475 Y-25.896
X-0.741 Y-25.822
X-0.012 Y-25.709
X0.71 Y-25.557
X1.423 Y-25.368
X2.126 Y-25.142
X2.815 Y-24.879
X3.49 Y-24.582
X4.149 Y-24.25
X4.79 Y-23.885
X5.412 Y-23.487
X6.013 Y-23.059
X6.59 Y-22.6
X7.144 Y-22.112
X7.672 Y-21.597
X8.172 Y-21.055
X8.645 Y-20.488
X9.088 Y-19.898
X9.5 Y-19.286
X9.882 Y-18.655
X10.231 Y-18.005
X10.548 Y-17.338
X10.83 Y-16.657
X11.079 Y-15.962
X11.292 Y-15.256
X11.469 Y-14.539
X11.609 Y-13.815
X11.712 Y-13.084
X11.777 Y-12.349
X11.805 Y-11.612
X11.796 Y-10.874
X11.749 Y-10.138
X11.666 Y-9.405
X11.545 Y-8.677
X11.387 Y-7.956
X11.194 Y-7.244
X10.964 Y-6.543
X10.7 Y-5.854
X10.4 Y-5.18
X10.065 Y-4.523
X9.698 Y-3.883
X9.298 Y-3.263
X8.868 Y-2.663
X8.408 Y-2.087
X7.919 Y-1.534
X7.403 Y-1.006
X6.862 Y-0.505
X6.296 Y-0.032
X5.706 Y0.412
X5.096 Y0.826
X4.464 Y1.208
X3.814 Y1.556
X3.147 Y1.872
X2.465 Y2.154
X1.77 Y2.401
X1.063 Y2.613
X0.347 Y2.789
X-0.377 Y2.93
X-1.108 Y3.034
X-1.843 Y3.101
X-2.58 Y3.132
X-3.318 Y3.126
X-4.054 Y3.081
X-4.787 Y3.
X-5.516 Y2.883
X-6.237 Y2.729
X-6.951 Y2.54
X-7.654 Y2.316
X-8.345 Y2.058
X-9.023 Y1.767
X-9.685 Y1.442
X-10.332 Y1.086
X-10.959 Y0.699
X-11.568 Y0.281
X-12.154 Y-0.167
X-12.717 Y-0.644
X-13.255 Y-1.148
X-13.769 Y-1.678
X-14.255 Y-2.233
X-14.714 Y-2.811
X-15.144 Y-3.41
X-15.545 Y-4.03
X-15.915 Y-4.668
X-16.254 Y-5.323
X-16.561 Y-5.994
X-16.835 Y-6.679
X-17.075 Y-7.377
X-17.28 Y-8.086
X-17.45 Y-8.804
X-17.584 Y-9.529
X-17.683 Y-10.26
X-17.746 Y-10.995
X-17.774 Y-11.733
X-17.766 Y-12.471
X-17.722 Y-13.207
X-17.642 Y-13.941
X-17.528 Y-14.669
X-17.379 Y-15.392
X-17.195 Y-16.107
X-16.976 Y-16.811
X-16.722 Y-17.504
X-16.436 Y-18.184
X-16.116 Y-18.849
X-15.764 Y-19.497
X-15.382 Y-20.128
X-14.969 Y-20.74
X-14.527 Y-21.331
X-14.058 Y-21.9
X-13.562 Y-22.446
X-13.04 Y-22.967
X-12.493 Y-23.463
X-11.923 Y-23.932
X-11.331 Y-24.372
X-10.718 Y-24.782
X-10.086 Y-25.163
X-9.436 Y-25.512
X-8.77 Y-25.829
X-8.089 Y-26.114
X-7.396 Y-26.365
X-6.691 Y-26.583
X-5.976 Y-26.767
X-5.254 Y-26.917
X-4.525 Y-27.032
X-3.791 Y-27.111
X-3.055 Y-27.154
X-2.317 Y-27.161
X-1.58 Y-27.132
X-0.845 Y-27.068
X-0.113 Y-26.969
X0.612 Y-26.834
X1.33 Y-26.665
X2.039 Y-26.461
X2.738 Y-26.224
X3.425 Y-25.954
X4.098 Y-25.652
X4.756 Y-25.319
X5.397 Y-24.954
X6.02 Y-24.559
X6.624 Y-24.135
X7.207 Y-23.682
X7.768 Y-23.203
X8.306 Y-22.698
X8.819 Y-22.168
X9.307 Y-21.615
X9.769 Y-21.039
X10.204 Y-20.443
X10.611 Y-19.828
X10.989 Y-19.194
X11.337 Y-18.544
X11.654 Y-17.878
X11.94 Y-17.197
X12.193 Y-16.504
X12.414 Y-15.8
X12.602 Y-15.087
X12.757 Y-14.366
X12.877 Y-13.638
X12.963 Y-12.905
X13.016 Y-12.169
X13.034 Y-11.431
X13.017 Y-10.694
X12.967 Y-9.958
X12.882 Y-9.225
X12.762 Y-8.497
X12.608 Y-7.775
X12.42 Y-7.062
X12.199 Y-6.358
X11.946 Y-5.665
X11.66 Y-4.985
X11.342 Y-4.319
X10.993 Y-3.668
X10.615 Y-3.035
X10.208 Y-2.42
X9.772 Y-1.824
X9.309 Y-1.25
X8.82 Y-0.697
X8.306 Y-0.168
X7.767 Y0.335
X7.205 Y0.813
X6.621 Y1.265
X6.017 Y1.689
X5.394 Y2.084
X4.753 Y2.449
X4.096 Y2.785
X3.424 Y3.089
X2.739 Y3.363
X2.041 Y3.604
X1.334 Y3.813
X0.617 Y3.99
X-0.107 Y4.131
X-0.836 Y4.239
X-1.571 Y4.313
X-2.307 Y4.353
X-3.045 Y4.359
X-3.782 Y4.331
X-4.518 Y4.269
X-5.249 Y4.173
X-5.975 Y4.043
X-6.695 Y3.881
X-7.407 Y3.687
X-8.109 Y3.46
X-8.8 Y3.202
X-9.479 Y2.912
X-10.143 Y2.591
X-10.792 Y2.24
X-11.425 Y1.86
X-12.039 Y1.452
X-12.634 Y1.016
X-13.209 Y0.553
X-13.762 Y0.064
X-14.292 Y-0.449
X-14.798 Y-0.985
X-15.28 Y-1.544
X-15.736 Y-2.124
X-16.166 Y-2.724
X-16.568 Y-3.343
X-16.941 Y-3.979
X-17.285 Y-4.632
X-17.599 Y-5.3
X-17.883 Y-5.98
X-18.136 Y-6.674
X-18.358 Y-7.377
X-18.547 Y-8.09
X-18.704 Y-8.811
X-18.828 Y-9.539
X-18.92 Y-10.271
X-18.979 Y-11.006
X-19.005 Y-11.744
X-18.997 Y-12.481
X-18.956 Y-13.218
X-18.882 Y-13.952
X-18.775 Y-14.682
X-18.635 Y-15.407
X-18.463 Y-16.124
X-18.26 Y-16.833
X-18.024 Y-17.532
X-17.757 Y-18.22
X-17.46 Y-18.896
X-17.133 Y-19.557
X-16.777 Y-20.203
X-16.392 Y-20.833
X-15.979 Y-21.444
X-15.539 Y-22.036
X-15.072 Y-22.608
X-14.581 Y-23.158
X-14.065 Y-23.686
X-13.527 Y-24.19
X-12.966 Y-24.67
X-12.385 Y-25.124
X-11.783 Y-25.552
X-11.164 Y-25.952
X-10.527 Y-26.324
X-9.874 Y-26.668
X-9.206 Y-26.982
X-8.525 Y-27.266
X-7.832 Y-27.518
X-7.128 Y-27.739
X-6.415 Y-27.928
X-5.694 Y-28.085
X-4.967 Y-28.21
X-4.235 Y-28.303
X-3.499 Y-28.362
X-2.762 Y-28.389
X-2.024 Y-28.383
X-1.287 Y-28.344
X-0.553 Y-28.272
X0.177 Y-28.168
X0.903 Y-28.031
X1.621 Y-27.862
X2.33 Y-27.66
X3.031 Y-27.427
X3.72 Y-27.164
X4.397 Y-26.87
X5.06 Y-26.548
X5.709 Y-26.196
X6.341 Y-25.816
X6.956 Y-25.408
X7.553 Y-24.974
X8.13 Y-24.515
X8.687 Y-24.031
X9.222 Y-23.523
X9.735 Y-22.993
X10.224 Y-22.44
X10.688 Y-21.866
X11.127 Y-21.273
X11.539 Y-20.661
X11.926 Y-20.033
X12.285 Y-19.388
X12.615 Y-18.729
X12.917 Y-18.055
X13.19 Y-17.37
X13.433 Y-16.673
X13.645 Y-15.967
X13.828 Y-15.252
X13.979 Y-14.53
X14.099 Y-13.802
X14.186 Y-13.069
X14.241 Y-12.333
X14.264 Y-11.596
X14.256 Y-10.858
X14.215 Y-10.121
X14.143 Y-9.387
X14.038 Y-8.657
X13.902 Y-7.931
X13.735 Y-7.213
X13.537 Y-6.502
X13.308 Y-5.801
X13.049 Y-5.11
X12.761 Y-4.431
X12.443 Y-3.765
X12.096 Y-3.114
X11.72 Y-2.479
X11.318 Y-1.861
X10.889 Y-1.26
X10.434 Y-0.679
X9.955 Y-0.118
X9.452 Y0.422
X8.926 Y0.94
X8.379 Y1.434
X7.81 Y1.904
X7.222 Y2.35
X6.615 Y2.769
X5.991 Y3.162
X5.35 Y3.528
X4.693 Y3.865
X4.023 Y4.173
X3.34 Y4.452
X2.646 Y4.701
X1.941 Y4.921
X1.228 Y5.11
X0.507 Y5.268
X-0.219 Y5.395
X-0.951 Y5.491
X-1.686 Y5.555
X-2.423 Y5.588
X-3.161 Y5.589
X-3.898 Y5.558
X-4.633 Y5.496
X-5.365 Y5.402
X-6.092 Y5.277
X-6.813 Y5.121
X-7.527 Y4.934
X-8.233 Y4.718
X-8.928 Y4.472
X-9.613 Y4.197
X-10.285 Y3.893
X-10.944 Y3.561
X-11.588 Y3.201
X-12.217 Y2.815
X-12.829 Y2.402
X-13.422 Y1.965
X-13.997 Y1.502
X-14.551 Y1.014
X-15.084 Y0.504
X-15.594 Y-0.029
X-16.082 Y-0.582
X-16.546 Y-1.156
X-16.986 Y-1.748
X-17.401 Y-2.359
X-17.789 Y-2.986
X-18.151 Y-3.629
X-18.486 Y-4.286
X-18.793 Y-4.957
X-19.072 Y-5.64
X-19.323 Y-6.334
X-19.544 Y-7.038
X-19.734 Y-7.751
X-19.894 Y-8.471
X-20.023 Y-9.197
X-20.122 Y-9.929
X-20.191 Y-10.663
X-20.229 Y-11.4
X-20.236 Y-12.138
X-20.212 Y-12.875
X-20.157 Y-13.611
X-20.072 Y-14.344
X-19.957 Y-15.073
X-19.811 Y-15.796
X-19.636 Y-16.513
X-19.431 Y-17.221
X-19.196 Y-17.921
X-18.931 Y-18.61
X-18.638 Y-19.287
X-18.317 Y-19.951
X-17.968 Y-20.601
X-17.593 Y-21.236
X-17.192 Y-21.855
X-16.765 Y-22.457
X-16.313 Y-23.041
X-15.837 Y-23.605
X-15.339 Y-24.149
X-14.819 Y-24.672
X-14.277 Y-25.173
X-13.715 Y-25.651
X-13.134 Y-26.105
X-12.533 Y-26.534
X-11.915 Y-26.937
X-11.281 Y-27.314
X-10.632 Y-27.665
X-9.969 Y-27.988
X-9.293 Y-28.284
X-8.605 Y-28.551
X-7.906 Y-28.789
X-7.199 Y-28.997
X-6.483 Y-29.177
X-5.761 Y-29.326
X-5.033 Y-29.446
X-4.3 Y-29.536
X-3.565 Y-29.595
X-2.828 Y-29.622
X-2.09 Y-29.619
X-1.353 Y-29.585
X-0.618 Y-29.52
X0.114 Y-29.425
X0.841 Y-29.3
X1.562 Y-29.144
X2.277 Y-28.959
X2.983 Y-28.745
X3.679 Y-28.502
X4.365 Y-28.23
X5.04 Y-27.931
X5.701 Y-27.604
X6.349 Y-27.251
X6.982 Y-26.871
X7.598 Y-26.466
X8.197 Y-26.035
X8.778 Y-25.58
X9.34 Y-25.102
X9.882 Y-24.601
X10.403 Y-24.08
X10.903 Y-23.537
X11.381 Y-22.974
X11.835 Y-22.393
X12.266 Y-21.794
X12.672 Y-21.178
X13.054 Y-20.547
X13.41 Y-19.9
X13.739 Y-19.24
X14.042 Y-18.567
X14.317 Y-17.883
X14.563 Y-17.187
X14.782 Y-16.483
X14.972 Y-15.77
X15.133 Y-15.05
X15.265 Y-14.324
X15.368 Y-13.593
X15.441 Y-12.859
X15.484 Y-12.122
X15.497 Y-11.385
X15.481 Y-10.647
X15.436 Y-9.911
X15.36 Y-9.177
X15.255 Y-8.446
X15.12 Y-7.721
X14.956 Y-7.002
X14.762 Y-6.29
X14.539 Y-5.587
X14.289 Y-4.893
X14.01 Y-4.209
X13.704 Y-3.538
X13.371 Y-2.88
X13.011 Y-2.235
X12.626 Y-1.606
X12.216 Y-0.993
X11.782 Y-0.396
X11.324 Y0.182
X10.843 Y0.742
X10.34 Y1.281
X9.815 Y1.8
X9.269 Y2.296
X8.703 Y2.77
X8.119 Y3.221
X7.518 Y3.648
X6.9 Y4.051
X6.266 Y4.428
X5.617 Y4.78
X4.955 Y5.105
X4.28 Y5.403
X3.593 Y5.674
X2.897 Y5.917
X2.191 Y6.133
X1.478 Y6.32
X0.757 Y6.478
X0.03 Y6.606
X-0.701 Y6.705
X-1.435 Y6.775
X-2.172 Y6.815
X-2.91 Y6.825
X-3.647 Y6.807
X-4.384 Y6.758
X-5.117 Y6.68
X-5.847 Y6.573
X-6.573 Y6.438
X-7.292 Y6.273
X-8.004 Y6.081
X-8.708 Y5.861
X-9.403 Y5.613
X-10.088 Y5.338
X-10.761 Y5.035
X-11.421 Y4.706
X-12.068 Y4.351
X-12.7 Y3.97
X-13.317 Y3.566
X-13.917 Y3.137
X-14.5 Y2.684
X-15.065 Y2.209
X-15.61 Y1.712
X-16.135 Y1.194
X-16.639 Y0.655
X-17.122 Y0.098
X-17.583 Y-0.479
X-18.021 Y-1.072
X-18.436 Y-1.683
X-18.825 Y-2.309
X-19.19 Y-2.951
X-19.529 Y-3.606
X-19.842 Y-4.274
X-20.129 Y-4.954
X-20.389 Y-5.644
X-20.622 Y-6.344
X-20.828 Y-7.053
X-21.005 Y-7.769
X-21.154 Y-8.492
X-21.274 Y-9.22
X-21.366 Y-9.952
X-21.43 Y-10.687
X-21.465 Y-11.424
X-21.472 Y-12.162
X-21.449 Y-12.899
X-21.396 Y-13.635
X-21.315 Y-14.368
X-21.206 Y-15.098
X-21.068 Y-15.823
X-20.903 Y-16.542
X-20.709 Y-17.254
X-20.488 Y-17.958
X-20.239 Y-18.652
X-19.964 Y-19.337
X-19.662 Y-20.01
X-19.334 Y-20.671
X-18.98 Y-21.319
X-18.602 Y-21.952
X-18.2 Y-22.571
X-17.773 Y-23.173
X-17.323 Y-23.757
X-16.85 Y-24.324
X-16.356 Y-24.871
X-15.841 Y-25.4
X-15.306 Y-25.907
X-14.751 Y-26.394
X-14.178 Y-26.859
X-13.587 Y-27.301
X-12.98 Y-27.719
X-12.356 Y-28.114
X-11.718 Y-28.484
X-11.066 Y-28.829
X-10.401 Y-29.149
X-9.724 Y-29.442
X-9.036 Y-29.709
X-8.338 Y-29.949
X-7.631 Y-30.16
X-6.917 Y-30.344
X-6.196 Y-30.5
X-5.469 Y-30.629
X-4.738 Y-30.729
X-4.004 Y-30.801
X-3.267 Y-30.844
X-2.53 Y-30.858
X-1.792 Y-30.843
X-1.056 Y-30.8
X-0.321 Y-30.728
X0.41 Y-30.629
X1.137 Y-30.501
X1.858 Y-30.345
X2.572 Y-30.161
X3.279 Y-29.949
X3.977 Y-29.709
X4.665 Y-29.443
X5.342 Y-29.151
X6.008 Y-28.834
X6.662 Y-28.491
X7.301 Y-28.123
X7.926 Y-27.731
X8.536 Y-27.315
X9.129 Y-26.876
X9.705 Y-26.415
X10.263 Y-25.933
X10.803 Y-25.43
X11.323 Y-24.907
X11.823 Y-24.364
X12.302 Y-23.802
X12.759 Y-23.223
X13.193 Y-22.627
X13.605 Y-22.014
X13.993 Y-21.387
X14.358 Y-20.746
X14.699 Y-20.091
X15.014 Y-19.424
X15.304 Y-18.746
X15.568 Y-18.057
X15.806 Y-17.359
X16.018 Y-16.652
X16.203 Y-15.938
X16.36 Y-15.217
X16.491 Y-14.491
X16.594 Y-13.76
X16.669 Y-13.026
X16.715 Y-12.29
X16.733 Y-11.552
X16.724 Y-10.814
X16.687 Y-10.077
X16.622 Y-9.342
X16.53 Y-8.61
X16.409 Y-7.883
X16.261 Y-7.16
X16.086 Y-6.443
X15.884 Y-5.734
X15.655 Y-5.032
X15.399 Y-4.34
X15.118 Y-3.658
X14.811 Y-2.987
X14.479 Y-2.328
X14.121 Y-1.683
X13.739 Y-1.052
X13.334 Y-0.435
X12.905 Y0.165
X12.454 Y0.749
X11.982 Y1.316
X11.488 Y1.865
X10.974 Y2.394
X10.441 Y2.903
X9.888 Y3.392
X9.317 Y3.86
X8.73 Y4.306
X8.125 Y4.729
X7.506 Y5.13
X6.872 Y5.507
X6.223 Y5.859
X5.562 Y6.186
X4.889 Y6.488
X4.205 Y6.765
X3.511 Y7.015
X2.808 Y7.24
X2.097 Y7.438
X1.379 Y7.609
X0.656 Y7.753
X-0.073 Y7.869
X-0.805 Y7.958
X-1.54 Y8.02
X-2.277 Y8.054
X-3.015 Y8.061
X-3.753 Y8.04
X-4.489 Y7.991
X-5.223 Y7.915
X-5.953 Y7.81
X-6.679 Y7.678
X-7.4 Y7.52
X-8.114 Y7.335
X-8.821 Y7.124
X-9.52 Y6.887
X-10.209 Y6.624
X-10.888 Y6.335
X-11.556 Y6.022
X-12.212 Y5.684
X-12.855 Y5.322
X-13.484 Y4.937
X-14.099 Y4.529
X-14.698 Y4.098
X-15.28 Y3.645
X-15.845 Y3.171
X-16.392 Y2.675
X-16.92 Y2.16
X-17.429 Y1.626
X-17.918 Y1.073
X-18.386 Y0.503
X-18.833 Y-0.085
X-19.258 Y-0.688
X-19.66 Y-1.306
X-20.039 Y-1.939
X-20.395 Y-2.585
X-20.727 Y-3.244
X-21.035 Y-3.915
X-21.318 Y-4.596
X-21.576 Y-5.287
X-21.808 Y-5.988
X-22.014 Y-6.696
X-22.193 Y-7.412
X-22.345 Y-8.134
X-22.471 Y-8.861
X-22.571 Y-9.592
X-22.643 Y-10.326
X-22.689 Y-11.063
X-22.708 Y-11.8
X-22.699 Y-12.538
X-22.664 Y-13.275
X-22.601 Y-14.01
X-22.512 Y-14.742
X-22.396 Y-15.471
X-22.254 Y-16.195
X-22.085 Y-16.913
X-21.89 Y-17.625
X-21.67 Y-18.329
X-21.423 Y-19.024
X-21.15 Y-19.71
X-20.852 Y-20.385
X-20.53 Y-21.049
X-20.184 Y-21.701
X-19.815 Y-22.339
X-19.422 Y-22.964
X-19.007 Y-23.574
X-18.57 Y-24.168
X-18.111 Y-24.746
X-17.632 Y-25.307
X-17.132 Y-25.85
X-16.613 Y-26.374
X-16.076 Y-26.88
X-15.52 Y-27.365
X-14.947 Y-27.83
X-14.357 Y-28.273
X-13.751 Y-28.693
X-13.13 Y-29.092
X-12.495 Y-29.467
X-11.846 Y-29.819
X-11.185 Y-30.147
X-10.513 Y-30.451
X-9.83 Y-30.73
X-9.137 Y-30.984
X-8.436 Y-31.212
X-7.726 Y-31.415
X-7.01 Y-31.592
X-6.288 Y-31.742
X-5.56 Y-31.866
X-4.829 Y-31.964
X-4.095 Y-32.036
X-3.358 Y-32.079
X-2.62 Y-32.096
X-1.883 Y-32.085
X-1.146 Y-32.047
X-0.411 Y-31.983
X0.321 Y-31.892
X1.05 Y-31.775
X1.773 Y-31.631
X2.491 Y-31.461
X3.203 Y-31.265
X3.906 Y-31.043
X4.602 Y-30.796
X5.287 Y-30.524
X5.963 Y-30.228
X6.628 Y-29.907
X7.281 Y-29.564
X7.92 Y-29.196
X8.546 Y-28.805
X9.157 Y-28.392
X9.753 Y-27.957
X10.333 Y-27.501
X10.897 Y-27.025
X11.443 Y-26.529
X11.971 Y-26.014
X12.481 Y-25.48
X12.971 Y-24.928
X13.441 Y-24.36
X13.89 Y-23.775
X14.319 Y-23.174
X14.726 Y-22.559
X15.111 Y-21.929
X15.474 Y-21.287
X15.814 Y-20.632
X16.13 Y-19.965
X16.421 Y-19.288
X16.689 Y-18.6
X16.931 Y-17.903
X17.149 Y-17.198
X17.342 Y-16.486
X17.51 Y-15.767
X17.652 Y-15.043
X17.768 Y-14.315
X17.858 Y-13.583
X17.922 Y-12.847
X17.959 Y-12.111
X17.971 Y-11.373
X17.956 Y-10.635
X17.915 Y-9.899
X17.849 Y-9.164
X17.756 Y-8.432
X17.636 Y-7.704
X17.491 Y-6.98
X17.319 Y-6.263
X17.122 Y-5.552
X16.9 Y-4.848
X16.653 Y-4.153
X16.381 Y-3.467
X16.085 Y-2.791
X15.766 Y-2.126
X15.422 Y-1.473
X15.056 Y-0.833
X14.666 Y-0.206
X14.255 Y0.407
X13.823 Y1.005
X13.37 Y1.587
X12.896 Y2.153
X12.403 Y2.701
X11.89 Y3.231
X11.358 Y3.743
X10.808 Y4.235
X10.241 Y4.707
X9.658 Y5.159
X9.059 Y5.59
X8.446 Y6.
X7.818 Y6.387
X7.177 Y6.752
X6.523 Y7.094
X5.857 Y7.413
X5.181 Y7.707
X4.494 Y7.978
X3.799 Y8.224
X3.095 Y8.446
X2.384 Y8.643
X1.667 Y8.815
X0.943 Y8.96
X0.215 Y9.08
X-0.517 Y9.173
X-1.251 Y9.241
X-1.988 Y9.283
X-2.726 Y9.299
X-3.463 Y9.289
X-4.2 Y9.253
X-4.935 Y9.191
X-5.668 Y9.103
X-6.397 Y8.99
X-7.122 Y8.851
X-7.841 Y8.686
X-8.554 Y8.497
X-9.26 Y8.284
X-9.959 Y8.046
X-10.648 Y7.784
X-11.328 Y7.497
X-11.997 Y7.186
X-12.655 Y6.852
X-13.301 Y6.495
X-13.934 Y6.117
X-14.554 Y5.716
X-15.159 Y5.294
X-15.75 Y4.852
X-16.324 Y4.388
X-16.882 Y3.905
X-17.422 Y3.403
X-17.945 Y2.882
X-18.449 Y2.344
X-18.935 Y1.788
X-19.401 Y1.216
X-19.847 Y0.629
X-20.272 Y0.026
X-20.676 Y-0.592
X-21.057 Y-1.223
X-21.417 Y-1.867
X-21.754 Y-2.524
X-22.069 Y-3.191
X-22.36 Y-3.869
X-22.628 Y-4.557
X-22.871 Y-5.253
X-23.091 Y-5.957
X-23.286 Y-6.669
X-23.455 Y-7.387
X-23.6 Y-8.111
X-23.72 Y-8.839
X-23.815 Y-9.57
X-23.884 Y-10.305
X-23.929 Y-11.041
X-23.948 Y-11.779
X-23.94 Y-12.517
X-23.907 Y-13.254
X-23.849 Y-13.989
X-23.765 Y-14.722
X-23.656 Y-15.452
X-23.522 Y-16.178
X-23.364 Y-16.898
X-23.18 Y-17.613
X-22.973 Y-18.321
X-22.74 Y-19.021
X-22.484 Y-19.713
X-22.203 Y-20.395
X-21.9 Y-21.068
X-21.573 Y-21.729
X-21.224 Y-22.38
X-20.853 Y-23.017
X-20.461 Y-23.642
X-20.046 Y-24.252
X-19.611 Y-24.848
X-19.155 Y-25.428
X-18.679 Y-25.992
X-18.185 Y-26.54
X-17.672 Y-27.07
X-17.141 Y-27.582
X-16.593 Y-28.076
X-16.028 Y-28.551
X-15.447 Y-29.006
X-14.85 Y-29.44
X-14.239 Y-29.854
X-13.615 Y-30.246
X-12.977 Y-30.617
X-12.326 Y-30.965
X-11.665 Y-31.292
X-10.992 Y-31.595
X-10.309 Y-31.875
X-9.617 Y-32.13
X-8.917 Y-32.361
X-8.208 Y-32.568
X-7.494 Y-32.751
X-6.773 Y-32.909
X-6.047 Y-33.043
X-5.317 Y-33.151
X-4.584 Y-33.235
X-3.849 Y-33.293
X-3.112 Y-33.326
X-2.374 Y-33.333
X-1.636 Y-33.314
X-0.9 Y-33.271
X-0.165 Y-33.202
X0.567 Y-33.109
X1.295 Y-32.991
X2.019 Y-32.847
X2.737 Y-32.678
X3.449 Y-32.485
X4.154 Y-32.267
X4.851 Y-32.025
X5.539 Y-31.76
X6.219 Y-31.472
X6.888 Y-31.161
X7.546 Y-30.827
X8.192 Y-30.471
X8.826 Y-30.094
X9.446 Y-29.695
X10.053 Y-29.275
X10.645 Y-28.835
X11.222 Y-28.375
X11.784 Y-27.896
X12.329 Y-27.398
X12.857 Y-26.883
X13.367 Y-26.35
X13.858 Y-25.8
X14.331 Y-25.233
X14.784 Y-24.651
X15.217 Y-24.054
X15.631 Y-23.443
X16.023 Y-22.818
X16.395 Y-22.181
X16.746 Y-21.532
X17.074 Y-20.871
X17.38 Y-20.199
X17.663 Y-19.518
X17.924 Y-18.828
X18.161 Y-18.129
X18.374 Y-17.423
X18.564 Y-16.71
X18.73 Y-15.991
X18.872 Y-15.267
X18.99 Y-14.539
X19.082 Y-13.807
X19.149 Y-13.072
X19.192 Y-12.335
X19.21 Y-11.598
X19.203 Y-10.86
X19.172 Y-10.123
X19.116 Y-9.387
X19.035 Y-8.654
X18.93 Y-7.923
X18.8 Y-7.197
X18.646 Y-6.476
X18.467 Y-5.76
X18.265 Y-5.05
X18.039 Y-4.348
X17.789 Y-3.653
X17.517 Y-2.968
X17.222 Y-2.292
X16.903 Y-1.626
X16.562 Y-0.972
X16.199 Y-0.33
X15.814 Y0.3
X15.409 Y0.917
X14.984 Y1.519
X14.538 Y2.108
X14.074 Y2.681
X13.59 Y3.238
X13.088 Y3.778
X12.567 Y4.301
X12.03 Y4.807
X11.476 Y5.294
X10.905 Y5.762
X10.32 Y6.211
X9.72 Y6.641
X9.106 Y7.05
X8.479 Y7.438
X7.838 Y7.805
X7.186 Y8.149
X6.522 Y8.472
X5.848 Y8.772
X5.165 Y9.049
X4.472 Y9.304
X3.772 Y9.536
X3.064 Y9.744
X2.349 Y9.928
X1.629 Y10.089
X0.904 Y10.225
X0.175 Y10.336
X-0.558 Y10.424
X-1.293 Y10.487
X-2.03 Y10.525
X-2.767 Y10.539
X-3.505 Y10.529
X-4.242 Y10.494
X-4.978 Y10.434
X-5.711 Y10.35
X-6.44 Y10.241
X-7.166 Y10.107
X-7.887 Y9.951
X-8.602 Y9.77
X-9.311 Y9.566
X-10.014 Y9.34
X-10.708 Y9.09
X-11.393 Y8.817
X-12.069 Y8.521
X-12.735 Y8.204
X-13.39 Y7.864
X-14.034 Y7.504
X-14.666 Y7.122
X-15.284 Y6.72
X-15.889 Y6.298
X-16.48 Y5.856
X-17.056 Y5.394
X-17.615 Y4.914
X-18.159 Y4.415
X-18.686 Y3.898
X-19.196 Y3.365
X-19.688 Y2.815
X-20.162 Y2.25
X-20.617 Y1.669
X-21.053 Y1.074
X-21.469 Y0.464
X-21.865 Y-0.158
X-22.24 Y-0.794
X-22.594 Y-1.441
X-22.927 Y-2.099
X-23.238 Y-2.768
X-23.528 Y-3.447
X-23.795 Y-4.134
X-24.04 Y-4.831
X-24.261 Y-5.535
X-24.458 Y-6.245
X-24.632 Y-6.962
X-24.782 Y-7.685
X-24.909 Y-8.412
X-25.013 Y-9.142
X-25.092 Y-9.876
X-25.148 Y-10.611
X-25.179 Y-11.348
X-25.187 Y-12.086
X-25.17 Y-12.824
X-25.129 Y-13.561
X-25.064 Y-14.296
X-24.975 Y-15.028
X-24.863 Y-15.757
X-24.727 Y-16.482
X-24.567 Y-17.203
X-24.385 Y-17.918
X-24.178 Y-18.626
X-23.948 Y-19.327
X-23.695 Y-20.02
X-23.42 Y-20.705
X-23.123 Y-21.38
X-22.803 Y-22.045
X-22.463 Y-22.7
X-22.102 Y-23.343
X-21.72 Y-23.974
X-21.317 Y-24.592
X-20.894 Y-25.197
X-20.452 Y-25.788
X-19.991 Y-26.364
X-19.511 Y-26.924
X-19.013 Y-27.469
X-18.499 Y-27.997
X-17.967 Y-28.509
X-17.419 Y-29.003
X-16.855 Y-29.479
X-16.275 Y-29.935
X-15.681 Y-30.373
X-15.073 Y-30.79
X-14.452 Y-31.188
X-13.818 Y-31.566
X-13.172 Y-31.922
X-12.515 Y-32.258
X-11.847 Y-32.572
X-11.17 Y-32.865
X-10.483 Y-33.134
X-9.788 Y-33.382
X-9.085 Y-33.606
X-8.375 Y-33.808
X-7.659 Y-33.986
X-6.938 Y-34.142
X-6.212 Y-34.274
X-5.482 Y-34.382
X-4.749 Y-34.467
X-4.014 Y-34.527
X-3.277 Y-34.562
X-2.539 Y-34.574
X-1.802 Y-34.562
X-1.065 Y-34.526
X-0.329 Y-34.466
X0.404 Y-34.383
X1.134 Y-34.276
X1.86 Y-34.145
X2.581 Y-33.991
X3.297 Y-33.813
X4.007 Y-33.612
X4.71 Y-33.389
X5.406 Y-33.143
X6.093 Y-32.874
X6.772 Y-32.584
X7.441 Y-32.273
X8.099 Y-31.94
X8.746 Y-31.585
X9.381 Y-31.21
X10.004 Y-30.814
X10.614 Y-30.399
X11.21 Y-29.964
X11.792 Y-29.511
X12.359 Y-29.039
X12.912 Y-28.55
X13.448 Y-28.043
X13.968 Y-27.519
X14.47 Y-26.979
X14.956 Y-26.424
X15.423 Y-25.853
X15.872 Y-25.267
X16.302 Y-24.668
X16.713 Y-24.055
X17.105 Y-23.43
X17.477 Y-22.793
X17.828 Y-22.144
X18.158 Y-21.484
X18.467 Y-20.814
X18.754 Y-20.134
X19.02 Y-19.446
X19.263 Y-18.749
X19.485 Y-18.046
X19.684 Y-17.335
X19.861 Y-16.619
X20.016 Y-15.897
X20.147 Y-15.171
X20.254 Y-14.441
X20.338 Y-13.708
X20.399 Y-12.973
X20.437 Y-12.236
X20.451 Y-11.499
X20.442 Y-10.761
X20.41 Y-10.024
X20.355 Y-9.288
X20.275 Y-8.554
X20.172 Y-7.824
X20.046 Y-7.097
X19.896 Y-6.375
X19.723 Y-5.657
X19.528 Y-4.946
X19.311 Y-4.241
X19.071 Y-3.543
X18.809 Y-2.853
X18.526 Y-2.172
X18.22 Y-1.5
X17.894 Y-0.839
X17.546 Y-0.188
X17.178 Y0.451
X16.789 Y1.079
X16.382 Y1.694
X15.955 Y2.295
X15.509 Y2.883
X15.045 Y3.457
X14.562 Y4.015
X14.062 Y4.557
X13.544 Y5.083
X13.01 Y5.592
X12.46 Y6.084
X11.895 Y6.559
X11.316 Y7.015
X10.722 Y7.453
X10.115 Y7.872
X9.494 Y8.271
X8.861 Y8.651
X8.217 Y9.01
X7.561 Y9.348
X6.895 Y9.666
X6.219 Y9.962
X5.535 Y10.237
X4.842 Y10.49
X4.141 Y10.722
X3.434 Y10.931
X2.72 Y11.117
X2. Y11.28
X1.276 Y11.42
X0.547 Y11.537
X-0.184 Y11.632
X-0.919 Y11.703
X-1.655 Y11.751
X-2.392 Y11.776
X-3.13 Y11.778
X-3.868 Y11.757
X-4.604 Y11.712
X-5.339 Y11.644
X-6.071 Y11.552
X-6.8 Y11.438
X-7.525 Y11.301
X-8.245 Y11.142
X-8.96 Y10.96
X-9.67 Y10.757
X-10.372 Y10.531
X-11.067 Y10.283
X-11.753 Y10.012
X-12.431 Y9.721
X-13.099 Y9.408
X-13.758 Y9.075
X-14.405 Y8.722
X-15.042 Y8.348
X-15.666 Y7.955
X-16.278 Y7.543
X-16.877 Y7.112
X-17.462 Y6.662
X-18.032 Y6.194
X-18.588 Y5.709
X-19.128 Y5.206
X-19.652 Y4.687
X-20.16 Y4.151
X-20.651 Y3.601
X-21.125 Y3.035
X-21.581 Y2.455
X-22.018 Y1.861
X-22.437 Y1.253
X-22.836 Y0.633
X-23.216 Y0.001
X-23.576 Y-0.643
X-23.916 Y-1.298
X-24.236 Y-1.963
X-24.535 Y-2.638
X-24.813 Y-3.321
X-25.07 Y-4.012
X-25.305 Y-4.712
X-25.518 Y-5.418
X-25.709 Y-6.131
X-25.833 Y-6.656
X-25.844 Y-6.712
X-25.85 Y-6.769
X-25.853 Y-6.826
Y-15.758
X-25.816 Y-16.495
X-25.75 Y-17.181
X-25.621 Y-17.907
X-25.448 Y-18.624
X-25.241 Y-19.333
X-25.007 Y-20.032
X-24.749 Y-20.724
X-24.468 Y-21.406
X-24.165 Y-22.079
X-23.842 Y-22.742
X-23.498 Y-23.395
X-23.135 Y-24.037
X-22.751 Y-24.667
X-22.349 Y-25.285
X-21.927 Y-25.891
X-21.486 Y-26.482
X-21.027 Y-27.06
X-20.551 Y-27.623
X-20.057 Y-28.172
X-19.547 Y-28.705
X-19.021 Y-29.222
X-18.479 Y-29.723
X-17.921 Y-30.206
X-17.349 Y-30.672
X-16.763 Y-31.12
X-16.163 Y-31.55
X-15.551 Y-31.961
X-14.926 Y-32.353
X-14.289 Y-32.726
X-13.641 Y-33.079
X-12.983 Y-33.412
X-12.314 Y-33.725
X-11.637 Y-34.016
X-10.95 Y-34.287
X-10.256 Y-34.536
X-9.554 Y-34.763
X-8.845 Y-34.968
X-8.13 Y-35.151
X-7.41 Y-35.313
X-7.144 Y-35.364
X-7.098 Y-35.372
X-7.051 Y-35.376
X-7.004 Y-35.378
X0.754
X1.491 Y-35.341
X2.225 Y-35.269
X2.952 Y-35.144
X3.671 Y-34.98
X4.384 Y-34.787
X5.088 Y-34.568
X5.785 Y-34.326
X6.474 Y-34.061
X7.153 Y-33.774
X7.824 Y-33.467
X8.485 Y-33.139
X9.136 Y-32.791
X9.775 Y-32.423
X10.403 Y-32.035
X11.019 Y-31.629
X11.622 Y-31.204
X12.212 Y-30.761
X12.788 Y-30.3
X13.351 Y-29.823
X13.899 Y-29.329
X14.431 Y-28.818
X14.948 Y-28.291
X15.449 Y-27.75
X15.933 Y-27.193
X16.4 Y-26.622
X16.85 Y-26.037
X17.281 Y-25.438
X17.695 Y-24.827
X18.089 Y-24.204
X18.465 Y-23.569
X18.822 Y-22.923
X19.158 Y-22.266
X19.475 Y-21.6
X19.771 Y-20.924
X20.047 Y-20.24
X20.303 Y-19.548
X20.537 Y-18.848
X20.741 Y-18.174
X20.758 Y-18.104
X20.769 Y-18.032
X20.772 Y-17.96
Y-6.035
X20.743 Y-5.447
X20.663 Y-4.835
X20.508 Y-4.113
X20.305 Y-3.404
X20.067 Y-2.706
X19.8 Y-2.018
X19.509 Y-1.34
X19.196 Y-0.672
X18.862 Y-0.014
X18.508 Y0.633
X18.134 Y1.27
X17.741 Y1.894
X17.33 Y2.507
X16.901 Y3.107
X16.453 Y3.693
X15.988 Y4.266
X15.506 Y4.825
X15.007 Y5.368
X14.491 Y5.895
X13.959 Y6.407
X13.413 Y6.903
X12.851 Y7.381
X12.276 Y7.843
X11.687 Y8.288
X11.085 Y8.715
X10.471 Y9.123
X9.844 Y9.513
X9.206 Y9.883
X8.557 Y10.234
X7.898 Y10.566
X7.23 Y10.878
X6.552 Y11.169
X5.866 Y11.441
X5.172 Y11.692
X4.471 Y11.921
X3.763 Y12.13
X3.049 Y12.317
X2.33 Y12.482
X1.606 Y12.624
X0.878 Y12.745
X0.147 Y12.844
X-0.586 Y12.922
X-1.322 Y12.977
X-2.059 Y13.011
X-2.797 Y13.022
X-3.535 Y13.011
X-4.272 Y12.979
X-5.008 Y12.924
X-5.741 Y12.847
X-6.473 Y12.749
X-7.201 Y12.629
X-7.925 Y12.487
X-8.644 Y12.324
X-9.359 Y12.141
X-10.068 Y11.935
X-10.77 Y11.709
X-11.465 Y11.462
X-12.152 Y11.193
X-12.831 Y10.904
X-13.501 Y10.595
X-14.162 Y10.267
X-14.812 Y9.919
X-15.452 Y9.551
X-16.081 Y9.166
X-16.698 Y8.761
X-17.303 Y8.339
X-17.895 Y7.899
X-18.474 Y7.441
X-19.039 Y6.967
X-19.59 Y6.476
X-20.126 Y5.969
X-20.647 Y5.446
X-21.152 Y4.909
X-21.641 Y4.356
X-22.114 Y3.79
X-22.57 Y3.21
X-23.008 Y2.616
X-23.428 Y2.009
X-23.83 Y1.391
X-24.213 Y0.76
X-24.577 Y0.118
X-24.922 Y-0.534
X-25.249 Y-1.195
X-25.555 Y-1.866
X-25.794 Y-2.432
X-25.826 Y-2.525
X-25.846 Y-2.622
X-25.853 Y-2.72
Y-6.826
G3 X-25.279 Y-7.002 I0.317 J0.011
G1 X-25.237 Y-6.945 Z-1.492
X-25.198 Y-6.891 Z-1.469
X-25.162 Y-6.843 Z-1.431
X-25.132 Y-6.802 Z-1.38
X-25.11 Y-6.772 Z-1.32
X-25.096 Y-6.753 Z-1.253
X-25.091 Y-6.746 Z-1.183
G0 Z5.
X-0.273 Y-34.994
Z-0.865
G1 Z-1.183 F1016.
X-0.266 Y-34.998 Z-1.253
X-0.246 Y-35.01 Z-1.32
X-0.213 Y-35.029 Z-1.38
X-0.17 Y-35.055 Z-1.431
X-0.118 Y-35.086 Z-1.469
X-0.061 Y-35.12 Z-1.492
X0. Y-35.156 Z-1.5
G3 X0.754 Y-35.378 I0.809 J1.36
G1 X5.108
X5.65 Y-35.35
X6.084 Y-35.294
X6.635 Y-35.176
X7.342 Y-34.964
X8.031 Y-34.699
X8.704 Y-34.397
X9.364 Y-34.068
X10.013 Y-33.716
X10.649 Y-33.343
X11.274 Y-32.95
X11.887 Y-32.539
X12.487 Y-32.111
X13.075 Y-31.665
X13.65 Y-31.202
X14.211 Y-30.723
X14.758 Y-30.229
X15.291 Y-29.718
X15.809 Y-29.193
X16.311 Y-28.652
X16.798 Y-28.097
X17.268 Y-27.529
X17.722 Y-26.947
X18.158 Y-26.352
X18.578 Y-25.745
X18.98 Y-25.127
X19.364 Y-24.497
X19.73 Y-23.856
X20.077 Y-23.205
X20.405 Y-22.544
X20.704 Y-21.897
X20.742 Y-21.797
X20.765 Y-21.693
X20.772 Y-21.586
Y-17.96
G3 X20.199 Y-17.783 I-0.317 J-0.011
G1 X20.157 Y-17.84 Z-1.492
X20.118 Y-17.894 Z-1.469
X20.082 Y-17.943 Z-1.431
X20.052 Y-17.983 Z-1.38
X20.03 Y-18.014 Z-1.32
X20.016 Y-18.033 Z-1.253
X20.011 Y-18.039 Z-1.183
G0 Z5.
X4.081 Y-34.994
Z-0.865
G1 Z-1.183 F1016.
X4.088 Y-34.998 Z-1.253
X4.109 Y-35.01 Z-1.32
X4.141 Y-35.029 Z-1.38
X4.184 Y-35.055 Z-1.431
X4.236 Y-35.086 Z-1.469
X4.294 Y-35.12 Z-1.492
X4.354 Y-35.156 Z-1.5
G3 X5.108 Y-35.378 I0.809 J1.36
G1 X8.123
X8.527 Y-35.357
X8.83 Y-35.317
X9.225 Y-35.233
X9.7 Y-35.091
X10.329 Y-34.846
X10.992 Y-34.524
X11.635 Y-34.162
X12.261 Y-33.771
X12.872 Y-33.358
X13.47 Y-32.925
X14.054 Y-32.474
X14.625 Y-32.007
X15.183 Y-31.524
X15.727 Y-31.026
X16.257 Y-30.513
X16.773 Y-29.985
X17.274 Y-29.444
X17.76 Y-28.889
X18.231 Y-28.32
X18.685 Y-27.739
X19.123 Y-27.145
X19.545 Y-26.54
X19.95 Y-25.923
X20.338 Y-25.296
X20.672 Y-24.719
X20.727 Y-24.602
X20.761 Y-24.477
X20.772 Y-24.347
Y-21.586
G3 X20.199 Y-21.409 I-0.317 J-0.011
G1 X20.157 Y-21.466 Z-1.492
X20.118 Y-21.52 Z-1.469
X20.082 Y-21.569 Z-1.431
X20.052 Y-21.61 Z-1.38
X20.03 Y-21.64 Z-1.32
X20.016 Y-21.659 Z-1.253
X20.011 Y-21.665 Z-1.183
G0 Z5.
X7.096 Y-34.994
Z-0.865
G1 Z-1.183 F1016.
X7.103 Y-34.998 Z-1.253
X7.123 Y-35.01 Z-1.32
X7.156 Y-35.029 Z-1.38
X7.199 Y-35.055 Z-1.431
X7.251 Y-35.086 Z-1.469
X7.308 Y-35.12 Z-1.492
X7.369 Y-35.156 Z-1.5
G3 X8.123 Y-35.378 I0.809 J1.36
G1 X10.635
X10.947 Y-35.362
X11.2 Y-35.329
X11.52 Y-35.26
X11.888 Y-35.15
X12.365 Y-34.964
X12.975 Y-34.668
X13.611 Y-34.294
X14.223 Y-33.881
X14.816 Y-33.442
X15.392 Y-32.981
X15.953 Y-32.502
X16.5 Y-32.007
X17.033 Y-31.497
X17.552 Y-30.973
X18.057 Y-30.435
X18.548 Y-29.883
X19.023 Y-29.319
X19.484 Y-28.743
X19.929 Y-28.155
X20.359 Y-27.555
X20.645 Y-27.132
X20.715 Y-27.003
X20.758 Y-26.862
X20.772 Y-26.716
Y-24.347
G3 X20.222 Y-24.143 I-0.317 J-0.011
G1 X20.198 Y-24.169
X9.907 Y-35.337
X9.875 Y-35.361
X9.837 Y-35.374
X9.796 Y-35.372
X9.759 Y-35.357
X9.729 Y-35.33
X9.709 Y-35.294
X9.704 Y-35.254
X9.712 Y-35.214
X9.733 Y-35.18
X9.764 Y-35.154
X9.803 Y-35.141
X9.843 Y-35.142
X9.881 Y-35.156
G3 X10.635 Y-35.378 I0.809 J1.36
G1 X12.812
X13.116 Y-35.362
X13.345 Y-35.332
X13.622 Y-35.273
X13.935 Y-35.179
X14.332 Y-35.025
X14.814 Y-34.791
X15.43 Y-34.428
X16.034 Y-34.004
X16.613 Y-33.546
X17.172 Y-33.064
X17.714 Y-32.564
X18.24 Y-32.047
X18.752 Y-31.516
X19.25 Y-30.971
X19.733 Y-30.413
X20.202 Y-29.844
X20.615 Y-29.315
X20.701 Y-29.176
X20.754 Y-29.021
X20.772 Y-28.859
Y-26.716
G3 X20.221 Y-26.513 I-0.317 J-0.011
G1 X20.198 Y-26.538
X12.631 Y-34.8
X12.589 Y-34.846
G3 X12.812 Y-35.378 I0.234 J-0.214
G1 X14.989
X15.139 Y-35.37
X15.365 Y-35.337
X15.608 Y-35.281
X15.904 Y-35.188
X16.256 Y-35.045
X16.688 Y-34.827
X17.213 Y-34.508
X17.81 Y-34.075
X18.376 Y-33.602
X18.919 Y-33.103
X19.443 Y-32.583
X19.951 Y-32.047
X20.443 Y-31.497
X20.597 Y-31.316
X20.692 Y-31.171
X20.752 Y-31.009
X20.772 Y-30.837
G3 X20.261 Y-30.596 I-0.317 J-0.011
G1 X20.191 Y-30.651
X14.812 Y-34.804
X14.806 Y-34.809
G3 X14.989 Y-35.378 I0.194 J-0.251
G1 X16.831
X16.99 Y-35.37
X17.198 Y-35.342
X17.413 Y-35.296
X17.675 Y-35.218
X17.986 Y-35.097
X18.344 Y-34.923
X18.783 Y-34.665
X19.336 Y-34.276
X19.904 Y-33.805
X20.441 Y-33.3
X20.563 Y-33.175
X20.677 Y-33.023
X20.748 Y-32.847
X20.772 Y-32.658
G3 X20.28 Y-32.404 I-0.317 J-0.011
G1 X20.186 Y-32.466
X16.667 Y-34.795
G3 X16.831 Y-35.378 I0.175 J-0.265
G1 X18.673
X18.823 Y-35.37
X19.01 Y-35.341
X19.237 Y-35.288
X19.495 Y-35.204
X19.784 Y-35.085
X20.138 Y-34.904
X20.454 Y-34.708
X20.47 Y-34.696
X20.633 Y-34.533
X20.737 Y-34.327
X20.772 Y-34.099
G3 X20.305 Y-33.831 I-0.317 J-0.011
G1 X20.18 Y-33.898
X18.534 Y-34.78
G3 X18.673 Y-35.378 I0.15 J-0.28
G1 X20.181
X20.231
X20.267
X20.416 Y-35.37
X20.558 Y-35.311
X20.673 Y-35.209
X20.747 Y-35.075
X20.772 Y-34.923
G3 X20.636 Y-34.586 I-0.533 J-0.019
X19.93 Y-35.22 I-0.353 J-0.317
X20.267 Y-35.378 I0.353 J0.317
G1 X20.425
X20.463 Y-35.377
X20.501 Y-35.372
X20.516 Y-35.369
X20.557 Y-35.355
X20.599 Y-35.335
X20.641 Y-35.307
X20.683 Y-35.269
X20.71 Y-35.236
X20.731 Y-35.204
X20.751 Y-35.162
X20.764 Y-35.12
X20.771 Y-35.078
X20.772 Y-35.037
Y-28.859
G3 X20.199 Y-28.682 I-0.317 J-0.011
G1 X20.157 Y-28.739 Z-1.492
X20.118 Y-28.793 Z-1.469
X20.082 Y-28.841 Z-1.431
X20.052 Y-28.882 Z-1.38
X20.03 Y-28.912 Z-1.32
X20.016 Y-28.931 Z-1.253
X20.011 Y-28.938 Z-1.183
G0 Z5.
X-25.469 Y-14.732
Z-0.865
G1 Z-1.183 F1016.
X-25.473 Y-14.738 Z-1.253
X-25.485 Y-14.759 Z-1.32
X-25.504 Y-14.791 Z-1.38
X-25.53 Y-14.834 Z-1.431
X-25.561 Y-14.886 Z-1.469
X-25.595 Y-14.944 Z-1.492
X-25.631 Y-15.004 Z-1.5
G3 X-25.853 Y-15.758 I1.36 J-0.809
G1 Y-19.949
X-25.829 Y-20.412
X-25.777 Y-20.811
X-25.665 Y-21.337
X-25.458 Y-22.025
X-25.191 Y-22.713
X-24.884 Y-23.384
X-24.548 Y-24.041
X-24.189 Y-24.685
X-23.809 Y-25.318
X-23.408 Y-25.937
X-22.988 Y-26.544
X-22.55 Y-27.138
X-22.095 Y-27.718
X-21.622 Y-28.285
X-21.134 Y-28.838
X-20.629 Y-29.376
X-20.109 Y-29.899
X-19.573 Y-30.407
X-19.023 Y-30.899
X-18.459 Y-31.374
X-17.881 Y-31.833
X-17.29 Y-32.274
X-16.686 Y-32.698
X-16.07 Y-33.104
X-15.443 Y-33.493
X-14.804 Y-33.862
X-14.156 Y-34.213
X-13.497 Y-34.545
X-12.828 Y-34.858
X-12.151 Y-35.151
X-11.71 Y-35.325
X-11.622 Y-35.354
X-11.53 Y-35.372
X-11.437 Y-35.378
X-7.004
G3 X-6.828 Y-34.804 I-0.011 J0.317
G1 X-6.885 Y-34.762 Z-1.492
X-6.939 Y-34.723 Z-1.469
X-6.987 Y-34.687 Z-1.431
X-7.028 Y-34.657 Z-1.38
X-7.058 Y-34.635 Z-1.32
X-7.077 Y-34.621 Z-1.253
X-7.084 Y-34.616 Z-1.183
G0 Z5.
X-25.469 Y-18.923
Z-0.865
G1 Z-1.183 F1016.
X-25.473 Y-18.929 Z-1.253
X-25.485 Y-18.95 Z-1.32
X-25.504 Y-18.982 Z-1.38
X-25.53 Y-19.025 Z-1.431
X-25.561 Y-19.077 Z-1.469
X-25.595 Y-19.135 Z-1.492
X-25.631 Y-19.195 Z-1.5
G3 X-25.853 Y-19.949 I1.36 J-0.809
G1 Y-22.967
X-25.841 Y-23.196
X-25.802 Y-23.491
X-25.721 Y-23.872
X-25.585 Y-24.327
X-25.352 Y-24.925
X-25.03 Y-25.589
X-24.664 Y-26.23
X-24.269 Y-26.853
X-23.849 Y-27.46
X-23.41 Y-28.053
X-22.952 Y-28.631
X-22.478 Y-29.196
X-21.987 Y-29.747
X-21.481 Y-30.285
X-20.961 Y-30.807
X-20.426 Y-31.315
X-19.876 Y-31.808
X-19.313 Y-32.285
X-18.737 Y-32.745
X-18.148 Y-33.19
X-17.547 Y-33.618
X-16.934 Y-34.029
X-16.31 Y-34.422
X-15.675 Y-34.799
X-15.031 Y-35.157
X-14.769 Y-35.294
X-14.66 Y-35.34
X-14.545 Y-35.368
X-14.427 Y-35.378
X-11.437
G3 X-11.261 Y-34.804 I-0.011 J0.317
G1 X-11.318 Y-34.762 Z-1.492
X-11.372 Y-34.723 Z-1.469
X-11.42 Y-34.687 Z-1.431
X-11.461 Y-34.657 Z-1.38
X-11.491 Y-34.635 Z-1.32
X-11.51 Y-34.621 Z-1.253
X-11.517 Y-34.616 Z-1.183
G0 Z5.
X-25.469 Y-21.94
Z-0.865
G1 Z-1.183 F1016.
X-25.473 Y-21.947 Z-1.253
X-25.485 Y-21.967 Z-1.32
X-25.504 Y-22. Z-1.38
X-25.53 Y-22.043 Z-1.431
X-25.561 Y-22.095 Z-1.469
X-25.595 Y-22.152 Z-1.492
X-25.631 Y-22.213 Z-1.5
G3 X-25.853 Y-22.967 I1.36 J-0.809
G1 Y-25.313
X-25.839 Y-25.581
X-25.807 Y-25.829
X-25.74 Y-26.14
X-25.634 Y-26.494
X-25.456 Y-26.951
X-25.175 Y-27.53
X-24.801 Y-28.166
X-24.385 Y-28.775
X-23.94 Y-29.364
X-23.474 Y-29.936
X-22.989 Y-30.492
X-22.487 Y-31.033
X-21.971 Y-31.56
X-21.44 Y-32.072
X-20.895 Y-32.57
X-20.337 Y-33.052
X-19.766 Y-33.52
X-19.183 Y-33.972
X-18.588 Y-34.408
X-17.981 Y-34.828
X-17.364 Y-35.232
X-17.308 Y-35.267
X-17.185 Y-35.328
X-17.054 Y-35.365
X-16.918 Y-35.378
X-14.427
G3 X-14.227 Y-34.822 I-0.011 J0.317
G1 X-14.249 Y-34.803
X-25.81 Y-24.588
X-25.835 Y-24.556
X-25.848 Y-24.518
X-25.847 Y-24.477
X-25.833 Y-24.439
X-25.806 Y-24.408
X-25.77 Y-24.389
X-25.73 Y-24.382
X-25.69 Y-24.39
X-25.655 Y-24.411
X-25.63 Y-24.443
X-25.616 Y-24.481
X-25.617 Y-24.522
X-25.631 Y-24.56
G3 X-25.853 Y-25.313 I1.36 J-0.809
G1 Y-27.493
X-25.842 Y-27.708
X-25.812 Y-27.935
X-25.755 Y-28.203
X-25.663 Y-28.508
X-25.514 Y-28.89
X-25.292 Y-29.349
X-24.949 Y-29.931
X-24.525 Y-30.535
X-24.065 Y-31.112
X-23.579 Y-31.667
X-23.074 Y-32.205
X-22.552 Y-32.726
X-22.016 Y-33.233
X-21.465 Y-33.724
X-20.902 Y-34.201
X-20.327 Y-34.663
X-19.74 Y-35.11
X-19.564 Y-35.237
X-19.43 Y-35.314
X-19.284 Y-35.361
X-19.13 Y-35.378
X-16.918
G3 X-16.72 Y-34.822 I-0.011 J0.317
G1 X-16.741 Y-34.803
X-25.274 Y-27.311
X-25.326 Y-27.265
G3 X-25.853 Y-27.493 I-0.209 J-0.239
G1 Y-29.504
X-25.844 Y-29.675
X-25.815 Y-29.892
X-25.767 Y-30.121
X-25.683 Y-30.401
X-25.554 Y-30.732
X-25.361 Y-31.128
X-25.078 Y-31.61
X-24.654 Y-32.214
X-24.184 Y-32.783
X-23.684 Y-33.326
X-23.163 Y-33.848
X-22.625 Y-34.353
X-22.072 Y-34.842
X-21.638 Y-35.205
X-21.494 Y-35.299
X-21.333 Y-35.358
X-21.163 Y-35.378
G3 X-20.924 Y-34.864 I-0.011 J0.317
G1 X-20.977 Y-34.796
X-25.279 Y-29.328
X-25.286 Y-29.319
G3 X-25.853 Y-29.504 I-0.25 J-0.196
G1 Y-31.348
X-25.843 Y-31.539
X-25.818 Y-31.727
X-25.772 Y-31.944
X-25.692 Y-32.21
X-25.579 Y-32.501
X-25.405 Y-32.859
X-25.161 Y-33.275
X-24.79 Y-33.802
X-24.319 Y-34.369
X-23.811 Y-34.905
X-23.534 Y-35.171
X-23.383 Y-35.283
X-23.208 Y-35.354
X-23.021 Y-35.378
G3 X-22.769 Y-34.882 I-0.011 J0.317
G1 X-22.83 Y-34.792
X-25.272 Y-31.182
G3 X-25.853 Y-31.348 I-0.263 J-0.178
G1 Y-33.192
X-25.845 Y-33.342
X-25.816 Y-33.531
X-25.761 Y-33.759
X-25.679 Y-34.009
X-25.559 Y-34.296
X-25.381 Y-34.641
X-25.156 Y-35.003
X-25.101 Y-35.077
X-24.937 Y-35.239
X-24.732 Y-35.342
X-24.505 Y-35.378
G3 X-24.238 Y-34.907 I-0.011 J0.317
G1 X-24.304 Y-34.786
X-25.257 Y-33.051
G3 X-25.853 Y-33.192 I-0.278 J-0.153
G1 Y-34.701
X-25.844 Y-34.872
X-25.78 Y-35.07
X-25.651 Y-35.233
X-25.472 Y-35.34
X-25.268 Y-35.378
G3 X-25.023 Y-34.872 I-0.011 J0.317
G1 X-25.08 Y-34.794
X-25.279 Y-34.524
X-25.28
G3 X-25.853 Y-34.701 I-0.256 J-0.188
G1 Y-35.037
X-25.851 Y-35.078
X-25.844 Y-35.12
X-25.831 Y-35.162
X-25.811 Y-35.204
X-25.793 Y-35.233
X-25.77 Y-35.262
X-25.738 Y-35.294
X-25.707 Y-35.319
X-25.677 Y-35.339
X-25.646 Y-35.353
X-25.615 Y-35.364
X-25.584 Y-35.372
X-25.54 Y-35.377
X-19.13 Y-35.378
G3 X-18.954 Y-34.804 I-0.011 J0.317
G1 X-19.011 Y-34.762 Z-1.492
X-19.065 Y-34.723 Z-1.469
X-19.113 Y-34.687 Z-1.431
X-19.154 Y-34.657 Z-1.38
X-19.184 Y-34.635 Z-1.32
X-19.203 Y-34.621 Z-1.253
X-19.21 Y-34.616 Z-1.183
G0 Z5.
X20.389 Y-7.061
Z-0.865
G1 Z-1.183 F1016.
X20.393 Y-7.055 Z-1.253
X20.405 Y-7.034 Z-1.32
X20.424 Y-7.002 Z-1.38
X20.45 Y-6.959 Z-1.431
X20.481 Y-6.907 Z-1.469
X20.515 Y-6.849 Z-1.492
X20.551 Y-6.789 Z-1.5
G3 X20.772 Y-6.035 I-1.36 J0.809
G1 Y-2.515
X20.75 Y-2.071
X20.701 Y-1.699
X20.603 Y-1.236
X20.421 Y-0.629
X20.153 Y0.059
X19.84 Y0.727
X19.494 Y1.379
X19.124 Y2.017
X18.733 Y2.643
X18.322 Y3.256
X17.893 Y3.856
X17.447 Y4.443
X16.983 Y5.017
X16.502 Y5.577
X16.005 Y6.122
X15.493 Y6.653
X14.965 Y7.169
X14.423 Y7.669
X13.866 Y8.154
X13.296 Y8.622
X12.713 Y9.074
X12.118 Y9.51
X11.51 Y9.928
X10.89 Y10.329
X10.26 Y10.712
X9.618 Y11.076
X8.967 Y11.422
X8.306 Y11.75
X7.636 Y12.059
X6.957 Y12.348
X6.27 Y12.618
X5.576 Y12.869
X4.876 Y13.1
X4.168 Y13.31
X3.455 Y13.499
X2.737 Y13.667
X2.014 Y13.814
X1.287 Y13.941
X0.557 Y14.047
X-0.176 Y14.132
X-0.911 Y14.196
X-1.648 Y14.239
X-2.385 Y14.262
X-3.123 Y14.263
X-3.861 Y14.244
X-4.597 Y14.204
X-5.333 Y14.142
X-6.066 Y14.06
X-6.797 Y13.958
X-7.524 Y13.835
X-8.248 Y13.691
X-8.967 Y13.527
X-9.682 Y13.343
X-10.391 Y13.139
X-11.093 Y12.914
X-11.789 Y12.669
X-12.478 Y12.404
X-13.159 Y12.12
X-13.831 Y11.816
X-14.494 Y11.493
X-15.149 Y11.152
X-15.793 Y10.793
X-16.427 Y10.415
X-17.05 Y10.02
X-17.662 Y9.608
X-18.262 Y9.179
X-18.85 Y8.733
X-19.425 Y8.27
X-19.986 Y7.791
X-20.534 Y7.297
X-21.068 Y6.788
X-21.587 Y6.264
X-22.092 Y5.726
X-22.581 Y5.174
X-23.055 Y4.608
X-23.512 Y4.028
X-23.952 Y3.436
X-24.375 Y2.832
X-24.78 Y2.215
X-25.168 Y1.588
X-25.539 Y0.95
X-25.763 Y0.537
X-25.812 Y0.425
X-25.842 Y0.306
X-25.853 Y0.184
Y-2.72
G3 X-25.279 Y-2.897 I0.317 J0.011
G1 X-25.237 Y-2.84 Z-1.492
X-25.198 Y-2.786 Z-1.469
X-25.162 Y-2.737 Z-1.431
X-25.132 Y-2.696 Z-1.38
X-25.11 Y-2.666 Z-1.32
X-25.096 Y-2.647 Z-1.253
X-25.091 Y-2.641 Z-1.183
G0 Z5.
X20.389 Y-3.541
Z-0.865
G1 Z-1.183 F1016.
X20.393 Y-3.534 Z-1.253
X20.405 Y-3.514 Z-1.32
X20.424 Y-3.482 Z-1.38
X20.45 Y-3.438 Z-1.431
X20.481 Y-3.387 Z-1.469
X20.515 Y-3.329 Z-1.492
X20.551 Y-3.268 Z-1.5
G3 X20.772 Y-2.515 I-1.36 J0.809
G1 Y0.335
X20.76 Y0.583
X20.723 Y0.862
X20.647 Y1.22
X20.52 Y1.644
X20.304 Y2.199
X19.982 Y2.863
X19.613 Y3.501
X19.211 Y4.12
X18.786 Y4.723
X18.34 Y5.311
X17.876 Y5.885
X17.395 Y6.444
X16.898 Y6.99
X16.386 Y7.521
X15.859 Y8.038
X15.318 Y8.539
X14.764 Y9.026
X14.196 Y9.497
X13.616 Y9.953
X13.024 Y10.393
X12.419 Y10.816
X11.804 Y11.223
X11.178 Y11.613
X10.541 Y11.986
X9.894 Y12.342
X9.238 Y12.679
X8.574 Y12.999
X7.9 Y13.301
X7.219 Y13.585
X6.531 Y13.85
X5.835 Y14.096
X5.133 Y14.323
X4.425 Y14.53
X3.712 Y14.718
X2.993 Y14.886
X2.27 Y15.034
X1.544 Y15.162
X0.814 Y15.27
X0.081 Y15.358
X-0.654 Y15.426
X-1.39 Y15.474
X-2.127 Y15.502
X-2.865 Y15.51
X-3.603 Y15.498
X-4.34 Y15.467
X-5.076 Y15.415
X-5.81 Y15.344
X-6.542 Y15.253
X-7.272 Y15.142
X-7.998 Y15.012
X-8.72 Y14.862
X-9.439 Y14.693
X-10.152 Y14.505
X-10.86 Y14.297
X-11.562 Y14.07
X-12.257 Y13.824
X-12.946 Y13.559
X-13.627 Y13.275
X-14.3 Y12.973
X-14.965 Y12.652
X-15.62 Y12.313
X-16.266 Y11.957
X-16.903 Y11.584
X-17.529 Y11.194
X-18.145 Y10.787
X-18.749 Y10.364
X-19.342 Y9.925
X-19.923 Y9.47
X-20.491 Y9.
X-21.047 Y8.514
X-21.589 Y8.014
X-22.118 Y7.5
X-22.633 Y6.972
X-23.134 Y6.43
X-23.62 Y5.875
X-24.091 Y5.307
X-24.546 Y4.726
X-24.985 Y4.133
X-25.408 Y3.528
X-25.73 Y3.04
X-25.797 Y2.913
X-25.839 Y2.775
X-25.853 Y2.632
Y0.184
G3 X-25.279 Y0.007 I0.317 J0.011
G1 X-25.237 Y0.064 Z-1.492
X-25.198 Y0.118 Z-1.469
X-25.162 Y0.166 Z-1.431
X-25.132 Y0.207 Z-1.38
X-25.11 Y0.238 Z-1.32
X-25.096 Y0.256 Z-1.253
X-25.091 Y0.263 Z-1.183
G0 Z5.
X20.389 Y-0.691
Z-0.865
G1 Z-1.183 F1016.
X20.393 Y-0.684 Z-1.253
X20.405 Y-0.664 Z-1.32
X20.424 Y-0.632 Z-1.38
X20.45 Y-0.588 Z-1.431
X20.481 Y-0.537 Z-1.469
X20.515 Y-0.479 Z-1.492
X20.551 Y-0.418 Z-1.5
G3 X20.772 Y0.335 I-1.36 J0.809
G1 Y2.682
X20.762 Y2.889
X20.73 Y3.131
X20.666 Y3.433
X20.564 Y3.773
X20.393 Y4.212
X20.127 Y4.76
X19.753 Y5.396
X19.334 Y6.003
X18.885 Y6.589
X18.414 Y7.156
X17.924 Y7.708
X17.417 Y8.245
X16.896 Y8.766
X16.36 Y9.274
X15.811 Y9.767
X15.249 Y10.245
X14.675 Y10.708
X14.089 Y11.156
X13.491 Y11.589
X12.883 Y12.006
X12.263 Y12.407
X11.634 Y12.792
X10.995 Y13.16
X10.346 Y13.512
X9.689 Y13.847
X9.023 Y14.165
X8.349 Y14.466
X7.668 Y14.749
X6.979 Y15.014
X6.284 Y15.261
X5.582 Y15.489
X4.875 Y15.699
X4.162 Y15.89
X3.445 Y16.062
X2.723 Y16.215
X1.998 Y16.349
X1.269 Y16.464
X0.537 Y16.56
X-0.197 Y16.637
X-0.932 Y16.694
X-1.669 Y16.733
X-2.407 Y16.753
X-3.144 Y16.754
X-3.882 Y16.735
X-4.619 Y16.698
X-5.354 Y16.642
X-6.088 Y16.566
X-6.82 Y16.472
X-7.549 Y16.36
X-8.275 Y16.228
X-8.998 Y16.078
X-9.716 Y15.91
X-10.43 Y15.723
X-11.138 Y15.517
X-11.841 Y15.292
X-12.538 Y15.049
X-13.228 Y14.788
X-13.911 Y14.509
X-14.586 Y14.212
X-15.254 Y13.898
X-15.913 Y13.567
X-16.564 Y13.219
X-17.205 Y12.854
X-17.837 Y12.473
X-18.459 Y12.076
X-19.07 Y11.663
X-19.671 Y11.234
X-20.26 Y10.791
X-20.838 Y10.332
X-21.404 Y9.859
X-21.958 Y9.371
X-22.499 Y8.87
X-23.027 Y8.355
X-23.542 Y7.826
X-24.043 Y7.285
X-24.53 Y6.73
X-25.002 Y6.163
X-25.46 Y5.584
X-25.705 Y5.256
X-25.786 Y5.12
X-25.836 Y4.97
X-25.853 Y4.812
Y2.632
G3 X-25.279 Y2.455 I0.317 J0.011
G1 X-25.237 Y2.512 Z-1.492
X-25.198 Y2.566 Z-1.469
X-25.162 Y2.615 Z-1.431
X-25.132 Y2.655 Z-1.38
X-25.11 Y2.686 Z-1.32
X-25.096 Y2.705 Z-1.253
X-25.091 Y2.711 Z-1.183
G0 Z5.
X20.389 Y1.656
Z-0.865
G1 Z-1.183 F1016.
X20.393 Y1.663 Z-1.253
X20.405 Y1.683 Z-1.32
X20.424 Y1.715 Z-1.38
X20.45 Y1.758 Z-1.431
X20.481 Y1.81 Z-1.469
X20.515 Y1.868 Z-1.492
X20.551 Y1.929 Z-1.5
G3 X20.772 Y2.682 I-1.36 J0.809
G1 Y4.786
X20.763 Y4.981
X20.733 Y5.204
X20.678 Y5.464
X20.589 Y5.762
X20.445 Y6.132
X20.23 Y6.573
X19.903 Y7.129
X19.479 Y7.733
X19.017 Y8.308
X18.528 Y8.861
X18.019 Y9.395
X17.493 Y9.913
X16.953 Y10.415
X16.4 Y10.903
X15.834 Y11.376
X15.256 Y11.835
X14.666 Y12.279
X14.066 Y12.708
X13.455 Y13.122
X12.835 Y13.521
X12.204 Y13.904
X11.564 Y14.271
X10.916 Y14.623
X10.258 Y14.958
X9.593 Y15.277
X8.92 Y15.579
X8.239 Y15.864
X7.552 Y16.132
X6.858 Y16.383
X6.158 Y16.616
X5.452 Y16.831
X4.741 Y17.028
X4.025 Y17.207
X3.305 Y17.368
X2.582 Y17.511
X1.854 Y17.636
X1.124 Y17.742
X0.392 Y17.831
X-0.343 Y17.901
X-1.079 Y17.953
X-1.816 Y17.986
X-2.553 Y18.002
X-3.291 Y17.999
X-4.029 Y17.978
X-4.765 Y17.939
X-5.501 Y17.882
X-6.235 Y17.806
X-6.967 Y17.713
X-7.696 Y17.601
X-8.423 Y17.472
X-9.146 Y17.324
X-9.865 Y17.159
X-10.579 Y16.975
X-11.289 Y16.774
X-11.993 Y16.555
X-12.692 Y16.318
X-13.385 Y16.064
X-14.071 Y15.793
X-14.75 Y15.504
X-15.422 Y15.199
X-16.086 Y14.878
X-16.742 Y14.54
X-17.389 Y14.186
X-18.028 Y13.816
X-18.657 Y13.431
X-19.277 Y13.03
X-19.886 Y12.614
X-20.485 Y12.184
X-21.074 Y11.739
X-21.651 Y11.28
X-22.217 Y10.806
X-22.772 Y10.319
X-23.314 Y9.819
X-23.843 Y9.305
X-24.36 Y8.778
X-24.863 Y8.239
X-25.353 Y7.687
X-25.678 Y7.302
X-25.773 Y7.158
X-25.832 Y6.996
X-25.853 Y6.824
Y4.812
G3 X-25.279 Y4.636 I0.317 J0.011
G1 X-25.237 Y4.693 Z-1.492
X-25.198 Y4.747 Z-1.469
X-25.162 Y4.795 Z-1.431
X-25.132 Y4.836 Z-1.38
X-25.11 Y4.866 Z-1.32
X-25.096 Y4.885 Z-1.253
X-25.091 Y4.892 Z-1.183
G0 Z5.
X20.389 Y3.76
Z-0.865
G1 Z-1.183 F1016.
X20.393 Y3.766 Z-1.253
X20.405 Y3.787 Z-1.32
X20.424 Y3.819 Z-1.38
X20.45 Y3.862 Z-1.431
X20.481 Y3.914 Z-1.469
X20.515 Y3.972 Z-1.492
X20.551 Y4.033 Z-1.5
G3 X20.772 Y4.786 I-1.36 J0.809
G1 Y6.706
X20.762 Y6.925
X20.734 Y7.137
X20.686 Y7.361
X20.603 Y7.638
X20.478 Y7.958
X20.29 Y8.345
X20.017 Y8.809
X19.598 Y9.406
X19.127 Y9.974
X18.625 Y10.514
X18.101 Y11.034
X17.559 Y11.535
X17.004 Y12.02
X16.435 Y12.491
X15.855 Y12.946
X15.263 Y13.387
X14.661 Y13.813
X14.049 Y14.225
X13.427 Y14.622
X12.796 Y15.004
X12.156 Y15.371
X11.507 Y15.723
X10.85 Y16.059
X10.186 Y16.379
X9.513 Y16.683
X8.834 Y16.971
X8.148 Y17.242
X7.455 Y17.496
X6.756 Y17.734
X6.052 Y17.954
X5.343 Y18.158
X4.629 Y18.344
X3.911 Y18.513
X3.189 Y18.665
X2.464 Y18.799
X1.735 Y18.916
X1.004 Y19.015
X0.271 Y19.097
X-0.464 Y19.162
X-1.201 Y19.209
X-1.938 Y19.238
X-2.676 Y19.251
X-3.413 Y19.245
X-4.151 Y19.222
X-4.888 Y19.182
X-5.623 Y19.125
X-6.357 Y19.05
X-7.089 Y18.957
X-7.819 Y18.847
X-8.545 Y18.72
X-9.269 Y18.575
X-9.989 Y18.413
X-10.704 Y18.234
X-11.415 Y18.037
X-12.122 Y17.824
X-12.823 Y17.593
X-13.518 Y17.346
X-14.207 Y17.083
X-14.89 Y16.803
X-15.565 Y16.507
X-16.234 Y16.195
X-16.895 Y15.867
X-17.548 Y15.523
X-18.193 Y15.165
X-18.829 Y14.791
X-19.456 Y14.402
X-20.074 Y13.999
X-20.682 Y13.581
X-21.28 Y13.149
X-21.868 Y12.703
X-22.445 Y12.244
X-23.012 Y11.771
X-23.567 Y11.285
X-24.11 Y10.785
X-24.641 Y10.273
X-25.159 Y9.748
X-25.651 Y9.227
X-25.76 Y9.076
X-25.829 Y8.903
X-25.853 Y8.719
Y6.824
G3 X-25.279 Y6.647 I0.317 J0.011
G1 X-25.237 Y6.704 Z-1.492
X-25.198 Y6.758 Z-1.469
X-25.162 Y6.807 Z-1.431
X-25.132 Y6.848 Z-1.38
X-25.11 Y6.878 Z-1.32
X-25.096 Y6.897 Z-1.253
X-25.091 Y6.903 Z-1.183
G0 Z5.
X20.389 Y5.679
Z-0.865
G1 Z-1.183 F1016.
X20.393 Y5.686 Z-1.253
X20.405 Y5.706 Z-1.32
X20.424 Y5.739 Z-1.38
X20.45 Y5.782 Z-1.431
X20.481 Y5.834 Z-1.469
X20.515 Y5.891 Z-1.492
X20.551 Y5.952 Z-1.5
G3 X20.772 Y6.706 I-1.36 J0.809
G1 Y8.55
X20.762 Y8.767
X20.738 Y8.949
X20.692 Y9.164
X20.613 Y9.428
X20.503 Y9.711
X20.332 Y10.063
X20.094 Y10.467
X19.734 Y10.979
X19.263 Y11.546
X18.754 Y12.08
X18.22 Y12.589
X17.667 Y13.078
X17.099 Y13.549
X16.519 Y14.005
X15.927 Y14.446
X15.325 Y14.872
X14.713 Y15.283
X14.091 Y15.681
X13.46 Y16.064
X12.821 Y16.432
X12.173 Y16.785
X11.517 Y17.123
X10.854 Y17.446
X10.183 Y17.753
X9.505 Y18.045
X8.821 Y18.32
X8.13 Y18.58
X7.434 Y18.824
X6.732 Y19.052
X6.025 Y19.263
X5.314 Y19.458
X4.598 Y19.636
X3.878 Y19.798
X3.154 Y19.943
X2.428 Y20.071
X1.698 Y20.183
X0.967 Y20.277
X0.233 Y20.356
X-0.502 Y20.417
X-1.239 Y20.461
X-1.976 Y20.489
X-2.714 Y20.5
X-3.452 Y20.495
X-4.189 Y20.472
X-4.926 Y20.433
X-5.661 Y20.377
X-6.396 Y20.303
X-7.128 Y20.213
X-7.858 Y20.106
X-8.585 Y19.983
X-9.31 Y19.842
X-10.031 Y19.686
X-10.748 Y19.512
X-11.461 Y19.322
X-12.169 Y19.116
X-12.873 Y18.893
X-13.571 Y18.655
X-14.263 Y18.4
X-14.95 Y18.13
X-15.63 Y17.844
X-16.303 Y17.542
X-16.97 Y17.225
X-17.629 Y16.894
X-18.28 Y16.547
X-18.923 Y16.186
X-19.558 Y15.81
X-20.184 Y15.42
X-20.802 Y15.016
X-21.41 Y14.598
X-22.008 Y14.166
X-22.597 Y13.721
X-23.175 Y13.263
X-23.742 Y12.791
X-24.299 Y12.307
X-24.844 Y11.81
X-25.378 Y11.3
X-25.635 Y11.043
X-25.753 Y10.89
X-25.827 Y10.711
X-25.853 Y10.519
Y8.719
G3 X-25.279 Y8.542 I0.317 J0.011
G1 X-25.237 Y8.599 Z-1.492
X-25.198 Y8.653 Z-1.469
X-25.162 Y8.702 Z-1.431
X-25.132 Y8.742 Z-1.38
X-25.11 Y8.773 Z-1.32
X-25.096 Y8.792 Z-1.253
X-25.091 Y8.798 Z-1.183
G0 Z5.
X20.389 Y7.523
Z-0.865
G1 Z-1.183 F1016.
X20.393 Y7.53 Z-1.253
X20.405 Y7.55 Z-1.32
X20.424 Y7.583 Z-1.38
X20.45 Y7.626 Z-1.431
X20.481 Y7.678 Z-1.469
X20.515 Y7.735 Z-1.492
X20.551 Y7.796 Z-1.5
G3 X20.772 Y8.55 I-1.36 J0.809
G1 Y10.394
X20.765 Y10.543
X20.736 Y10.731
X20.682 Y10.958
X20.604 Y11.201
X20.486 Y11.483
X20.313 Y11.82
X20.071 Y12.213
X19.721 Y12.688
X19.237 Y13.245
X18.714 Y13.766
X18.165 Y14.259
X17.598 Y14.731
X17.016 Y15.185
X16.422 Y15.622
X15.817 Y16.045
X15.203 Y16.453
X14.579 Y16.847
X13.946 Y17.227
X13.305 Y17.592
X12.656 Y17.943
X11.999 Y18.279
X11.335 Y18.6
X10.664 Y18.907
X9.986 Y19.199
X9.302 Y19.475
X8.612 Y19.736
X7.916 Y19.981
X7.215 Y20.211
X6.509 Y20.424
X5.798 Y20.623
X5.083 Y20.805
X4.364 Y20.971
X3.642 Y21.121
X2.917 Y21.255
X2.188 Y21.374
X1.457 Y21.476
X0.725 Y21.562
X-0.01 Y21.631
X-0.746 Y21.685
X-1.483 Y21.723
X-2.22 Y21.744
X-2.958 Y21.75
X-3.696 Y21.739
X-4.433 Y21.712
X-5.169 Y21.669
X-5.905 Y21.609
X-6.639 Y21.534
X-7.371 Y21.442
X-8.101 Y21.334
X-8.828 Y21.21
X-9.552 Y21.069
X-10.273 Y20.913
X-10.991 Y20.741
X-11.704 Y20.553
X-12.413 Y20.348
X-13.118 Y20.129
X-13.817 Y19.893
X-14.511 Y19.643
X-15.199 Y19.377
X-15.881 Y19.096
X-16.557 Y18.8
X-17.226 Y18.489
X-17.889 Y18.164
X-18.544 Y17.824
X-19.191 Y17.47
X-19.831 Y17.103
X-20.462 Y16.721
X-21.085 Y16.326
X-21.699 Y15.917
X-22.305 Y15.495
X-22.9 Y15.06
X-23.487 Y14.612
X-24.063 Y14.151
X-24.629 Y13.678
X-25.184 Y13.192
X-25.612 Y12.801
X-25.742 Y12.644
X-25.824 Y12.457
X-25.853 Y12.254
Y10.519
G3 X-25.279 Y10.342 I0.317 J0.011
G1 X-25.237 Y10.399 Z-1.492
X-25.198 Y10.453 Z-1.469
X-25.162 Y10.502 Z-1.431
X-25.132 Y10.542 Z-1.38
X-25.11 Y10.573 Z-1.32
X-25.096 Y10.592 Z-1.253
X-25.091 Y10.598 Z-1.183
G0 Z5.
X20.389 Y9.367
Z-0.865
G1 Z-1.183 F1016.
X20.393 Y9.374 Z-1.253
X20.405 Y9.394 Z-1.32
X20.424 Y9.427 Z-1.38
X20.45 Y9.47 Z-1.431
X20.481 Y9.522 Z-1.469
X20.515 Y9.579 Z-1.492
X20.551 Y9.64 Z-1.5
G3 X20.772 Y10.394 I-1.36 J0.809
G1 Y12.07
X20.765 Y12.22
X20.739 Y12.394
X20.691 Y12.605
X20.615 Y12.844
X20.511 Y13.1
X20.35 Y13.419
X20.141 Y13.762
X19.829 Y14.193
X19.377 Y14.72
X18.854 Y15.241
X18.3 Y15.729
X17.726 Y16.192
X17.137 Y16.636
X16.535 Y17.063
X15.922 Y17.474
X15.3 Y17.87
X14.669 Y18.252
X14.029 Y18.62
X13.382 Y18.974
X12.727 Y19.313
X12.064 Y19.638
X11.395 Y19.949
X10.72 Y20.246
X10.038 Y20.528
X9.35 Y20.795
X8.657 Y21.047
X7.958 Y21.284
X7.255 Y21.506
X6.546 Y21.713
X5.834 Y21.905
X5.117 Y22.081
X4.397 Y22.242
X3.674 Y22.388
X2.948 Y22.518
X2.219 Y22.633
X1.488 Y22.732
X0.755 Y22.816
X0.02 Y22.884
X-0.716 Y22.937
X-1.453 Y22.974
X-2.19 Y22.995
X-2.928 Y23.001
X-3.666 Y22.992
X-4.403 Y22.966
X-5.14 Y22.925
X-5.875 Y22.868
X-6.61 Y22.796
X-7.342 Y22.707
X-8.073 Y22.604
X-8.801 Y22.485
X-9.526 Y22.35
X-10.248 Y22.2
X-10.967 Y22.034
X-11.683 Y21.853
X-12.394 Y21.657
X-13.101 Y21.445
X-13.803 Y21.219
X-14.5 Y20.977
X-15.192 Y20.721
X-15.879 Y20.45
X-16.559 Y20.165
X-17.233 Y19.866
X-17.901 Y19.552
X-18.562 Y19.224
X-19.216 Y18.883
X-19.863 Y18.528
X-20.502 Y18.159
X-21.133 Y17.777
X-21.756 Y17.382
X-22.371 Y16.974
X-22.977 Y16.553
X-23.574 Y16.119
X-24.161 Y15.673
X-24.739 Y15.214
X-25.307 Y14.743
X-25.596 Y14.493
X-25.735 Y14.333
X-25.822 Y14.141
X-25.853 Y13.932
Y12.254
G3 X-25.279 Y12.078 I0.317 J0.011
G1 X-25.237 Y12.135 Z-1.492
X-25.198 Y12.189 Z-1.469
X-25.162 Y12.237 Z-1.431
X-25.132 Y12.278 Z-1.38
X-25.11 Y12.308 Z-1.32
X-25.096 Y12.327 Z-1.253
X-25.091 Y12.334 Z-1.183
G0 Z5.
X20.389 Y11.044
Z-0.865
G1 Z-1.183 F1016.
X20.393 Y11.05 Z-1.253
X20.405 Y11.071 Z-1.32
X20.424 Y11.103 Z-1.38
X20.45 Y11.146 Z-1.431
X20.481 Y11.198 Z-1.469
X20.515 Y11.256 Z-1.492
X20.551 Y11.316 Z-1.5
G3 X20.772 Y12.07 I-1.36 J0.809
G1 Y13.671
X20.765 Y13.825
X20.742 Y13.997
X20.698 Y14.202
X20.636 Y14.41
X20.541 Y14.655
X20.398 Y14.948
X20.214 Y15.262
X19.942 Y15.648
X19.557 Y16.112
X19.042 Y16.64
X18.489 Y17.129
X17.912 Y17.588
X17.317 Y18.025
X16.71 Y18.444
X16.091 Y18.846
X15.463 Y19.233
X14.826 Y19.605
X14.181 Y19.963
X13.528 Y20.308
X12.869 Y20.639
X12.202 Y20.955
X11.53 Y21.258
X10.851 Y21.547
X10.166 Y21.822
X9.475 Y22.082
X8.78 Y22.328
X8.079 Y22.559
X7.374 Y22.776
X6.664 Y22.978
X5.951 Y23.166
X5.233 Y23.338
X4.513 Y23.496
X3.789 Y23.639
X3.062 Y23.768
X2.333 Y23.881
X1.602 Y23.979
X0.869 Y24.063
X0.134 Y24.131
X-0.602 Y24.184
X-1.338 Y24.223
X-2.076 Y24.246
X-2.814 Y24.254
X-3.551 Y24.246
X-4.289 Y24.224
X-5.026 Y24.186
X-5.762 Y24.134
X-6.496 Y24.066
X-7.229 Y23.983
X-7.961 Y23.885
X-8.69 Y23.772
X-9.417 Y23.644
X-10.14 Y23.501
X-10.861 Y23.344
X-11.579 Y23.171
X-12.292 Y22.984
X-13.002 Y22.782
X-13.707 Y22.565
X-14.408 Y22.334
X-15.104 Y22.089
X-15.794 Y21.83
X-16.48 Y21.556
X-17.159 Y21.269
X-17.833 Y20.968
X-18.5 Y20.653
X-19.161 Y20.324
X-19.815 Y19.983
X-20.462 Y19.628
X-21.101 Y19.26
X-21.733 Y18.879
X-22.357 Y18.485
X-22.973 Y18.079
X-23.58 Y17.66
X-24.179 Y17.228
X-24.768 Y16.785
X-25.349 Y16.33
X-25.584 Y16.135
X-25.729 Y15.975
X-25.821 Y15.779
X-25.853 Y15.564
Y13.932
G3 X-25.279 Y13.756 I0.317 J0.011
G1 X-25.237 Y13.813 Z-1.492
X-25.198 Y13.867 Z-1.469
X-25.162 Y13.915 Z-1.431
X-25.132 Y13.956 Z-1.38
X-25.11 Y13.986 Z-1.32
X-25.096 Y14.005 Z-1.253
X-25.091 Y14.012 Z-1.183
G0 Z5.
X20.389 Y12.644
Z-0.865
G1 Z-1.183 F1016.
X20.393 Y12.651 Z-1.253
X20.405 Y12.671 Z-1.32
X20.424 Y12.704 Z-1.38
X20.45 Y12.747 Z-1.431
X20.481 Y12.799 Z-1.469
X20.515 Y12.857 Z-1.492
X20.551 Y12.917 Z-1.5
G3 X20.772 Y13.671 I-1.36 J0.809
G1 Y15.255
X20.764 Y15.425
X20.741 Y15.599
X20.703 Y15.775
X20.64 Y15.986
X20.541 Y16.242
X20.416 Y16.499
X20.231 Y16.814
X19.984 Y17.164
X19.628 Y17.593
X19.123 Y18.111
X18.567 Y18.596
X17.985 Y19.049
X17.384 Y19.477
X16.77 Y19.886
X16.144 Y20.277
X15.509 Y20.653
X14.866 Y21.014
X14.215 Y21.361
X13.557 Y21.695
X12.892 Y22.015
X12.221 Y22.321
X11.544 Y22.614
X10.861 Y22.893
X10.172 Y23.159
X9.478 Y23.41
X8.78 Y23.647
X8.077 Y23.871
X7.369 Y24.08
X6.658 Y24.275
X5.942 Y24.456
X5.224 Y24.623
X4.502 Y24.776
X3.777 Y24.914
X3.05 Y25.037
X2.32 Y25.147
X1.588 Y25.242
X0.855 Y25.322
X0.12 Y25.388
X-0.616 Y25.439
X-1.353 Y25.476
X-2.09 Y25.498
X-2.828 Y25.506
X-3.566 Y25.499
X-4.303 Y25.477
X-5.04 Y25.441
X-5.776 Y25.389
X-6.511 Y25.323
X-7.245 Y25.243
X-7.976 Y25.148
X-8.706 Y25.038
X-9.433 Y24.914
X-10.158 Y24.775
X-10.88 Y24.623
X-11.598 Y24.455
X-12.313 Y24.274
X-13.025 Y24.078
X-13.732 Y23.869
X-14.435 Y23.645
X-15.134 Y23.407
X-15.828 Y23.156
X-16.516 Y22.891
X-17.199 Y22.612
X-17.877 Y22.32
X-18.549 Y22.015
X-19.214 Y21.697
X-19.874 Y21.366
X-20.526 Y21.021
X-21.172 Y20.664
X-21.811 Y20.295
X-22.442 Y19.913
X-23.065 Y19.518
X-23.681 Y19.112
X-24.288 Y18.693
X-24.887 Y18.262
X-25.478 Y17.82
X-25.585 Y17.731
X-25.729 Y17.57
X-25.821 Y17.375
X-25.853 Y17.161
Y15.564
G3 X-25.279 Y15.388 I0.317 J0.011
G1 X-25.237 Y15.445 Z-1.492
X-25.198 Y15.499 Z-1.469
X-25.162 Y15.547 Z-1.431
X-25.132 Y15.588 Z-1.38
X-25.11 Y15.618 Z-1.32
X-25.096 Y15.637 Z-1.253
X-25.091 Y15.644 Z-1.183
G0 Z5.
X20.389 Y14.229
Z-0.865
G1 Z-1.183 F1016.
X20.393 Y14.236 Z-1.253
X20.405 Y14.256 Z-1.32
X20.424 Y14.288 Z-1.38
X20.45 Y14.331 Z-1.431
X20.481 Y14.383 Z-1.469
X20.515 Y14.441 Z-1.492
X20.551 Y14.502 Z-1.5
G3 X20.772 Y15.255 I-1.36 J0.809
G1 Y16.764
X20.761 Y16.995
X20.74 Y17.155
X20.702 Y17.33
X20.639 Y17.541
X20.545 Y17.782
X20.425 Y18.03
X20.244 Y18.338
X20.015 Y18.664
X19.68 Y19.067
X19.213 Y19.546
X18.657 Y20.031
X18.071 Y20.48
X17.465 Y20.902
X16.845 Y21.301
X16.214 Y21.683
X15.573 Y22.049
X14.924 Y22.401
X14.268 Y22.738
X13.605 Y23.062
X12.936 Y23.372
X12.261 Y23.67
X11.58 Y23.953
X10.893 Y24.224
X10.202 Y24.481
X9.505 Y24.725
X8.804 Y24.955
X8.099 Y25.172
X7.39 Y25.374
X6.677 Y25.564
X5.96 Y25.739
X5.24 Y25.901
X4.517 Y26.049
X3.792 Y26.183
X3.064 Y26.303
X2.334 Y26.409
X1.601 Y26.501
X0.868 Y26.579
X0.133 Y26.643
X-0.603 Y26.693
X-1.34 Y26.729
X-2.078 Y26.751
X-2.816 Y26.759
X-3.553 Y26.753
X-4.291 Y26.732
X-5.028 Y26.697
X-5.764 Y26.647
X-6.499 Y26.583
X-7.233 Y26.506
X-7.965 Y26.414
X-8.695 Y26.308
X-9.423 Y26.188
X-10.148 Y26.054
X-10.871 Y25.906
X-11.591 Y25.744
X-12.308 Y25.569
X-13.021 Y25.38
X-13.73 Y25.177
X-14.436 Y24.96
X-15.137 Y24.73
X-15.833 Y24.487
X-16.525 Y24.231
X-17.212 Y23.961
X-17.893 Y23.678
X-18.569 Y23.383
X-19.24 Y23.074
X-19.904 Y22.753
X-20.562 Y22.419
X-21.214 Y22.073
X-21.859 Y21.715
X-22.497 Y21.345
X-23.128 Y20.962
X-23.751 Y20.567
X-24.367 Y20.161
X-24.975 Y19.743
X-25.574 Y19.313
X-25.587 Y19.303
X-25.73 Y19.142
X-25.821 Y18.947
X-25.853 Y18.734
Y17.161
G3 X-25.279 Y16.984 I0.317 J0.011
G1 X-25.237 Y17.041 Z-1.492
X-25.198 Y17.095 Z-1.469
X-25.162 Y17.144 Z-1.431
X-25.132 Y17.184 Z-1.38
X-25.11 Y17.215 Z-1.32
X-25.096 Y17.234 Z-1.253
X-25.091 Y17.24 Z-1.183
G0 Z5.
X20.389 Y15.737
Z-0.865
G1 Z-1.183 F1016.
X20.393 Y15.744 Z-1.253
X20.405 Y15.764 Z-1.32
X20.424 Y15.797 Z-1.38
X20.45 Y15.84 Z-1.431
X20.481 Y15.892 Z-1.469
X20.515 Y15.95 Z-1.492
X20.551 Y16.01 Z-1.5
G3 X20.772 Y16.764 I-1.36 J0.809
G1 Y18.365
X20.764 Y18.527
X20.745 Y18.677
X20.707 Y18.852
X20.644 Y19.063
X20.558 Y19.285
X20.437 Y19.533
X20.261 Y19.833
X20.042 Y20.144
X19.726 Y20.525
X19.286 Y20.976
X18.73 Y21.461
X18.141 Y21.905
X17.531 Y22.32
X16.906 Y22.712
X16.27 Y23.085
X15.624 Y23.442
X14.97 Y23.784
X14.309 Y24.112
X13.642 Y24.426
X12.968 Y24.728
X12.289 Y25.016
X11.604 Y25.292
X10.915 Y25.554
X10.22 Y25.803
X9.521 Y26.039
X8.818 Y26.263
X8.111 Y26.473
X7.4 Y26.669
X6.685 Y26.853
X5.967 Y27.023
X5.246 Y27.179
X4.522 Y27.323
X3.796 Y27.453
X3.068 Y27.569
X2.337 Y27.672
X1.605 Y27.762
X0.871 Y27.838
X0.136 Y27.9
X-0.601 Y27.949
X-1.338 Y27.984
X-2.075 Y28.005
X-2.813 Y28.013
X-3.551 Y28.007
X-4.288 Y27.987
X-5.025 Y27.953
X-5.762 Y27.905
X-6.497 Y27.843
X-7.231 Y27.767
X-7.963 Y27.678
X-8.694 Y27.576
X-9.422 Y27.459
X-10.149 Y27.329
X-10.872 Y27.186
X-11.593 Y27.029
X-12.311 Y26.859
X-13.026 Y26.676
X-13.737 Y26.479
X-14.444 Y26.269
X-15.148 Y26.047
X-15.847 Y25.811
X-16.542 Y25.562
X-17.231 Y25.301
X-17.916 Y25.026
X-18.596 Y24.74
X-19.271 Y24.44
X-19.939 Y24.129
X-20.602 Y23.805
X-21.259 Y23.469
X-21.91 Y23.121
X-22.554 Y22.761
X-23.191 Y22.39
X-23.822 Y22.006
X-24.445 Y21.611
X-25.061 Y21.205
X-25.579 Y20.849
X-25.726 Y20.687
X-25.82 Y20.49
X-25.853 Y20.274
Y18.734
G3 X-25.279 Y18.557 I0.317 J0.011
G1 X-25.237 Y18.614 Z-1.492
X-25.198 Y18.669 Z-1.469
X-25.162 Y18.717 Z-1.431
X-25.132 Y18.758 Z-1.38
X-25.11 Y18.788 Z-1.32
X-25.096 Y18.807 Z-1.253
X-25.091 Y18.813 Z-1.183
G0 Z5.
X20.389 Y17.338
Z-0.865
G1 Z-1.183 F1016.
X20.393 Y17.345 Z-1.253
X20.405 Y17.365 Z-1.32
X20.424 Y17.398 Z-1.38
X20.45 Y17.441 Z-1.431
X20.481 Y17.493 Z-1.469
X20.515 Y17.551 Z-1.492
X20.551 Y17.611 Z-1.5
G3 X20.772 Y18.365 I-1.36 J0.809
G1 Y19.874
X20.764 Y20.035
X20.745 Y20.183
X20.707 Y20.359
X20.644 Y20.567
X20.563 Y20.775
X20.442 Y21.024
X20.273 Y21.311
X20.059 Y21.615
X19.757 Y21.978
X19.34 Y22.405
X18.783 Y22.889
X18.191 Y23.33
X17.577 Y23.738
X16.947 Y24.122
X16.305 Y24.487
X15.655 Y24.835
X14.996 Y25.167
X14.331 Y25.486
X13.659 Y25.792
X12.982 Y26.084
X12.299 Y26.364
X11.611 Y26.631
X10.919 Y26.885
X10.222 Y27.127
X9.52 Y27.356
X8.815 Y27.572
X8.106 Y27.776
X7.393 Y27.966
X6.677 Y28.144
X5.958 Y28.309
X5.236 Y28.46
X4.511 Y28.599
X3.784 Y28.725
X3.055 Y28.838
X2.324 Y28.938
X1.591 Y29.024
X0.857 Y29.098
X0.121 Y29.158
X-0.615 Y29.205
X-1.352 Y29.239
X-2.089 Y29.259
X-2.827 Y29.267
X-3.565 Y29.261
X-4.303 Y29.241
X-5.04 Y29.208
X-5.776 Y29.161
X-6.511 Y29.101
X-7.245 Y29.028
X-7.978 Y28.941
X-8.709 Y28.841
X-9.438 Y28.728
X-10.165 Y28.601
X-10.89 Y28.462
X-11.612 Y28.31
X-12.331 Y28.144
X-13.047 Y27.966
X-13.759 Y27.775
X-14.468 Y27.571
X-15.174 Y27.355
X-15.875 Y27.125
X-16.572 Y26.884
X-17.265 Y26.63
X-17.953 Y26.363
X-18.636 Y26.084
X-19.314 Y25.794
X-19.987 Y25.491
X-20.654 Y25.176
X-21.316 Y24.849
X-21.971 Y24.511
X-22.621 Y24.161
X-23.264 Y23.799
X-23.901 Y23.426
X-24.53 Y23.042
X-25.153 Y22.647
X-25.575 Y22.364
X-25.724 Y22.204
X-25.82 Y22.007
X-25.853 Y21.79
Y20.274
G3 X-25.279 Y20.097 I0.317 J0.011
G1 X-25.237 Y20.154 Z-1.492
X-25.198 Y20.208 Z-1.469
X-25.162 Y20.257 Z-1.431
X-25.132 Y20.297 Z-1.38
X-25.11 Y20.328 Z-1.32
X-25.096 Y20.347 Z-1.253
X-25.091 Y20.353 Z-1.183
G0 Z5.
X20.389 Y18.847
Z-0.865
G1 Z-1.183 F1016.
X20.393 Y18.854 Z-1.253
X20.405 Y18.874 Z-1.32
X20.424 Y18.907 Z-1.38
X20.45 Y18.95 Z-1.431
X20.481 Y19.002 Z-1.469
X20.515 Y19.059 Z-1.492
X20.551 Y19.12 Z-1.5
G3 X20.772 Y19.874 I-1.36 J0.809
G1 Y21.382
X20.765 Y21.532
X20.744 Y21.681
X20.704 Y21.859
X20.643 Y22.058
X20.559 Y22.267
X20.434 Y22.52
X20.27 Y22.793
X20.053 Y23.097
X19.758 Y23.446
X19.348 Y23.858
X18.788 Y24.338
X18.191 Y24.773
X17.572 Y25.174
X16.937 Y25.549
X16.29 Y25.905
X15.635 Y26.243
X14.971 Y26.566
X14.302 Y26.876
X13.626 Y27.172
X12.945 Y27.455
X12.258 Y27.726
X11.567 Y27.984
X10.872 Y28.23
X10.172 Y28.464
X9.468 Y28.685
X8.76 Y28.894
X8.049 Y29.09
X7.334 Y29.274
X6.617 Y29.445
X5.896 Y29.604
X5.173 Y29.75
X4.447 Y29.884
X3.72 Y30.005
X2.99 Y30.113
X2.258 Y30.209
X1.525 Y30.292
X0.791 Y30.362
X0.055 Y30.419
X-0.681 Y30.464
X-1.419 Y30.496
X-2.156 Y30.515
X-2.894 Y30.521
X-3.632 Y30.514
X-4.369 Y30.494
X-5.106 Y30.46
X-5.843 Y30.414
X-6.578 Y30.355
X-7.312 Y30.282
X-8.045 Y30.197
X-8.776 Y30.099
X-9.506 Y29.988
X-10.233 Y29.864
X-10.958 Y29.727
X-11.681 Y29.578
X-12.401 Y29.416
X-13.118 Y29.242
X-13.831 Y29.055
X-14.542 Y28.856
X-15.249 Y28.645
X-15.952 Y28.421
X-16.651 Y28.185
X-17.346 Y27.937
X-18.036 Y27.677
X-18.722 Y27.405
X-19.403 Y27.121
X-20.079 Y26.826
X-20.75 Y26.518
X-21.415 Y26.2
X-22.075 Y25.869
X-22.729 Y25.528
X-23.377 Y25.175
X-24.019 Y24.811
X-24.654 Y24.436
X-25.283 Y24.05
X-25.642 Y23.805
X-25.755 Y23.682
X-25.828 Y23.53
X-25.853 Y23.365
Y21.79
G3 X-25.279 Y21.614 I0.317 J0.011
G1 X-25.237 Y21.67 Z-1.492
X-25.198 Y21.725 Z-1.469
X-25.162 Y21.773 Z-1.431
X-25.132 Y21.814 Z-1.38
X-25.11 Y21.844 Z-1.32
X-25.096 Y21.863 Z-1.253
X-25.091 Y21.87 Z-1.183
G0 Z5.
X20.389 Y20.356
Z-0.865
G1 Z-1.183 F1016.
X20.393 Y20.363 Z-1.253
X20.405 Y20.383 Z-1.32
X20.424 Y20.415 Z-1.38
X20.45 Y20.459 Z-1.431
X20.481 Y20.51 Z-1.469
X20.515 Y20.568 Z-1.492
X20.551 Y20.629 Z-1.5
G3 X20.772 Y21.382 I-1.36 J0.809
G1 Y22.799
X20.763 Y22.99
X20.743 Y23.138
X20.706 Y23.311
X20.647 Y23.506
X20.568 Y23.708
X20.449 Y23.951
X20.289 Y24.221
X20.086 Y24.508
X19.804 Y24.846
X19.424 Y25.233
X18.908 Y25.68
X18.313 Y26.118
X17.694 Y26.518
X17.057 Y26.89
X16.408 Y27.241
X15.749 Y27.574
X15.083 Y27.891
X14.411 Y28.195
X13.732 Y28.485
X13.049 Y28.762
X12.36 Y29.027
X11.667 Y29.28
X10.969 Y29.521
X10.268 Y29.749
X9.562 Y29.966
X8.854 Y30.17
X8.141 Y30.362
X7.426 Y30.543
X6.707 Y30.711
X5.986 Y30.867
X5.262 Y31.01
X4.536 Y31.142
X3.808 Y31.261
X3.078 Y31.368
X2.347 Y31.462
X1.613 Y31.544
X0.879 Y31.614
X0.143 Y31.671
X-0.593 Y31.716
X-1.33 Y31.749
X-2.068 Y31.769
X-2.806 Y31.776
X-3.543 Y31.77
X-4.281 Y31.752
X-5.018 Y31.721
X-5.755 Y31.678
X-6.49 Y31.622
X-7.225 Y31.553
X-7.958 Y31.471
X-8.69 Y31.377
X-9.42 Y31.271
X-10.148 Y31.152
X-10.874 Y31.021
X-11.598 Y30.877
X-12.319 Y30.722
X-13.038 Y30.554
X-13.753 Y30.374
X-14.466 Y30.181
X-15.175 Y29.977
X-15.88 Y29.761
X-16.582 Y29.533
X-17.28 Y29.294
X-17.973 Y29.042
X-18.663 Y28.779
X-19.347 Y28.504
X-20.027 Y28.218
X-20.703 Y27.921
X-21.373 Y27.612
X-22.038 Y27.292
X-22.697 Y26.961
X-23.351 Y26.619
X-23.999 Y26.266
X-24.64 Y25.902
X-25.276 Y25.527
X-25.634 Y25.293
X-25.752 Y25.169
X-25.827 Y25.015
X-25.853 Y24.847
Y23.365
G3 X-25.279 Y23.188 I0.317 J0.011
G1 X-25.237 Y23.245 Z-1.492
X-25.198 Y23.299 Z-1.469
X-25.162 Y23.348 Z-1.431
X-25.132 Y23.388 Z-1.38
X-25.11 Y23.419 Z-1.32
X-25.096 Y23.437 Z-1.253
X-25.091 Y23.444 Z-1.183
G0 Z5.
X20.389 Y21.772
Z-0.865
G1 Z-1.183 F1016.
X20.393 Y21.779 Z-1.253
X20.405 Y21.799 Z-1.32
X20.424 Y21.832 Z-1.38
X20.45 Y21.875 Z-1.431
X20.481 Y21.927 Z-1.469
X20.515 Y21.985 Z-1.492
X20.551 Y22.045 Z-1.5
G3 X20.772 Y22.799 I-1.36 J0.809
G1 Y24.308
X20.765 Y24.457
X20.743 Y24.608
X20.702 Y24.787
X20.644 Y24.969
X20.559 Y25.179
X20.432 Y25.431
X20.282 Y25.678
X20.062 Y25.98
X19.788 Y26.301
X19.401 Y26.685
X18.874 Y27.132
X18.274 Y27.561
X17.649 Y27.954
X17.007 Y28.318
X16.354 Y28.659
X15.691 Y28.983
X15.02 Y29.292
X14.344 Y29.586
X13.661 Y29.867
X12.974 Y30.135
X12.282 Y30.392
X11.586 Y30.636
X10.886 Y30.868
X10.182 Y31.089
X9.474 Y31.298
X8.763 Y31.495
X8.049 Y31.681
X7.332 Y31.854
X6.612 Y32.016
X5.89 Y32.166
X5.165 Y32.304
X4.438 Y32.43
X3.709 Y32.545
X2.979 Y32.647
X2.246 Y32.737
X1.513 Y32.815
X0.778 Y32.881
X0.042 Y32.936
X-0.695 Y32.978
X-1.432 Y33.008
X-2.169 Y33.025
X-2.907 Y33.031
X-3.645 Y33.024
X-4.383 Y33.004
X-5.12 Y32.973
X-5.856 Y32.929
X-6.592 Y32.873
X-7.327 Y32.804
X-8.06 Y32.724
X-8.792 Y32.631
X-9.522 Y32.526
X-10.251 Y32.408
X-10.977 Y32.279
X-11.701 Y32.138
X-12.423 Y31.984
X-13.142 Y31.819
X-13.858 Y31.643
X-14.572 Y31.454
X-15.282 Y31.254
X-15.988 Y31.042
X-16.692 Y30.818
X-17.391 Y30.583
X-18.087 Y30.337
X-18.778 Y30.079
X-19.465 Y29.811
X-20.147 Y29.53
X-20.825 Y29.239
X-21.498 Y28.937
X-22.167 Y28.624
X-22.829 Y28.3
X-23.487 Y27.965
X-24.139 Y27.619
X-24.785 Y27.263
X-25.424 Y26.894
X-25.718 Y26.694
X-25.79 Y26.614
X-25.837 Y26.517
X-25.853 Y26.411
Y24.847
G3 X-25.279 Y24.67 I0.317 J0.011
G1 X-25.237 Y24.727 Z-1.492
X-25.198 Y24.781 Z-1.469
X-25.162 Y24.829 Z-1.431
X-25.132 Y24.87 Z-1.38
X-25.11 Y24.901 Z-1.32
X-25.096 Y24.919 Z-1.253
X-25.091 Y24.926 Z-1.183
G0 Z5.
X20.389 Y23.281
Z-0.865
G1 Z-1.183 F1016.
X20.393 Y23.288 Z-1.253
X20.405 Y23.308 Z-1.32
X20.424 Y23.341 Z-1.38
X20.45 Y23.384 Z-1.431
X20.481 Y23.436 Z-1.469
X20.515 Y23.493 Z-1.492
X20.551 Y23.554 Z-1.5
G3 X20.772 Y24.308 I-1.36 J0.809
G1 Y25.741
X20.765 Y25.891
X20.744 Y26.039
X20.704 Y26.214
X20.646 Y26.397
X20.563 Y26.6
X20.44 Y26.846
X20.29 Y27.093
X20.081 Y27.382
X19.808 Y27.701
X19.432 Y28.076
X18.941 Y28.492
X18.341 Y28.923
X17.715 Y29.313
X17.071 Y29.673
X16.414 Y30.01
X15.749 Y30.328
X15.076 Y30.63
X14.396 Y30.918
X13.712 Y31.193
X13.022 Y31.455
X12.328 Y31.706
X11.63 Y31.944
X10.928 Y32.171
X10.222 Y32.387
X9.513 Y32.591
X8.801 Y32.783
X8.086 Y32.964
X7.368 Y33.134
X6.647 Y33.292
X5.924 Y33.438
X5.198 Y33.573
X4.471 Y33.697
X3.742 Y33.808
X3.011 Y33.908
X2.278 Y33.997
X1.544 Y34.073
X0.809 Y34.139
X0.074 Y34.192
X-0.663 Y34.233
X-1.4 Y34.263
X-2.138 Y34.281
X-2.876 Y34.287
X-3.614 Y34.28
X-4.351 Y34.262
X-5.088 Y34.232
X-5.825 Y34.19
X-6.561 Y34.135
X-7.296 Y34.069
X-8.029 Y33.991
X-8.762 Y33.901
X-9.492 Y33.799
X-10.221 Y33.686
X-10.948 Y33.56
X-11.673 Y33.423
X-12.396 Y33.275
X-13.116 Y33.114
X-13.834 Y32.943
X-14.549 Y32.76
X-15.26 Y32.565
X-15.969 Y32.359
X-16.674 Y32.142
X-17.376 Y31.914
X-18.073 Y31.675
X-18.767 Y31.424
X-19.457 Y31.163
X-20.143 Y30.89
X-20.824 Y30.607
X-21.501 Y30.313
X-22.173 Y30.008
X-22.84 Y29.693
X-23.502 Y29.367
X-24.159 Y29.03
X-24.81 Y28.684
X-25.454 Y28.324
X-25.741 Y28.133
X-25.801 Y28.069
X-25.839 Y27.99
X-25.853 Y27.903
Y26.411
G3 X-25.279 Y26.234 I0.317 J0.011
G1 X-25.237 Y26.291 Z-1.492
X-25.198 Y26.345 Z-1.469
X-25.162 Y26.394 Z-1.431
X-25.132 Y26.434 Z-1.38
X-25.11 Y26.465 Z-1.32
X-25.096 Y26.484 Z-1.253
X-25.091 Y26.49 Z-1.183
G0 Z5.
X20.389 Y24.714
Z-0.865
G1 Z-1.183 F1016.
X20.393 Y24.721 Z-1.253
X20.405 Y24.741 Z-1.32
X20.424 Y24.774 Z-1.38
X20.45 Y24.817 Z-1.431
X20.481 Y24.869 Z-1.469
X20.515 Y24.927 Z-1.492
X20.551 Y24.987 Z-1.5
G3 X20.772 Y25.741 I-1.36 J0.809
G1 Y27.157
X20.765 Y27.307
X20.744 Y27.456
X20.705 Y27.63
X20.649 Y27.807
X20.568 Y28.01
X20.447 Y28.252
X20.304 Y28.488
X20.096 Y28.776
X19.836 Y29.082
X19.474 Y29.445
X19.007 Y29.843
X18.408 Y30.275
X17.781 Y30.663
X17.135 Y31.02
X16.477 Y31.353
X15.809 Y31.666
X15.133 Y31.963
X14.452 Y32.245
X13.765 Y32.514
X13.073 Y32.771
X12.377 Y33.016
X11.677 Y33.249
X10.973 Y33.471
X10.266 Y33.682
X9.556 Y33.881
X8.842 Y34.069
X8.126 Y34.246
X7.407 Y34.412
X6.686 Y34.566
X5.962 Y34.709
X5.236 Y34.841
X4.508 Y34.962
X3.778 Y35.071
X3.047 Y35.169
X2.314 Y35.256
X1.58 Y35.332
X0.845 Y35.395
X0.109 Y35.448
X-0.627 Y35.489
X-1.364 Y35.519
X-2.102 Y35.536
X-2.84 Y35.543
X-3.578 Y35.537
X-4.315 Y35.52
X-5.053 Y35.491
X-5.789 Y35.451
X-6.525 Y35.398
X-7.26 Y35.334
X-7.994 Y35.259
X-8.727 Y35.172
X-9.458 Y35.073
X-10.188 Y34.963
X-10.915 Y34.841
X-11.641 Y34.708
X-12.365 Y34.564
X-13.086 Y34.409
X-13.805 Y34.242
X-14.521 Y34.064
X-15.234 Y33.875
X-15.944 Y33.675
X-16.651 Y33.464
X-17.355 Y33.242
X-18.055 Y33.01
X-18.751 Y32.766
X-19.444 Y32.512
X-20.132 Y32.247
X-20.817 Y31.971
X-21.497 Y31.685
X-22.172 Y31.388
X-22.843 Y31.081
X-23.509 Y30.764
X-24.17 Y30.436
X-24.826 Y30.098
X-25.466 Y29.752
X-25.742 Y29.573
X-25.802 Y29.511
X-25.839 Y29.434
X-25.853 Y29.349
Y27.903
G3 X-25.279 Y27.726 I0.317 J0.011
G1 X-25.237 Y27.783 Z-1.492
X-25.198 Y27.837 Z-1.469
X-25.162 Y27.886 Z-1.431
X-25.132 Y27.926 Z-1.38
X-25.11 Y27.957 Z-1.32
X-25.096 Y27.976 Z-1.253
X-25.091 Y27.982 Z-1.183
G0 Z5.
X20.389 Y26.131
Z-0.865
G1 Z-1.183 F1016.
X20.393 Y26.138 Z-1.253
X20.405 Y26.158 Z-1.32
X20.424 Y26.191 Z-1.38
X20.45 Y26.234 Z-1.431
X20.481 Y26.286 Z-1.469
X20.515 Y26.343 Z-1.492
X20.551 Y26.404 Z-1.5
G3 X20.772 Y27.157 I-1.36 J0.809
G1 Y28.591
X20.765 Y28.741
X20.741 Y28.891
X20.7 Y29.065
X20.642 Y29.241
X20.553 Y29.452
X20.434 Y29.682
X20.282 Y29.926
X20.061 Y30.224
X19.804 Y30.518
X19.437 Y30.875
X18.944 Y31.283
X18.34 Y31.707
X17.708 Y32.087
X17.057 Y32.436
X16.394 Y32.76
X15.722 Y33.064
X15.043 Y33.353
X14.358 Y33.627
X13.668 Y33.888
X12.974 Y34.137
X12.275 Y34.374
X11.572 Y34.599
X10.867 Y34.814
X10.157 Y35.017
X9.445 Y35.21
X8.73 Y35.392
X8.012 Y35.562
X7.292 Y35.722
X6.569 Y35.871
X5.844 Y36.008
X5.117 Y36.135
X4.389 Y36.251
X3.658 Y36.356
X2.927 Y36.449
X2.193 Y36.532
X1.459 Y36.604
X0.937 Y36.646
X0.897 Y36.648
X-5.443
X-6.18 Y36.611
X-6.917 Y36.588
X-7.653 Y36.538
X-8.388 Y36.467
X-9.121 Y36.381
X-9.852 Y36.282
X-10.581 Y36.17
X-11.308 Y36.046
X-12.034 Y35.911
X-12.757 Y35.765
X-13.478 Y35.608
X-14.196 Y35.44
X-14.912 Y35.261
X-15.625 Y35.071
X-16.335 Y34.87
X-17.042 Y34.659
X-17.745 Y34.437
X-18.446 Y34.204
X-19.142 Y33.961
X-19.835 Y33.707
X-20.524 Y33.443
X-21.209 Y33.169
X-21.889 Y32.884
X-22.566 Y32.589
X-23.237 Y32.284
X-23.904 Y31.968
X-24.567 Y31.643
X-25.223 Y31.307
X-25.478 Y31.162
X-25.633 Y31.044
X-25.752 Y30.89
X-25.827 Y30.711
X-25.853 Y30.518
Y29.349
G3 X-25.279 Y29.172 I0.317 J0.011
G1 X-25.237 Y29.229 Z-1.492
X-25.198 Y29.283 Z-1.469
X-25.162 Y29.332 Z-1.431
X-25.132 Y29.372 Z-1.38
X-25.11 Y29.403 Z-1.32
X-25.096 Y29.422 Z-1.253
X-25.091 Y29.428 Z-1.183
G0 Z5.
X-4.416 Y36.264
Z-0.865
G1 Z-1.183 F1016.
X-4.423 Y36.268 Z-1.253
X-4.443 Y36.28 Z-1.32
X-4.476 Y36.299 Z-1.38
X-4.519 Y36.325 Z-1.431
X-4.571 Y36.356 Z-1.469
X-4.629 Y36.39 Z-1.492
X-4.689 Y36.426 Z-1.5
G3 X-5.443 Y36.648 I-0.809 J-1.36
G1 X-13.147
X-13.884 Y36.611
X-14.617 Y36.53
X-15.342 Y36.395
X-16.061 Y36.226
X-16.774 Y36.037
X-17.482 Y35.83
X-18.186 Y35.611
X-18.887 Y35.379
X-19.584 Y35.137
X-20.277 Y34.883
X-20.966 Y34.62
X-21.651 Y34.346
X-22.332 Y34.062
X-23.009 Y33.768
X-23.681 Y33.464
X-24.349 Y33.15
X-25.011 Y32.825
X-25.412 Y32.606
X-25.518 Y32.537
X-25.657 Y32.418
X-25.764 Y32.269
X-25.83 Y32.099
X-25.853 Y31.917
Y30.518
G3 X-25.279 Y30.341 I0.317 J0.011
G1 X-25.237 Y30.398 Z-1.492
X-25.198 Y30.452 Z-1.469
X-25.162 Y30.501 Z-1.431
X-25.132 Y30.541 Z-1.38
X-25.11 Y30.572 Z-1.32
X-25.096 Y30.591 Z-1.253
X-25.091 Y30.597 Z-1.183
G0 Z5.
X-12.12 Y36.264
Z-0.865
G1 Z-1.183 F1016.
X-12.127 Y36.268 Z-1.253
X-12.147 Y36.28 Z-1.32
X-12.18 Y36.299 Z-1.38
X-12.223 Y36.325 Z-1.431
X-12.275 Y36.356 Z-1.469
X-12.332 Y36.39 Z-1.492
X-12.393 Y36.426 Z-1.5
G3 X-13.147 Y36.648 I-0.809 J-1.36
G1 X-17.669
X-18.249 Y36.618
X-18.808 Y36.545
X-19.529 Y36.391
X-20.238 Y36.186
X-20.937 Y35.951
X-21.629 Y35.695
X-22.316 Y35.424
X-22.997 Y35.14
X-23.673 Y34.845
X-24.345 Y34.54
X-25.011 Y34.222
X-25.409 Y34.006
X-25.516 Y33.937
X-25.656 Y33.818
X-25.763 Y33.669
X-25.83 Y33.498
X-25.853 Y33.316
G3 X-25.279 Y33.139 I0.317 J0.011
G1 X-25.237 Y33.196 Z-1.492
X-25.198 Y33.25 Z-1.469
X-25.162 Y33.299 Z-1.431
X-25.132 Y33.339 Z-1.38
X-25.11 Y33.37 Z-1.32
X-25.096 Y33.389 Z-1.253
X-25.091 Y33.395 Z-1.183
G0 Z5.
X-16.642 Y36.264
Z-0.865
G1 Z-1.183 F1016.
X-16.649 Y36.268 Z-1.253
X-16.669 Y36.28 Z-1.32
X-16.702 Y36.299 Z-1.38
X-16.745 Y36.325 Z-1.431
X-16.797 Y36.356 Z-1.469
X-16.854 Y36.39 Z-1.492
X-16.915 Y36.426 Z-1.5
G3 X-17.669 Y36.648 I-0.809 J-1.36
G1 X-21.185
X-21.716 Y36.621
X-22.149 Y36.564
X-22.735 Y36.439
X-23.442 Y36.227
X-24.133 Y35.969
X-24.813 Y35.683
X-25.28 Y35.455
X-25.488 Y35.333
X-25.639 Y35.215
X-25.755 Y35.062
X-25.828 Y34.885
X-25.853 Y34.694
G3 X-25.424 Y34.408 I0.317 J0.011
G1 X-25.252 Y34.473
X-21.085 Y36.033
G3 X-21.185 Y36.648 I-0.111 J0.297
G1 X-24.368
X-24.631 Y36.634
X-24.872 Y36.603
X-25.101 Y36.554
X-25.298 Y36.495
X-25.381 Y36.463
X-25.572 Y36.352
X-25.723 Y36.19
X-25.819 Y35.991
X-25.853 Y35.772
G3 X-25.399 Y35.496 I0.317 J0.011
G1 X-25.257 Y35.564
X-24.243 Y36.043
G3 X-24.368 Y36.648 I-0.136 J0.287
G1 X-25.54 Y36.647
X-25.582 Y36.642
X-25.624 Y36.632
X-25.665 Y36.614
X-25.707 Y36.589
X-25.733 Y36.57
X-25.758 Y36.545
X-25.794 Y36.503
X-25.819 Y36.461
X-25.836 Y36.42
X-25.847 Y36.378
X-25.852 Y36.336
X-25.853 Y31.917
G3 X-25.279 Y31.74 I0.317 J0.011
G1 X-25.237 Y31.797 Z-1.492
X-25.198 Y31.852 Z-1.469
X-25.162 Y31.9 Z-1.431
X-25.132 Y31.941 Z-1.38
X-25.11 Y31.971 Z-1.32
X-25.096 Y31.99 Z-1.253
X-25.091 Y31.996 Z-1.183
G0 Z5.
X20.389 Y27.564
Z-0.865
G1 Z-1.183 F1016.
X20.393 Y27.571 Z-1.253
X20.405 Y27.591 Z-1.32
X20.424 Y27.624 Z-1.38
X20.45 Y27.667 Z-1.431
X20.481 Y27.719 Z-1.469
X20.515 Y27.777 Z-1.492
X20.551 Y27.837 Z-1.5
G3 X20.772 Y28.591 I-1.36 J0.809
G1 Y30.007
X20.765 Y30.157
X20.74 Y30.306
X20.696 Y30.482
X20.636 Y30.658
X20.546 Y30.866
X20.42 Y31.104
X20.267 Y31.344
X20.043 Y31.64
X19.779 Y31.935
X19.405 Y32.292
X18.912 Y32.692
X18.304 Y33.109
X17.668 Y33.483
X17.014 Y33.824
X16.347 Y34.141
X15.672 Y34.439
X14.99 Y34.72
X14.302 Y34.987
X13.61 Y35.241
X12.912 Y35.483
X12.212 Y35.713
X11.507 Y35.933
X10.799 Y36.141
X10.088 Y36.338
X9.375 Y36.525
X8.962 Y36.626
X8.904 Y36.638
X8.845 Y36.645
X8.786 Y36.648
X0.897
G3 X0.72 Y36.074 I0.011 J-0.317
G1 X0.777 Y36.032 Z-1.492
X0.831 Y35.993 Z-1.469
X0.88 Y35.957 Z-1.431
X0.92 Y35.927 Z-1.38
X0.951 Y35.905 Z-1.32
X0.97 Y35.891 Z-1.253
X0.976 Y35.886 Z-1.183
G0 Z5.
X20.389 Y28.981
Z-0.865
G1 Z-1.183 F1016.
X20.393 Y28.988 Z-1.253
X20.405 Y29.008 Z-1.32
X20.424 Y29.04 Z-1.38
X20.45 Y29.084 Z-1.431
X20.481 Y29.135 Z-1.469
X20.515 Y29.193 Z-1.492
X20.551 Y29.254 Z-1.5
G3 X20.772 Y30.007 I-1.36 J0.809
G1 Y31.348
X20.765 Y31.498
X20.745 Y31.647
X20.709 Y31.811
X20.654 Y31.989
X20.578 Y32.18
X20.465 Y32.408
X20.325 Y32.642
X20.135 Y32.906
X19.882 Y33.206
X19.562 Y33.529
X19.137 Y33.894
X18.545 Y34.324
X17.916 Y34.709
X17.265 Y35.057
X16.601 Y35.378
X15.927 Y35.677
X15.245 Y35.959
X14.557 Y36.226
X13.864 Y36.479
X13.494 Y36.607
X13.415 Y36.629
X13.334 Y36.643
X13.252 Y36.648
X8.786
G3 X8.672 Y36.038 I0.011 J-0.317
G1 X20.174 Y31.134
X20.331 Y31.067
G3 X20.772 Y31.348 I0.125 J0.292
G1 Y32.69
X20.763 Y32.875
X20.744 Y33.024
X20.71 Y33.181
X20.658 Y33.351
X20.579 Y33.553
X20.478 Y33.76
X20.34 Y33.993
X20.144 Y34.27
X19.919 Y34.54
X19.596 Y34.868
X19.193 Y35.219
X18.636 Y35.628
X18.008 Y36.016
X17.358 Y36.365
X16.924 Y36.574
X16.821 Y36.615
X16.713 Y36.639
X16.603 Y36.648
G3 X16.396 Y36.099 I0.011 J-0.317
G1 X16.425 Y36.072
X20.195 Y32.509
X20.237 Y32.47
G3 X20.772 Y32.69 I0.218 J0.231
G1 Y34.123
X20.765 Y34.273
X20.743 Y34.423
X20.707 Y34.576
X20.651 Y34.753
X20.567 Y34.957
X20.463 Y35.161
X20.312 Y35.407
X20.122 Y35.668
X19.876 Y35.954
X19.553 Y36.273
X19.316 Y36.473
X19.172 Y36.568
X19.01 Y36.627
X18.839 Y36.648
G3 X18.593 Y36.143 I0.011 J-0.317
G1 X18.651 Y36.064
X20.199 Y33.947
G3 X20.772 Y34.123 I0.256 J0.187
G1 Y35.464
X20.765 Y35.614
X20.745 Y35.763
X20.711 Y35.92
X20.66 Y36.086
X20.623 Y36.179
X20.513 Y36.37
X20.351 Y36.519
X20.152 Y36.615
X19.935 Y36.648
G3 X19.673 Y36.168 I0.011 J-0.317
G1 X19.738 Y36.058
X20.182 Y35.313
G3 X20.772 Y35.464 I0.273 J0.163
G1 Y36.336
X20.767 Y36.378
X20.757 Y36.418
X20.74 Y36.459
X20.716 Y36.499
X20.683 Y36.54
X20.678 Y36.545
X20.637 Y36.58
X20.597 Y36.607
X20.556 Y36.626
X20.516 Y36.639
X20.474 Y36.646
X20.432 Y36.648
X13.252
G3 X12.946 Y36.35 I0.011 J-0.317
G1 X12.945 Y36.33 Z-1.499
X12.959 Y36.277 Z-1.491
X12.972 Y36.226 Z-1.473
X12.984 Y36.179 Z-1.446
X13.015 Y36.143 Z-1.406
X13.04 Y36.114 Z-1.358
X13.059 Y36.092 Z-1.303
X13.071 Y36.079 Z-1.244
X13.075 Y36.074 Z-1.183
G0 Z5.
X-1.257 Y-12.695
Z1.
G3 X-3.823 Y-11.109 Z0.835 I-1.283 J0.793 F1016.
X-1.257 Y-12.695 Z0.669 I1.283 J-0.793
X-3.823 Y-11.109 Z0.504 I-1.283 J0.793
X-1.257 Y-12.695 Z0.338 I1.283 J-0.793
X-3.823 Y-11.109 Z0.173 I-1.283 J0.793
X-1.257 Y-12.695 Z0.007 I1.283 J-0.793
X-3.823 Y-11.109 Z-0.158 I-1.283 J0.793
X-1.257 Y-12.695 Z-0.324 I1.283 J-0.793
X-3.823 Y-11.109 Z-0.489 I-1.283 J0.793
X-1.257 Y-12.695 Z-0.655 I1.283 J-0.793
X-3.823 Y-11.109 Z-0.82 I-1.283 J0.793
X-1.257 Y-12.695 Z-0.985 I1.283 J-0.793
X-3.823 Y-11.109 Z-1.151 I-1.283 J0.793
X-1.257 Y-12.695 Z-1.316 I1.283 J-0.793
X-3.823 Y-11.109 Z-1.482 I-1.283 J0.793
X-1.257 Y-12.695 Z-1.647 I1.283 J-0.793
X-3.823 Y-11.109 Z-1.813 I-1.283 J0.793
X-1.257 Y-12.695 Z-1.978 I1.283 J-0.793
X-3.823 Y-11.109 Z-2.144 I-1.283 J0.793
X-1.257 Y-12.695 Z-2.309 I1.283 J-0.793
X-3.823 Y-11.109 Z-2.474 I-1.283 J0.793
X-1.257 Y-12.695 Z-2.64 I1.283 J-0.793
X-3.823 Y-11.109 Z-2.805 I-1.283 J0.793
X-1.257 Y-12.695 Z-2.971 I1.283 J-0.793
X-1.032 Y-11.902 Z-3. I-1.283 J0.793
X-4.048 I-1.508 J0.
X-1.032 I1.508 J0.
G1 X-1.013 Y-11.165
X-0.991 Y-11.075
X-0.975 Y-10.926
X-0.988 Y-10.777
X-1.023 Y-10.631
X-1.078 Y-10.491
X-1.15 Y-10.359
X-1.236 Y-10.236
X-1.334 Y-10.123
X-1.442 Y-10.019
X-1.56 Y-9.927
X-1.686 Y-9.845
X-1.818 Y-9.774
X-1.956 Y-9.713
X-2.103 Y-9.663
X-2.257 Y-9.623
X-2.417 Y-9.596
X-2.582 Y-9.581
X-2.751 Y-9.58
X-2.922 Y-9.592
X-3.094 Y-9.618
X-3.265 Y-9.658
X-3.435 Y-9.713
X-3.601 Y-9.782
X-3.763 Y-9.864
X-3.918 Y-9.961
X-4.067 Y-10.07
X-4.207 Y-10.191
X-4.338 Y-10.324
X-4.458 Y-10.468
X-4.567 Y-10.622
X-4.663 Y-10.784
X-4.747 Y-10.954
X-4.816 Y-11.131
X-4.872 Y-11.314
X-4.912 Y-11.5
X-4.938 Y-11.69
X-4.948 Y-11.881
X-4.943 Y-12.073
X-4.922 Y-12.264
X-4.887 Y-12.454
X-4.836 Y-12.639
X-4.77 Y-12.821
X-4.69 Y-12.996
X-4.596 Y-13.165
X-4.488 Y-13.325
X-4.368 Y-13.477
X-4.237 Y-13.619
X-4.094 Y-13.749
X-3.941 Y-13.868
X-3.779 Y-13.974
X-3.609 Y-14.067
X-3.432 Y-14.146
X-3.249 Y-14.21
X-3.062 Y-14.26
X-2.871 Y-14.294
X-2.679 Y-14.313
X-2.485 Y-14.316
X-2.291 Y-14.304
X-2.099 Y-14.276
X-1.91 Y-14.234
X-1.725 Y-14.176
X-1.546 Y-14.103
X-1.372 Y-14.016
X-1.206 Y-13.916
X-1.049 Y-13.802
X-0.901 Y-13.676
X-0.764 Y-13.539
X-0.639 Y-13.391
X-0.525 Y-13.234
X-0.421 Y-13.061
X-0.31 Y-12.839
X-0.163 Y-12.474
X-0.056 Y-12.131
X0.008 Y-11.849
X0.045 Y-11.593
X0.06 Y-11.356
X0.056 Y-11.133
X0.034 Y-10.92
X-0.003 Y-10.713
X-0.057 Y-10.51
X-0.126 Y-10.313
X-0.212 Y-10.123
X-0.312 Y-9.94
X-0.426 Y-9.765
X-0.556 Y-9.599
X-0.7 Y-9.441
X-0.858 Y-9.294
X-1.03 Y-9.159
X-1.214 Y-9.036
X-1.411 Y-8.926
X-1.619 Y-8.832
X-1.836 Y-8.753
X-2.063 Y-8.691
X-2.297 Y-8.647
X-2.537 Y-8.621
X-2.781 Y-8.615
X-3.027 Y-8.628
X-3.274 Y-8.662
X-3.52 Y-8.715
X-3.763 Y-8.789
X-4. Y-8.883
X-4.231 Y-8.997
X-4.454 Y-9.129
X-4.667 Y-9.28
X-4.868 Y-9.448
X-5.056 Y-9.633
X-5.229 Y-9.833
X-5.386 Y-10.048
X-5.526 Y-10.275
X-5.648 Y-10.514
X-5.75 Y-10.762
X-5.833 Y-11.019
X-5.895 Y-11.282
X-5.935 Y-11.55
X-5.954 Y-11.821
X-5.952 Y-12.092
X-5.927 Y-12.363
X-5.881 Y-12.632
X-5.813 Y-12.897
X-5.724 Y-13.155
X-5.614 Y-13.406
X-5.485 Y-13.647
X-5.336 Y-13.877
X-5.17 Y-14.095
X-4.986 Y-14.298
X-4.787 Y-14.487
X-4.573 Y-14.659
X-4.346 Y-14.813
X-4.107 Y-14.949
X-3.858 Y-15.065
X-3.6 Y-15.16
X-3.336 Y-15.235
X-3.066 Y-15.288
X-2.793 Y-15.32
X-2.518 Y-15.329
X-2.243 Y-15.316
X-1.97 Y-15.281
X-1.701 Y-15.225
X-1.437 Y-15.147
X-1.18 Y-15.048
X-0.932 Y-14.929
X-0.694 Y-14.79
X-0.469 Y-14.633
X-0.255 Y-14.457
X-0.049 Y-14.257
X0.165 Y-14.013
X0.367 Y-13.743
X0.554 Y-13.446
X0.718 Y-13.129
X0.856 Y-12.804
X0.964 Y-12.478
X1.043 Y-12.154
X1.094 Y-11.834
X1.119 Y-11.518
X1.118 Y-11.205
X1.093 Y-10.898
X1.043 Y-10.596
X0.97 Y-10.302
X0.875 Y-10.017
X0.757 Y-9.741
X0.617 Y-9.475
X0.456 Y-9.221
X0.275 Y-8.981
X0.075 Y-8.754
X-0.145 Y-8.544
X-0.382 Y-8.35
X-0.636 Y-8.174
X-0.906 Y-8.018
X-1.189 Y-7.883
X-1.485 Y-7.771
X-1.792 Y-7.681
X-2.108 Y-7.616
X-2.431 Y-7.576
X-2.758 Y-7.563
X-3.088 Y-7.575
X-3.417 Y-7.614
X-3.745 Y-7.68
X-4.069 Y-7.773
X-4.386 Y-7.892
X-4.694 Y-8.037
X-4.992 Y-8.208
X-5.276 Y-8.402
X-5.545 Y-8.62
X-5.797 Y-8.86
X-6.029 Y-9.12
X-6.241 Y-9.4
X-6.431 Y-9.696
X-6.596 Y-10.008
X-6.736 Y-10.332
X-6.851 Y-10.668
X-6.938 Y-11.013
X-6.997 Y-11.365
X-7.028 Y-11.72
X-7.03 Y-12.078
X-7.003 Y-12.435
X-6.948 Y-12.789
X-6.865 Y-13.139
X-6.753 Y-13.48
X-6.615 Y-13.812
X-6.45 Y-14.132
X-6.26 Y-14.438
X-6.045 Y-14.728
X-5.808 Y-15.
X-5.55 Y-15.252
X-5.273 Y-15.483
X-4.977 Y-15.691
X-4.666 Y-15.874
X-4.341 Y-16.032
X-4.004 Y-16.163
X-3.658 Y-16.267
X-3.304 Y-16.343
X-2.946 Y-16.39
X-2.585 Y-16.408
X-2.223 Y-16.398
X-1.864 Y-16.358
X-1.508 Y-16.289
X-1.16 Y-16.192
X-0.82 Y-16.068
X-0.491 Y-15.916
X-0.173 Y-15.738
X0.14 Y-15.528
X0.443 Y-15.286
X0.735 Y-15.012
X1.012 Y-14.708
X1.267 Y-14.376
X1.497 Y-14.023
X1.699 Y-13.651
X1.868 Y-13.267
X2.006 Y-12.874
X2.11 Y-12.474
X2.181 Y-12.071
X2.22 Y-11.667
X2.226 Y-11.265
X2.199 Y-10.867
X2.142 Y-10.474
X2.053 Y-10.09
X1.934 Y-9.715
X1.786 Y-9.352
X1.609 Y-9.002
X1.405 Y-8.668
X1.175 Y-8.35
X0.918 Y-8.051
X0.638 Y-7.773
X0.335 Y-7.517
X0.011 Y-7.285
X-0.333 Y-7.079
X-0.694 Y-6.899
X-1.071 Y-6.749
X-1.461 Y-6.628
X-1.862 Y-6.539
X-2.272 Y-6.481
X-2.687 Y-6.457
X-3.105 Y-6.466
X-3.523 Y-6.509
X-3.939 Y-6.586
X-4.349 Y-6.696
X-4.752 Y-6.84
X-5.143 Y-7.016
X-5.521 Y-7.224
X-5.882 Y-7.463
X-6.224 Y-7.731
X-6.545 Y-8.027
X-6.842 Y-8.348
X-7.114 Y-8.694
X-7.357 Y-9.061
X-7.571 Y-9.448
X-7.753 Y-9.852
X-7.903 Y-10.27
X-8.019 Y-10.7
X-8.1 Y-11.138
X-8.146 Y-11.582
X-8.156 Y-12.029
X-8.13 Y-12.476
X-8.069 Y-12.92
X-7.971 Y-13.359
X-7.839 Y-13.788
X-7.673 Y-14.206
X-7.473 Y-14.609
X-7.242 Y-14.996
X-6.98 Y-15.363
X-6.689 Y-15.707
